; G-Code generated by Simplify3D(R) Version 4.0.0
; May 19, 2019 at 8:40:58 PM
; Settings Summary
;   processName,Basis
;   applyToModels,GW60_GurtRad001(2)
;   profileName,GW60_GurtRad (modified)
;   profileVersion,2019-04-11 23:30:08
;   baseProfile,Tierkoepfe
;   printMaterial,
;   printQuality,
;   printExtruders,
;   extruderName,Primary Extruder
;   extruderToolheadNumber,0
;   extruderDiameter,0.4
;   extruderAutoWidth,0
;   extruderWidth,0.38
;   extrusionMultiplier,0.91
;   extruderUseRetract,1
;   extruderRetractionDistance,3.6
;   extruderExtraRestartDistance,0
;   extruderRetractionZLift,0.4
;   extruderRetractionSpeed,1800
;   extruderUseCoasting,0
;   extruderCoastingDistance,0.2
;   extruderUseWipe,0
;   extruderWipeDistance,5
;   primaryExtruder,0
;   layerHeight,0.3
;   topSolidLayers,3
;   bottomSolidLayers,3
;   perimeterOutlines,2
;   printPerimetersInsideOut,1
;   startPointOption,2
;   startPointOriginX,0
;   startPointOriginY,0
;   sequentialIslands,0
;   spiralVaseMode,0
;   firstLayerHeightPercentage,100
;   firstLayerWidthPercentage,100
;   firstLayerUnderspeed,0.5
;   useRaft,0
;   raftExtruder,0
;   raftTopLayers,3
;   raftBaseLayers,2
;   raftOffset,3
;   raftSeparationDistance,0.16
;   raftTopInfill,100
;   aboveRaftSpeedMultiplier,0.3
;   useSkirt,1
;   skirtExtruder,0
;   skirtLayers,1
;   skirtOutlines,2
;   skirtOffset,4
;   usePrimePillar,0
;   primePillarExtruder,999
;   primePillarWidth,12
;   primePillarLocation,7
;   primePillarSpeedMultiplier,1
;   useOozeShield,0
;   oozeShieldExtruder,999
;   oozeShieldOffset,2
;   oozeShieldOutlines,1
;   oozeShieldSidewallShape,1
;   oozeShieldSidewallAngle,30
;   oozeShieldSpeedMultiplier,1
;   infillExtruder,0
;   internalInfillPattern,Rectilinear
;   externalInfillPattern,Rectilinear
;   infillPercentage,20
;   outlineOverlapPercentage,20
;   infillExtrusionWidthPercentage,95
;   minInfillLength,0.6
;   infillLayerInterval,1
;   internalInfillAngles,0,90
;   overlapInternalInfillAngles,0
;   externalInfillAngles,0,90
;   generateSupport,1
;   supportExtruder,0
;   supportInfillPercentage,20
;   supportExtraInflation,0
;   supportBaseLayers,0
;   denseSupportExtruder,0
;   denseSupportLayers,0
;   denseSupportInfillPercentage,50
;   supportLayerInterval,1
;   supportHorizontalPartOffset,0.3
;   supportUpperSeparationLayers,1
;   supportLowerSeparationLayers,1
;   supportType,0
;   supportGridSpacing,1
;   maxOverhangAngle,50
;   supportAngles,0
;   temperatureName,Primary Extruder,Heated Bed
;   temperatureNumber,0,0
;   temperatureSetpointCount,1,1
;   temperatureSetpointLayers,1,1
;   temperatureSetpointTemperatures,205,50
;   temperatureStabilizeAtStartup,1,1
;   temperatureHeatedBed,0,1
;   temperatureRelayBetweenLayers,0,0
;   temperatureRelayBetweenLoops,0,0
;   fanLayers,1,2
;   fanSpeeds,70,60
;   blipFanToFullPower,0
;   adjustSpeedForCooling,1
;   minSpeedLayerTime,15
;   minCoolingSpeedSlowdown,20
;   increaseFanForCooling,0
;   minFanLayerTime,45
;   maxCoolingFanSpeed,100
;   increaseFanForBridging,0
;   bridgingFanSpeed,100
;   use5D,1
;   relativeEdistances,0
;   allowEaxisZeroing,1
;   independentExtruderAxes,0
;   includeM10123,0
;   stickySupport,1
;   applyToolheadOffsets,0
;   gcodeXoffset,0
;   gcodeYoffset,0
;   gcodeZoffset,0
;   overrideMachineDefinition,1
;   machineTypeOverride,0
;   strokeXoverride,300
;   strokeYoverride,300
;   strokeZoverride,400
;   originOffsetXoverride,0
;   originOffsetYoverride,0
;   originOffsetZoverride,0
;   homeXdirOverride,-1
;   homeYdirOverride,-1
;   homeZdirOverride,-1
;   flipXoverride,1
;   flipYoverride,-1
;   flipZoverride,1
;   toolheadOffsets,0,0|0,0|0,0|0,0|0,0|0,0
;   overrideFirmwareConfiguration,1
;   firmwareTypeOverride,RepRap (Marlin/Repetier/Sprinter)
;   GPXconfigOverride,r2
;   baudRateOverride,115200
;   overridePrinterModels,0
;   printerModelsOverride
;   startingGcode,M104 S[extruder0_temperature] T0,M190 S[bed0_temperature] T0,M109 S[extruder0_temperature] T0,G28 ; home all axes,G1 Z5 F3000 ; lift,G1 X2 Y20 F1500 ; avoid binder clips,G1 Z0.2 F3000 ; get ready to prime,G92 E0 ; reset extrusion distance,G1 X120 E10 F600 ; prime nozzle,G1 X250 F5000 ; quick wipe
;   layerChangeGcode,
;   retractionGcode,
;   toolChangeGcode,
;   endingGcode,G28 X0 ; home x axis,M106 S0 ; turn off cooling fan,M104 S0 ; turn off extruder,M140 S0 ; turn off bed,G28 X0 ; home x axis,G1 Y200  ; move to park position,M84 ; disable motors
;   exportFileFormat,gcode
;   celebration,0
;   celebrationSong,Funky Town
;   postProcessing,
;   defaultSpeed,4000
;   outlineUnderspeed,0.8
;   solidInfillUnderspeed,0.8
;   supportUnderspeed,0.8
;   rapidXYspeed,4800
;   rapidZspeed,1002
;   minBridgingArea,5
;   bridgingExtraInflation,0
;   bridgingExtrusionMultiplier,1
;   bridgingSpeedMultiplier,0.75
;   useFixedBridgingAngle,0
;   fixedBridgingAngle,0
;   applyBridgingToPerimeters,0
;   filamentDiameters,1.75|1.75|1.75|1.75|1.75|1.75
;   filamentPricesPerKg,30|46|46|46|46|46
;   filamentDensities,1.25|1.25|1.25|1.25|1.25|1.25
;   useMinPrintHeight,0
;   minPrintHeight,0
;   useMaxPrintHeight,0
;   maxPrintHeight,0.4
;   useDiaphragm,1
;   diaphragmLayerInterval,25
;   robustSlicing,1
;   mergeAllIntoSolid,0
;   onlyRetractWhenCrossingOutline,1
;   retractBetweenLayers,1
;   useRetractionMinTravel,0
;   retractionMinTravel,3
;   retractWhileWiping,0
;   onlyWipeOutlines,1
;   avoidCrossingOutline,0
;   maxMovementDetourFactor,3
;   toolChangeRetractionDistance,12
;   toolChangeExtraRestartDistance,-0.5
;   toolChangeRetractionSpeed,600
;   externalThinWallType,0
;   internalThinWallType,2
;   thinWallAllowedOverlapPercentage,25
;   singleExtrusionMinLength,1
;   singleExtrusionMinPrintingWidthPercentage,50
;   singleExtrusionMaxPrintingWidthPercentage,200
;   singleExtrusionEndpointExtension,0.2
;   horizontalSizeCompensation,0
G90
M82
M106 S178
M104 S205 T0
M190 S50 T0
M109 S205 T0
G28 ; home all axes
G1 Z5 F3000 ; lift
G1 X2 Y20 F1500 ; avoid binder clips
G1 Z0.2 F3000 ; get ready to prime
G92 E0 ; reset extrusion distance
G1 X120 E10 F600 ; prime nozzle
G1 X250 F5000 ; quick wipe
G92 E0
G1 E-3.6000 F1800
G1 Z0.700 F1002
; process Basis
; layer 1, Z = 0.300
T0
; tool H0.300 W0.380
; skirt
G1 X116.119 Y116.597 F4800
G1 Z0.300 F1002
G1 E0.0000 F540
G92 E0
G1 X116.125 Y116.590 E0.0004 F2000
G1 X118.336 Y114.489 E0.1319
G1 X118.343 Y114.482 E0.1323
G1 X118.451 Y114.386 E0.1386
G1 X118.458 Y114.380 E0.1390
G1 X120.805 Y112.433 E0.2705
G1 X120.813 Y112.427 E0.2709
G1 X120.927 Y112.338 E0.2772
G1 X120.935 Y112.333 E0.2776
G1 X123.408 Y110.549 E0.4091
G1 X123.416 Y110.543 E0.4095
G1 X123.536 Y110.463 E0.4158
G1 X123.544 Y110.457 E0.4162
G1 X126.132 Y108.844 E0.5477
G1 X126.140 Y108.839 E0.5481
G1 X126.265 Y108.767 E0.5544
G1 X126.274 Y108.762 E0.5548
G1 X128.965 Y107.328 E0.6863
G1 X128.973 Y107.323 E0.6867
G1 X129.103 Y107.260 E0.6930
G1 X129.112 Y107.255 E0.6934
G1 X131.893 Y106.006 E0.8249
G1 X131.902 Y106.002 E0.8253
G1 X132.036 Y105.947 E0.8316
G1 X132.045 Y105.944 E0.8320
G1 X134.905 Y104.885 E0.9635
G1 X134.914 Y104.881 E0.9639
G1 X135.051 Y104.836 E0.9701
G1 X135.060 Y104.833 E0.9706
G1 X137.985 Y103.969 E1.1021
G1 X137.994 Y103.967 E1.1025
G1 X138.134 Y103.930 E1.1087
G1 X138.144 Y103.928 E1.1092
G1 X141.120 Y103.264 E1.2407
G1 X141.129 Y103.262 E1.2411
G1 X141.271 Y103.235 E1.2473
G1 X141.281 Y103.234 E1.2477
G1 X144.295 Y102.772 E1.3793
G1 X144.305 Y102.771 E1.3797
G1 X144.448 Y102.754 E1.3859
G1 X144.458 Y102.753 E1.3863
G1 X147.496 Y102.495 E1.5179
G1 X147.506 Y102.495 E1.5183
G1 X147.651 Y102.487 E1.5245
G1 X147.660 Y102.487 E1.5249
G1 X150.709 Y102.436 E1.6564
G1 X150.719 Y102.436 E1.6569
G1 X150.863 Y102.438 E1.6631
G1 X150.873 Y102.438 E1.6635
G1 X153.919 Y102.593 E1.7950
G1 X153.928 Y102.593 E1.7955
G1 X154.072 Y102.606 E1.8017
G1 X154.082 Y102.607 E1.8021
G1 X157.110 Y102.966 E1.9336
G1 X157.120 Y102.968 E1.9340
G1 X157.263 Y102.990 E1.9403
G1 X157.272 Y102.991 E1.9407
G1 X160.269 Y103.554 E2.0722
G1 X160.278 Y103.556 E2.0726
G1 X160.420 Y103.588 E2.0789
G1 X160.429 Y103.590 E2.0793
G1 X163.381 Y104.354 E2.2108
G1 X163.390 Y104.357 E2.2112
G1 X163.529 Y104.398 E2.2175
G1 X163.538 Y104.401 E2.2179
G1 X166.432 Y105.363 E2.3494
G1 X166.441 Y105.366 E2.3498
G1 X166.577 Y105.416 E2.3561
G1 X166.586 Y105.420 E2.3565
G1 X169.408 Y106.575 E2.4880
G1 X169.417 Y106.579 E2.4884
G1 X169.549 Y106.638 E2.4947
G1 X169.558 Y106.642 E2.4951
G1 X172.295 Y107.985 E2.6266
G1 X172.304 Y107.989 E2.6270
G1 X172.432 Y108.057 E2.6333
G1 X172.440 Y108.062 E2.6337
G1 X175.081 Y109.587 E2.7652
G1 X175.089 Y109.592 E2.7656
G1 X175.212 Y109.668 E2.7718
G1 X175.220 Y109.674 E2.7723
G1 X177.752 Y111.373 E2.9038
G1 X177.760 Y111.378 E2.9042
G1 X177.877 Y111.463 E2.9104
G1 X177.885 Y111.469 E2.9109
G1 X180.296 Y113.335 E3.0424
G1 X180.304 Y113.341 E3.0428
G1 X180.415 Y113.434 E3.0490
G1 X180.423 Y113.440 E3.0494
G1 X182.702 Y115.465 E3.1810
G1 X182.709 Y115.472 E3.1814
G1 X182.814 Y115.571 E3.1876
G1 X182.821 Y115.578 E3.1880
G1 X184.959 Y117.753 E3.3196
G1 X184.966 Y117.760 E3.3200
G1 X185.064 Y117.866 E3.3262
G1 X185.070 Y117.873 E3.3266
G1 X187.056 Y120.187 E3.4581
G1 X187.062 Y120.194 E3.4586
G1 X187.153 Y120.307 E3.4648
G1 X187.159 Y120.315 E3.4652
G1 X188.984 Y122.758 E3.5967
G1 X188.990 Y122.765 E3.5972
G1 X189.073 Y122.884 E3.6034
G1 X189.078 Y122.892 E3.6038
G1 X190.735 Y125.452 E3.7353
G1 X190.740 Y125.461 E3.7357
G1 X190.814 Y125.585 E3.7420
G1 X190.819 Y125.593 E3.7424
G1 X192.299 Y128.259 E3.8739
G1 X192.303 Y128.268 E3.8743
G1 X192.369 Y128.397 E3.8806
G1 X192.374 Y128.405 E3.8810
G1 X193.670 Y131.165 E4.0125
G1 X193.674 Y131.174 E4.0129
G1 X193.731 Y131.307 E4.0192
G1 X193.735 Y131.316 E4.0196
G1 X194.842 Y134.157 E4.1511
G1 X194.845 Y134.166 E4.1515
G1 X194.893 Y134.303 E4.1578
G1 X194.896 Y134.312 E4.1582
G1 X195.809 Y137.221 E4.2897
G1 X195.812 Y137.231 E4.2901
G1 X195.851 Y137.370 E4.2964
G1 X195.853 Y137.379 E4.2968
G1 X196.567 Y140.344 E4.4283
G1 X196.569 Y140.353 E4.4287
G1 X196.599 Y140.495 E4.4350
G1 X196.600 Y140.505 E4.4354
G1 X197.113 Y143.511 E4.5669
G1 X197.114 Y143.520 E4.5673
G1 X197.134 Y143.664 E4.5735
G1 X197.135 Y143.673 E4.5740
G1 X197.444 Y146.707 E4.7055
G1 X197.444 Y146.716 E4.7059
G1 X197.454 Y146.861 E4.7121
G1 X197.455 Y146.870 E4.7126
G1 X197.558 Y149.918 E4.8441
G1 X197.558 Y149.928 E4.8445
G1 X197.558 Y150.072 E4.8507
G1 X197.558 Y150.082 E4.8511
G1 X197.455 Y153.130 E4.9827
G1 X197.454 Y153.139 E4.9831
G1 X197.444 Y153.284 E4.9893
G1 X197.444 Y153.293 E4.9897
G1 X197.135 Y156.327 E5.1213
G1 X197.134 Y156.336 E5.1217
G1 X197.114 Y156.480 E5.1279
G1 X197.113 Y156.489 E5.1283
G1 X196.600 Y159.495 E5.2598
G1 X196.599 Y159.505 E5.2603
G1 X196.569 Y159.647 E5.2665
G1 X196.567 Y159.656 E5.2669
G1 X195.853 Y162.621 E5.3984
G1 X195.851 Y162.630 E5.3989
G1 X195.812 Y162.769 E5.4051
G1 X195.809 Y162.779 E5.4055
G1 X194.896 Y165.688 E5.5370
G1 X194.893 Y165.697 E5.5374
G1 X194.845 Y165.834 E5.5437
G1 X194.842 Y165.843 E5.5441
G1 X193.735 Y168.684 E5.6756
G1 X193.731 Y168.693 E5.6760
G1 X193.674 Y168.826 E5.6823
G1 X193.670 Y168.835 E5.6827
G1 X192.374 Y171.595 E5.8142
G1 X192.369 Y171.603 E5.8146
G1 X192.303 Y171.732 E5.8209
G1 X192.299 Y171.741 E5.8213
G1 X190.819 Y174.407 E5.9528
G1 X190.814 Y174.415 E5.9532
G1 X190.740 Y174.539 E5.9595
G1 X190.735 Y174.548 E5.9599
G1 X189.078 Y177.108 E6.0914
G1 X189.073 Y177.116 E6.0918
G1 X188.990 Y177.235 E6.0981
G1 X188.984 Y177.242 E6.0985
G1 X187.159 Y179.685 E6.2300
G1 X187.153 Y179.693 E6.2304
G1 X187.062 Y179.806 E6.2367
G1 X187.056 Y179.813 E6.2371
G1 X185.070 Y182.127 E6.3686
G1 X185.064 Y182.134 E6.3690
G1 X184.966 Y182.240 E6.3752
G1 X184.959 Y182.247 E6.3757
G1 X182.821 Y184.422 E6.5072
G1 X182.814 Y184.429 E6.5076
G1 X182.709 Y184.528 E6.5138
G1 X182.702 Y184.535 E6.5143
G1 X180.423 Y186.560 E6.6458
G1 X180.415 Y186.566 E6.6462
G1 X180.304 Y186.659 E6.6524
G1 X180.296 Y186.665 E6.6528
G1 X177.885 Y188.531 E6.7844
G1 X177.877 Y188.537 E6.7848
G1 X177.760 Y188.622 E6.7910
G1 X177.752 Y188.627 E6.7914
G1 X175.220 Y190.326 E6.9230
G1 X175.212 Y190.332 E6.9234
G1 X175.089 Y190.408 E6.9296
G1 X175.081 Y190.413 E6.9300
G1 X172.440 Y191.938 E7.0616
G1 X172.432 Y191.943 E7.0620
G1 X172.304 Y192.011 E7.0682
G1 X172.295 Y192.015 E7.0686
G1 X169.558 Y193.358 E7.2001
G1 X169.549 Y193.362 E7.2006
G1 X169.417 Y193.421 E7.2068
G1 X169.408 Y193.425 E7.2072
G1 X166.586 Y194.580 E7.3387
G1 X166.577 Y194.584 E7.3392
G1 X166.441 Y194.634 E7.3454
G1 X166.432 Y194.637 E7.3458
G1 X163.538 Y195.599 E7.4773
G1 X163.529 Y195.602 E7.4777
G1 X163.390 Y195.643 E7.4840
G1 X163.381 Y195.646 E7.4844
G1 X160.429 Y196.410 E7.6159
G1 X160.420 Y196.412 E7.6163
G1 X160.278 Y196.444 E7.6226
G1 X160.269 Y196.446 E7.6230
G1 X157.272 Y197.009 E7.7545
G1 X157.263 Y197.010 E7.7549
G1 X157.120 Y197.032 E7.7612
G1 X157.110 Y197.034 E7.7616
G1 X154.082 Y197.393 E7.8931
G1 X154.072 Y197.394 E7.8935
G1 X153.928 Y197.407 E7.8998
G1 X153.919 Y197.407 E7.9002
G1 X150.873 Y197.562 E8.0317
G1 X150.863 Y197.562 E8.0321
G1 X150.719 Y197.564 E8.0384
G1 X150.709 Y197.564 E8.0388
G1 X147.660 Y197.513 E8.1703
G1 X147.651 Y197.513 E8.1707
G1 X147.506 Y197.505 E8.1769
G1 X147.496 Y197.505 E8.1774
G1 X144.458 Y197.247 E8.3089
G1 X144.448 Y197.246 E8.3093
G1 X144.305 Y197.229 E8.3155
G1 X144.295 Y197.228 E8.3160
G1 X141.281 Y196.766 E8.4475
G1 X141.271 Y196.765 E8.4479
G1 X141.129 Y196.738 E8.4541
G1 X141.120 Y196.736 E8.4545
G1 X138.144 Y196.072 E8.5861
G1 X138.134 Y196.070 E8.5865
G1 X137.994 Y196.033 E8.5927
G1 X137.985 Y196.031 E8.5931
G1 X135.060 Y195.167 E8.7247
G1 X135.051 Y195.164 E8.7251
G1 X134.914 Y195.119 E8.7313
G1 X134.905 Y195.115 E8.7317
G1 X132.045 Y194.056 E8.8633
G1 X132.036 Y194.053 E8.8637
G1 X131.902 Y193.998 E8.8699
G1 X131.893 Y193.994 E8.8703
G1 X129.112 Y192.745 E9.0018
G1 X129.103 Y192.740 E9.0023
G1 X128.973 Y192.677 E9.0085
G1 X128.965 Y192.672 E9.0089
G1 X126.274 Y191.238 E9.1404
G1 X126.265 Y191.233 E9.1409
G1 X126.140 Y191.161 E9.1471
G1 X126.132 Y191.156 E9.1475
G1 X123.544 Y189.543 E9.2790
G1 X123.536 Y189.537 E9.2794
G1 X123.416 Y189.457 E9.2857
G1 X123.408 Y189.451 E9.2861
G1 X120.935 Y187.667 E9.4176
G1 X120.927 Y187.662 E9.4180
G1 X120.813 Y187.573 E9.4243
G1 X120.805 Y187.567 E9.4247
G1 X118.458 Y185.620 E9.5562
G1 X118.451 Y185.614 E9.5566
G1 X118.343 Y185.518 E9.5629
G1 X118.336 Y185.511 E9.5633
G1 X116.125 Y183.410 E9.6948
G1 X116.119 Y183.403 E9.6952
G1 X116.017 Y183.300 E9.7015
G1 X116.010 Y183.293 E9.7019
G1 X113.947 Y181.048 E9.8334
G1 X113.941 Y181.041 E9.8338
G1 X113.846 Y180.931 E9.8401
G1 X113.840 Y180.923 E9.8405
G1 X111.933 Y178.544 E9.9720
G1 X111.927 Y178.536 E9.9724
G1 X111.841 Y178.420 E9.9786
G1 X111.835 Y178.413 E9.9791
G1 X110.093 Y175.910 E10.1106
G1 X110.088 Y175.902 E10.1110
G1 X110.009 Y175.780 E10.1172
G1 X110.004 Y175.772 E10.1177
G1 X108.435 Y173.157 E10.2492
G1 X108.430 Y173.149 E10.2496
G1 X108.360 Y173.023 E10.2558
G1 X108.355 Y173.014 E10.2562
G1 X106.966 Y170.299 E10.3878
G1 X106.962 Y170.291 E10.3882
G1 X106.901 Y170.160 E10.3944
G1 X106.897 Y170.151 E10.3948
G1 X105.694 Y167.349 E10.5264
G1 X105.691 Y167.340 E10.5268
G1 X105.638 Y167.205 E10.5330
G1 X105.635 Y167.196 E10.5334
G1 X104.624 Y164.319 E10.6650
G1 X104.621 Y164.310 E10.6654
G1 X104.578 Y164.172 E10.6716
G1 X104.575 Y164.162 E10.6720
G1 X103.761 Y161.224 E10.8035
G1 X103.758 Y161.214 E10.8040
G1 X103.725 Y161.074 E10.8102
G1 X103.722 Y161.064 E10.8106
G1 X103.109 Y158.077 E10.9421
G1 X103.107 Y158.068 E10.9426
G1 X103.082 Y157.925 E10.9488
G1 X103.081 Y157.916 E10.9492
G1 X102.670 Y154.894 E11.0807
G1 X102.669 Y154.885 E11.0811
G1 X102.654 Y154.741 E11.0874
G1 X102.654 Y154.731 E11.0878
G1 X102.448 Y151.689 E11.2193
G1 X102.447 Y151.679 E11.2197
G1 X102.442 Y151.534 E11.2260
G1 X102.442 Y151.525 E11.2264
G1 X102.442 Y148.475 E11.3579
G1 X102.442 Y148.466 E11.3583
G1 X102.447 Y148.321 E11.3646
G1 X102.448 Y148.311 E11.3650
G1 X102.654 Y145.269 E11.4965
G1 X102.654 Y145.259 E11.4969
G1 X102.669 Y145.115 E11.5032
