; G-Code generated by Simplify3D(R) Version 4.0.0
; Jun 27, 2019 at 10:44:40 PM
; Settings Summary
;   processName,Basis
;   applyToModels,GW60_GurtRad_V3
;   profileName,GW60_GurtRad
;   profileVersion,2019-05-19 20:40:10
;   baseProfile,Tierkoepfe
;   printMaterial,
;   printQuality,
;   printExtruders,
;   extruderName,Primary Extruder
;   extruderToolheadNumber,0
;   extruderDiameter,0.4
;   extruderAutoWidth,0
;   extruderWidth,0.38
;   extrusionMultiplier,0.91
;   extruderUseRetract,1
;   extruderRetractionDistance,3.6
;   extruderExtraRestartDistance,0
;   extruderRetractionZLift,0.4
;   extruderRetractionSpeed,1800
;   extruderUseCoasting,0
;   extruderCoastingDistance,0.2
;   extruderUseWipe,0
;   extruderWipeDistance,5
;   primaryExtruder,0
;   layerHeight,0.2
;   topSolidLayers,3
;   bottomSolidLayers,3
;   perimeterOutlines,3
;   printPerimetersInsideOut,1
;   startPointOption,2
;   startPointOriginX,0
;   startPointOriginY,0
;   sequentialIslands,0
;   spiralVaseMode,0
;   firstLayerHeightPercentage,100
;   firstLayerWidthPercentage,100
;   firstLayerUnderspeed,0.5
;   useRaft,0
;   raftExtruder,0
;   raftTopLayers,3
;   raftBaseLayers,2
;   raftOffset,3
;   raftSeparationDistance,0.16
;   raftTopInfill,100
;   aboveRaftSpeedMultiplier,0.3
;   useSkirt,1
;   skirtExtruder,0
;   skirtLayers,1
;   skirtOutlines,2
;   skirtOffset,4
;   usePrimePillar,0
;   primePillarExtruder,999
;   primePillarWidth,12
;   primePillarLocation,7
;   primePillarSpeedMultiplier,1
;   useOozeShield,0
;   oozeShieldExtruder,999
;   oozeShieldOffset,2
;   oozeShieldOutlines,1
;   oozeShieldSidewallShape,1
;   oozeShieldSidewallAngle,30
;   oozeShieldSpeedMultiplier,1
;   infillExtruder,0
;   internalInfillPattern,Rectilinear
;   externalInfillPattern,Rectilinear
;   infillPercentage,25
;   outlineOverlapPercentage,20
;   infillExtrusionWidthPercentage,95
;   minInfillLength,0.6
;   infillLayerInterval,1
;   internalInfillAngles,0,90
;   overlapInternalInfillAngles,0
;   externalInfillAngles,0,90
;   generateSupport,0
;   supportExtruder,0
;   supportInfillPercentage,20
;   supportExtraInflation,0
;   supportBaseLayers,0
;   denseSupportExtruder,0
;   denseSupportLayers,0
;   denseSupportInfillPercentage,50
;   supportLayerInterval,1
;   supportHorizontalPartOffset,0.3
;   supportUpperSeparationLayers,1
;   supportLowerSeparationLayers,1
;   supportType,0
;   supportGridSpacing,1
;   maxOverhangAngle,50
;   supportAngles,0
;   temperatureName,Primary Extruder,Heated Bed
;   temperatureNumber,0,0
;   temperatureSetpointCount,1,1
;   temperatureSetpointLayers,1,1
;   temperatureSetpointTemperatures,205,50
;   temperatureStabilizeAtStartup,1,1
;   temperatureHeatedBed,0,1
;   temperatureRelayBetweenLayers,0,0
;   temperatureRelayBetweenLoops,0,0
;   fanLayers,1,2
;   fanSpeeds,70,60
;   blipFanToFullPower,0
;   adjustSpeedForCooling,1
;   minSpeedLayerTime,15
;   minCoolingSpeedSlowdown,20
;   increaseFanForCooling,0
;   minFanLayerTime,45
;   maxCoolingFanSpeed,100
;   increaseFanForBridging,0
;   bridgingFanSpeed,100
;   use5D,1
;   relativeEdistances,0
;   allowEaxisZeroing,1
;   independentExtruderAxes,0
;   includeM10123,0
;   stickySupport,1
;   applyToolheadOffsets,0
;   gcodeXoffset,0
;   gcodeYoffset,0
;   gcodeZoffset,0
;   overrideMachineDefinition,1
;   machineTypeOverride,0
;   strokeXoverride,300
;   strokeYoverride,300
;   strokeZoverride,400
;   originOffsetXoverride,0
;   originOffsetYoverride,0
;   originOffsetZoverride,0
;   homeXdirOverride,-1
;   homeYdirOverride,-1
;   homeZdirOverride,-1
;   flipXoverride,1
;   flipYoverride,-1
;   flipZoverride,1
;   toolheadOffsets,0,0|0,0|0,0|0,0|0,0|0,0
;   overrideFirmwareConfiguration,1
;   firmwareTypeOverride,RepRap (Marlin/Repetier/Sprinter)
;   GPXconfigOverride,r2
;   baudRateOverride,115200
;   overridePrinterModels,0
;   printerModelsOverride
;   startingGcode,M104 S[extruder0_temperature] T0,M190 S[bed0_temperature] T0,M109 S[extruder0_temperature] T0,G28 ; home all axes,G1 Z5 F3000 ; lift,G1 X2 Y20 F1500 ; avoid binder clips,G1 Z0.2 F3000 ; get ready to prime,G92 E0 ; reset extrusion distance,G1 X120 E10 F600 ; prime nozzle,G1 X250 F5000 ; quick wipe
;   layerChangeGcode,
;   retractionGcode,
;   toolChangeGcode,
;   endingGcode,G28 X0 ; home x axis,M106 S0 ; turn off cooling fan,M104 S0 ; turn off extruder,M140 S0 ; turn off bed,G28 X0 ; home x axis,G1 Y200  ; move to park position,M84 ; disable motors
;   exportFileFormat,gcode
;   celebration,0
;   celebrationSong,Funky Town
;   postProcessing,
;   defaultSpeed,4000
;   outlineUnderspeed,0.8
;   solidInfillUnderspeed,0.8
;   supportUnderspeed,0.8
;   rapidXYspeed,4800
;   rapidZspeed,1002
;   minBridgingArea,5
;   bridgingExtraInflation,0
;   bridgingExtrusionMultiplier,1
;   bridgingSpeedMultiplier,0.75
;   useFixedBridgingAngle,0
;   fixedBridgingAngle,0
;   applyBridgingToPerimeters,0
;   filamentDiameters,1.75|1.75|1.75|1.75|1.75|1.75
;   filamentPricesPerKg,30|46|46|46|46|46
;   filamentDensities,1.25|1.25|1.25|1.25|1.25|1.25
;   useMinPrintHeight,0
;   minPrintHeight,0
;   useMaxPrintHeight,0
;   maxPrintHeight,0.4
;   useDiaphragm,1
;   diaphragmLayerInterval,25
;   robustSlicing,1
;   mergeAllIntoSolid,0
;   onlyRetractWhenCrossingOutline,1
;   retractBetweenLayers,1
;   useRetractionMinTravel,0
;   retractionMinTravel,3
;   retractWhileWiping,0
;   onlyWipeOutlines,1
;   avoidCrossingOutline,0
;   maxMovementDetourFactor,3
;   toolChangeRetractionDistance,12
;   toolChangeExtraRestartDistance,-0.5
;   toolChangeRetractionSpeed,600
;   externalThinWallType,0
;   internalThinWallType,2
;   thinWallAllowedOverlapPercentage,25
;   singleExtrusionMinLength,1
;   singleExtrusionMinPrintingWidthPercentage,50
;   singleExtrusionMaxPrintingWidthPercentage,200
;   singleExtrusionEndpointExtension,0.2
;   horizontalSizeCompensation,0
G90
M82
M106 S178
M104 S205 T0
M190 S50 T0
M109 S205 T0
G28 ; home all axes
G1 Z5 F3000 ; lift
G1 X2 Y20 F1500 ; avoid binder clips
G1 Z0.2 F3000 ; get ready to prime
G92 E0 ; reset extrusion distance
G1 X120 E10 F600 ; prime nozzle
G1 X250 F5000 ; quick wipe
G92 E0
G1 E-3.6000 F1800
G1 Z0.600 F1002
; process Basis
; layer 1, Z = 0.200
T0
; tool H0.200 W0.380
; skirt
G1 X115.652 Y117.090 F4800
G1 Z0.200 F1002
G1 E0.0000 F540
G92 E0
G1 X118.761 Y114.125 E0.1235 F2000
G1 X118.771 Y114.116 E0.1239
G1 X118.925 Y113.982 E0.1298
G1 X118.936 Y113.974 E0.1302
G1 X122.313 Y111.318 E0.2537
G1 X122.324 Y111.310 E0.2541
G1 X122.490 Y111.191 E0.2600
G1 X122.501 Y111.184 E0.2603
G1 X126.115 Y108.861 E0.3839
G1 X126.127 Y108.854 E0.3843
G1 X126.303 Y108.752 E0.3901
G1 X126.315 Y108.746 E0.3905
G1 X130.134 Y106.777 E0.5140
G1 X130.146 Y106.771 E0.5144
G1 X130.331 Y106.686 E0.5203
G1 X130.344 Y106.681 E0.5207
G1 X134.332 Y105.084 E0.6442
G1 X134.345 Y105.080 E0.6446
G1 X134.538 Y105.013 E0.6505
G1 X134.551 Y105.009 E0.6509
G1 X138.673 Y103.798 E0.7744
G1 X138.686 Y103.795 E0.7748
G1 X138.884 Y103.747 E0.7806
G1 X138.897 Y103.744 E0.7810
G1 X143.116 Y102.931 E0.9046
G1 X143.129 Y102.929 E0.9049
G1 X143.331 Y102.900 E0.9108
G1 X143.345 Y102.898 E0.9112
G1 X147.621 Y102.490 E1.0347
G1 X147.635 Y102.489 E1.0351
G1 X147.838 Y102.479 E1.0410
G1 X147.852 Y102.479 E1.0414
G1 X152.148 Y102.479 E1.1649
G1 X152.162 Y102.479 E1.1653
G1 X152.365 Y102.489 E1.1712
G1 X152.379 Y102.490 E1.1715
G1 X156.655 Y102.898 E1.2951
G1 X156.669 Y102.900 E1.2955
G1 X156.871 Y102.929 E1.3013
G1 X156.884 Y102.931 E1.3017
G1 X161.103 Y103.744 E1.4252
G1 X161.116 Y103.747 E1.4256
G1 X161.314 Y103.795 E1.4315
G1 X161.327 Y103.798 E1.4319
G1 X165.449 Y105.009 E1.5554
G1 X165.462 Y105.013 E1.5558
G1 X165.655 Y105.080 E1.5617
G1 X165.668 Y105.084 E1.5621
G1 X169.656 Y106.681 E1.6856
G1 X169.669 Y106.686 E1.6860
G1 X169.854 Y106.771 E1.6918
G1 X169.866 Y106.777 E1.6922
G1 X173.685 Y108.746 E1.8158
G1 X173.697 Y108.752 E1.8162
G1 X173.873 Y108.854 E1.8220
G1 X173.885 Y108.861 E1.8224
G1 X177.499 Y111.184 E1.9459
G1 X177.510 Y111.191 E1.9463
G1 X177.676 Y111.310 E1.9522
G1 X177.687 Y111.318 E1.9526
G1 X181.064 Y113.974 E2.0761
G1 X181.075 Y113.982 E2.0765
G1 X181.229 Y114.116 E2.0824
G1 X181.239 Y114.125 E2.0827
G1 X184.348 Y117.090 E2.2063
G1 X184.358 Y117.099 E2.2067
G1 X184.498 Y117.247 E2.2125
G1 X184.508 Y117.257 E2.2129
G1 X187.321 Y120.504 E2.3364
G1 X187.329 Y120.514 E2.3368
G1 X187.456 Y120.674 E2.3427
G1 X187.464 Y120.685 E2.3431
G1 X189.956 Y124.185 E2.4666
G1 X189.963 Y124.196 E2.4670
G1 X190.074 Y124.368 E2.4729
G1 X190.081 Y124.379 E2.4733
G1 X192.229 Y128.100 E2.5968
G1 X192.235 Y128.111 E2.5972
G1 X192.329 Y128.293 E2.6030
G1 X192.335 Y128.305 E2.6034
G1 X194.119 Y132.213 E2.7270
G1 X194.125 Y132.225 E2.7274
G1 X194.200 Y132.415 E2.7332
G1 X194.205 Y132.427 E2.7336
G1 X195.610 Y136.487 E2.8571
G1 X195.614 Y136.500 E2.8575
G1 X195.672 Y136.696 E2.8634
G1 X195.675 Y136.709 E2.8638
G1 X196.688 Y140.884 E2.9873
G1 X196.691 Y140.897 E2.9877
G1 X196.730 Y141.097 E2.9936
G1 X196.732 Y141.111 E2.9940
G1 X197.343 Y145.363 E3.1175
G1 X197.345 Y145.377 E3.1179
G1 X197.364 Y145.580 E3.1237
G1 X197.365 Y145.593 E3.1241
G1 X197.570 Y149.884 E3.2476
G1 X197.570 Y149.898 E3.2480
G1 X197.570 Y150.102 E3.2539
G1 X197.570 Y150.116 E3.2543
G1 X197.365 Y154.407 E3.3778
G1 X197.364 Y154.420 E3.3782
G1 X197.345 Y154.623 E3.3841
G1 X197.343 Y154.637 E3.3845
G1 X196.732 Y158.889 E3.5080
G1 X196.730 Y158.903 E3.5084
G1 X196.691 Y159.103 E3.5142
G1 X196.688 Y159.116 E3.5146
G1 X195.675 Y163.291 E3.6382
G1 X195.672 Y163.304 E3.6386
G1 X195.614 Y163.500 E3.6444
G1 X195.610 Y163.513 E3.6448
G1 X194.205 Y167.573 E3.7683
G1 X194.200 Y167.585 E3.7687
G1 X194.125 Y167.775 E3.7746
G1 X194.119 Y167.787 E3.7750
G1 X192.335 Y171.695 E3.8985
G1 X192.329 Y171.707 E3.8989
G1 X192.235 Y171.888 E3.9048
G1 X192.229 Y171.900 E3.9052
G1 X190.081 Y175.621 E4.0287
G1 X190.074 Y175.632 E4.0291
G1 X189.963 Y175.804 E4.0349
G1 X189.956 Y175.815 E4.0353
G1 X187.464 Y179.315 E4.1589
G1 X187.456 Y179.326 E4.1592
G1 X187.329 Y179.486 E4.1651
G1 X187.321 Y179.496 E4.1655
G1 X184.508 Y182.743 E4.2890
G1 X184.498 Y182.753 E4.2894
G1 X184.358 Y182.901 E4.2953
G1 X184.348 Y182.910 E4.2957
G1 X181.239 Y185.875 E4.4192
G1 X181.229 Y185.884 E4.4196
G1 X181.075 Y186.018 E4.4255
G1 X181.064 Y186.026 E4.4258
G1 X177.687 Y188.682 E4.5494
G1 X177.676 Y188.690 E4.5498
G1 X177.510 Y188.809 E4.5556
G1 X177.499 Y188.816 E4.5560
G1 X173.885 Y191.139 E4.6795
G1 X173.873 Y191.146 E4.6799
G1 X173.697 Y191.248 E4.6858
G1 X173.685 Y191.254 E4.6862
G1 X169.866 Y193.223 E4.8097
G1 X169.854 Y193.229 E4.8101
G1 X169.669 Y193.314 E4.8160
G1 X169.656 Y193.319 E4.8164
G1 X165.668 Y194.916 E4.9399
G1 X165.655 Y194.920 E4.9403
G1 X165.462 Y194.987 E4.9461
G1 X165.449 Y194.991 E4.9465
G1 X161.327 Y196.202 E5.0701
G1 X161.314 Y196.205 E5.0704
G1 X161.116 Y196.253 E5.0763
G1 X161.103 Y196.256 E5.0767
G1 X156.884 Y197.069 E5.2002
G1 X156.871 Y197.071 E5.2006
G1 X156.669 Y197.100 E5.2065
G1 X156.655 Y197.102 E5.2069
G1 X152.379 Y197.510 E5.3304
G1 X152.365 Y197.511 E5.3308
G1 X152.162 Y197.521 E5.3367
G1 X152.148 Y197.521 E5.3370
G1 X147.852 Y197.521 E5.4606
G1 X147.838 Y197.521 E5.4610
G1 X147.635 Y197.511 E5.4668
G1 X147.621 Y197.510 E5.4672
G1 X143.345 Y197.102 E5.5907
G1 X143.331 Y197.100 E5.5911
G1 X143.129 Y197.071 E5.5970
G1 X143.116 Y197.069 E5.5974
G1 X138.897 Y196.256 E5.7209
G1 X138.884 Y196.253 E5.7213
G1 X138.686 Y196.205 E5.7272
G1 X138.673 Y196.202 E5.7276
G1 X134.551 Y194.991 E5.8511
G1 X134.538 Y194.987 E5.8515
G1 X134.345 Y194.920 E5.8573
G1 X134.332 Y194.916 E5.8577
G1 X130.344 Y193.319 E5.9813
G1 X130.331 Y193.314 E5.9816
G1 X130.146 Y193.229 E5.9875
G1 X130.134 Y193.223 E5.9879
G1 X126.315 Y191.254 E6.1114
G1 X126.303 Y191.248 E6.1118
G1 X126.127 Y191.146 E6.1177
G1 X126.115 Y191.139 E6.1181
G1 X122.501 Y188.816 E6.2416
G1 X122.490 Y188.809 E6.2420
G1 X122.324 Y188.690 E6.2479
G1 X122.313 Y188.682 E6.2482
G1 X118.936 Y186.026 E6.3718
G1 X118.925 Y186.018 E6.3722
G1 X118.771 Y185.884 E6.3780
G1 X118.761 Y185.875 E6.3784
G1 X115.652 Y182.910 E6.5019
G1 X115.642 Y182.901 E6.5023
G1 X115.502 Y182.753 E6.5082
G1 X115.492 Y182.743 E6.5086
G1 X112.679 Y179.496 E6.6321
G1 X112.671 Y179.486 E6.6325
G1 X112.544 Y179.326 E6.6384
G1 X112.536 Y179.315 E6.6388
G1 X110.044 Y175.815 E6.7623
G1 X110.037 Y175.804 E6.7627
G1 X109.926 Y175.632 E6.7685
G1 X109.919 Y175.621 E6.7689
G1 X107.771 Y171.900 E6.8925
G1 X107.765 Y171.888 E6.8929
G1 X107.671 Y171.707 E6.8987
G1 X107.665 Y171.695 E6.8991
G1 X105.881 Y167.787 E7.0226
G1 X105.875 Y167.775 E7.0230
G1 X105.800 Y167.585 E7.0289
G1 X105.795 Y167.573 E7.0293
G1 X104.390 Y163.513 E7.1528
G1 X104.386 Y163.500 E7.1532
G1 X104.328 Y163.304 E7.1591
G1 X104.325 Y163.291 E7.1595
G1 X103.312 Y159.116 E7.2830
G1 X103.309 Y159.103 E7.2834
G1 X103.270 Y158.903 E7.2892
G1 X103.268 Y158.889 E7.2896
G1 X102.657 Y154.637 E7.4131
G1 X102.655 Y154.623 E7.4135
G1 X102.636 Y154.420 E7.4194
G1 X102.635 Y154.407 E7.4198
G1 X102.430 Y150.116 E7.5433
G1 X102.430 Y150.102 E7.5437
G1 X102.430 Y149.898 E7.5496
G1 X102.430 Y149.884 E7.5500
G1 X102.635 Y145.593 E7.6735
G1 X102.636 Y145.580 E7.6739
G1 X102.655 Y145.377 E7.6797
G1 X102.657 Y145.363 E7.6801
G1 X103.268 Y141.111 E7.8037
G1 X103.270 Y141.097 E7.8041
G1 X103.309 Y140.897 E7.8099
G1 X103.312 Y140.884 E7.8103
G1 X104.325 Y136.709 E7.9338
G1 X104.328 Y136.696 E7.9342
G1 X104.386 Y136.500 E7.9401
G1 X104.390 Y136.487 E7.9405
G1 X105.795 Y132.427 E8.0640
G1 X105.800 Y132.415 E8.0644
G1 X105.875 Y132.225 E8.0703
G1 X105.881 Y132.213 E8.0707
G1 X107.665 Y128.305 E8.1942
G1 X107.671 Y128.293 E8.1946
G1 X107.765 Y128.111 E8.2004
G1 X107.771 Y128.100 E8.2008
G1 X109.919 Y124.379 E8.3244
G1 X109.926 Y124.368 E8.3247
G1 X110.037 Y124.196 E8.3306
G1 X110.044 Y124.185 E8.3310
G1 X112.536 Y120.685 E8.4545
G1 X112.544 Y120.674 E8.4549
G1 X112.671 Y120.514 E8.4608
G1 X112.679 Y120.504 E8.4612
G1 X115.492 Y117.257 E8.5847
G1 X115.502 Y117.247 E8.5851
G1 X115.642 Y117.099 E8.5910
G1 X115.652 Y117.090 E8.5913
G1 X115.917 Y117.361 F4800
G92 E0
G1 X119.020 Y114.403 E0.1233 F2000
G1 X119.023 Y114.400 E0.1234
G1 X119.171 Y114.272 E0.1290
G1 X119.174 Y114.269 E0.1291
G1 X122.544 Y111.619 E0.2524
G1 X122.548 Y111.617 E0.2525
G1 X122.707 Y111.504 E0.2581
G1 X122.710 Y111.501 E0.2583
G1 X126.317 Y109.183 E0.3815
G1 X126.321 Y109.181 E0.3817
G1 X126.489 Y109.084 E0.3873
G1 X126.493 Y109.081 E0.3874
G1 X130.304 Y107.117 E0.5107
G1 X130.308 Y107.115 E0.5108
G1 X130.485 Y107.034 E0.5164
G1 X130.489 Y107.032 E0.5165
G1 X134.469 Y105.439 E0.6398
G1 X134.474 Y105.437 E0.6399
G1 X134.658 Y105.374 E0.6455
G1 X134.662 Y105.372 E0.6457
G1 X138.775 Y104.164 E0.7689
G1 X138.780 Y104.163 E0.7691
G1 X138.969 Y104.117 E0.7747
G1 X138.974 Y104.116 E0.7748
G1 X143.183 Y103.305 E0.8981
G1 X143.188 Y103.304 E0.8982
G1 X143.381 Y103.276 E0.9038
G1 X143.385 Y103.276 E0.9039
G1 X147.653 Y102.868 E1.0272
G1 X147.657 Y102.868 E1.0273
G1 X147.852 Y102.859 E1.0329
G1 X147.856 Y102.859 E1.0331
G1 X152.143 Y102.859 E1.1563
G1 X152.148 Y102.859 E1.1564
G1 X152.343 Y102.868 E1.1621
G1 X152.347 Y102.868 E1.1622
G1 X156.615 Y103.276 E1.2854
G1 X156.619 Y103.276 E1.2856
G1 X156.812 Y103.304 E1.2912
G1 X156.817 Y103.305 E1.2913
G1 X161.026 Y104.116 E1.4146
G1 X161.031 Y104.117 E1.4147
G1 X161.220 Y104.163 E1.4203
G1 X161.225 Y104.164 E1.4204
G1 X165.338 Y105.372 E1.5437
G1 X165.342 Y105.374 E1.5438
G1 X165.526 Y105.437 E1.5494
G1 X165.531 Y105.439 E1.5496
G1 X169.511 Y107.032 E1.6728
G1 X169.515 Y107.034 E1.6730
G1 X169.692 Y107.115 E1.6786
G1 X169.696 Y107.117 E1.6787
G1 X173.507 Y109.081 E1.8020
G1 X173.511 Y109.084 E1.8021
G1 X173.679 Y109.181 E1.8077
G1 X173.683 Y109.183 E1.8078
G1 X177.290 Y111.501 E1.9311
G1 X177.293 Y111.504 E1.9312
G1 X177.452 Y111.617 E1.9368
G1 X177.456 Y111.619 E1.9370
G1 X180.826 Y114.269 E2.0602
G1 X180.829 Y114.272 E2.0604
G1 X180.977 Y114.400 E2.0660
G1 X180.980 Y114.403 E2.0661
G1 X184.083 Y117.361 E2.1894
G1 X184.086 Y117.365 E2.1895
G1 X184.220 Y117.506 E2.1951
G1 X184.223 Y117.509 E2.1952
G1 X187.031 Y120.749 E2.3185
