; G-Code generated by Simplify3D(R) Version 4.0.0
; May 28, 2019 at 8:58:04 PM
; Settings Summary
;   processName,Basis
;   applyToModels,GW60_GurtRad001_V2
;   profileName,GW60_GurtRad
;   profileVersion,2019-05-19 20:40:10
;   baseProfile,Tierkoepfe
;   printMaterial,
;   printQuality,
;   printExtruders,
;   extruderName,Primary Extruder
;   extruderToolheadNumber,0
;   extruderDiameter,0.4
;   extruderAutoWidth,0
;   extruderWidth,0.38
;   extrusionMultiplier,0.91
;   extruderUseRetract,1
;   extruderRetractionDistance,3.6
;   extruderExtraRestartDistance,0
;   extruderRetractionZLift,0.4
;   extruderRetractionSpeed,1800
;   extruderUseCoasting,0
;   extruderCoastingDistance,0.2
;   extruderUseWipe,0
;   extruderWipeDistance,5
;   primaryExtruder,0
;   layerHeight,0.2
;   topSolidLayers,4
;   bottomSolidLayers,4
;   perimeterOutlines,3
;   printPerimetersInsideOut,1
;   startPointOption,2
;   startPointOriginX,0
;   startPointOriginY,0
;   sequentialIslands,0
;   spiralVaseMode,0
;   firstLayerHeightPercentage,100
;   firstLayerWidthPercentage,100
;   firstLayerUnderspeed,0.5
;   useRaft,0
;   raftExtruder,0
;   raftTopLayers,3
;   raftBaseLayers,2
;   raftOffset,3
;   raftSeparationDistance,0.16
;   raftTopInfill,100
;   aboveRaftSpeedMultiplier,0.3
;   useSkirt,1
;   skirtExtruder,0
;   skirtLayers,1
;   skirtOutlines,2
;   skirtOffset,4
;   usePrimePillar,0
;   primePillarExtruder,999
;   primePillarWidth,12
;   primePillarLocation,7
;   primePillarSpeedMultiplier,1
;   useOozeShield,0
;   oozeShieldExtruder,999
;   oozeShieldOffset,2
;   oozeShieldOutlines,1
;   oozeShieldSidewallShape,1
;   oozeShieldSidewallAngle,30
;   oozeShieldSpeedMultiplier,1
;   infillExtruder,0
;   internalInfillPattern,Rectilinear
;   externalInfillPattern,Rectilinear
;   infillPercentage,30
;   outlineOverlapPercentage,20
;   infillExtrusionWidthPercentage,95
;   minInfillLength,0.6
;   infillLayerInterval,1
;   internalInfillAngles,0,90
;   overlapInternalInfillAngles,0
;   externalInfillAngles,0,90
;   generateSupport,1
;   supportExtruder,0
;   supportInfillPercentage,20
;   supportExtraInflation,0
;   supportBaseLayers,0
;   denseSupportExtruder,0
;   denseSupportLayers,0
;   denseSupportInfillPercentage,50
;   supportLayerInterval,1
;   supportHorizontalPartOffset,0.3
;   supportUpperSeparationLayers,1
;   supportLowerSeparationLayers,1
;   supportType,0
;   supportGridSpacing,1
;   maxOverhangAngle,50
;   supportAngles,0
;   temperatureName,Primary Extruder,Heated Bed
;   temperatureNumber,0,0
;   temperatureSetpointCount,1,1
;   temperatureSetpointLayers,1,1
;   temperatureSetpointTemperatures,205,50
;   temperatureStabilizeAtStartup,1,1
;   temperatureHeatedBed,0,1
;   temperatureRelayBetweenLayers,0,0
;   temperatureRelayBetweenLoops,0,0
;   fanLayers,1,2
;   fanSpeeds,70,60
;   blipFanToFullPower,0
;   adjustSpeedForCooling,1
;   minSpeedLayerTime,15
;   minCoolingSpeedSlowdown,20
;   increaseFanForCooling,0
;   minFanLayerTime,45
;   maxCoolingFanSpeed,100
;   increaseFanForBridging,0
;   bridgingFanSpeed,100
;   use5D,1
;   relativeEdistances,0
;   allowEaxisZeroing,1
;   independentExtruderAxes,0
;   includeM10123,0
;   stickySupport,1
;   applyToolheadOffsets,0
;   gcodeXoffset,0
;   gcodeYoffset,0
;   gcodeZoffset,0
;   overrideMachineDefinition,1
;   machineTypeOverride,0
;   strokeXoverride,300
;   strokeYoverride,300
;   strokeZoverride,400
;   originOffsetXoverride,0
;   originOffsetYoverride,0
;   originOffsetZoverride,0
;   homeXdirOverride,-1
;   homeYdirOverride,-1
;   homeZdirOverride,-1
;   flipXoverride,1
;   flipYoverride,-1
;   flipZoverride,1
;   toolheadOffsets,0,0|0,0|0,0|0,0|0,0|0,0
;   overrideFirmwareConfiguration,1
;   firmwareTypeOverride,RepRap (Marlin/Repetier/Sprinter)
;   GPXconfigOverride,r2
;   baudRateOverride,115200
;   overridePrinterModels,0
;   printerModelsOverride
;   startingGcode,M104 S[extruder0_temperature] T0,M190 S[bed0_temperature] T0,M109 S[extruder0_temperature] T0,G28 ; home all axes,G1 Z5 F3000 ; lift,G1 X2 Y20 F1500 ; avoid binder clips,G1 Z0.2 F3000 ; get ready to prime,G92 E0 ; reset extrusion distance,G1 X120 E10 F600 ; prime nozzle,G1 X250 F5000 ; quick wipe
;   layerChangeGcode,
;   retractionGcode,
;   toolChangeGcode,
;   endingGcode,G28 X0 ; home x axis,M106 S0 ; turn off cooling fan,M104 S0 ; turn off extruder,M140 S0 ; turn off bed,G28 X0 ; home x axis,G1 Y200  ; move to park position,M84 ; disable motors
;   exportFileFormat,gcode
;   celebration,0
;   celebrationSong,Funky Town
;   postProcessing,
;   defaultSpeed,4000
;   outlineUnderspeed,0.8
;   solidInfillUnderspeed,0.8
;   supportUnderspeed,0.8
;   rapidXYspeed,4800
;   rapidZspeed,1002
;   minBridgingArea,5
;   bridgingExtraInflation,0
;   bridgingExtrusionMultiplier,1
;   bridgingSpeedMultiplier,0.75
;   useFixedBridgingAngle,0
;   fixedBridgingAngle,0
;   applyBridgingToPerimeters,0
;   filamentDiameters,1.75|1.75|1.75|1.75|1.75|1.75
;   filamentPricesPerKg,30|46|46|46|46|46
;   filamentDensities,1.25|1.25|1.25|1.25|1.25|1.25
;   useMinPrintHeight,0
;   minPrintHeight,0
;   useMaxPrintHeight,0
;   maxPrintHeight,0.4
;   useDiaphragm,1
;   diaphragmLayerInterval,25
;   robustSlicing,1
;   mergeAllIntoSolid,0
;   onlyRetractWhenCrossingOutline,1
;   retractBetweenLayers,1
;   useRetractionMinTravel,0
;   retractionMinTravel,3
;   retractWhileWiping,0
;   onlyWipeOutlines,1
;   avoidCrossingOutline,0
;   maxMovementDetourFactor,3
;   toolChangeRetractionDistance,12
;   toolChangeExtraRestartDistance,-0.5
;   toolChangeRetractionSpeed,600
;   externalThinWallType,0
;   internalThinWallType,2
;   thinWallAllowedOverlapPercentage,25
;   singleExtrusionMinLength,1
;   singleExtrusionMinPrintingWidthPercentage,50
;   singleExtrusionMaxPrintingWidthPercentage,200
;   singleExtrusionEndpointExtension,0.2
;   horizontalSizeCompensation,0
G90
M82
M106 S178
M104 S205 T0
M190 S50 T0
M109 S205 T0
G28 ; home all axes
G1 Z5 F3000 ; lift
G1 X2 Y20 F1500 ; avoid binder clips
G1 Z0.2 F3000 ; get ready to prime
G92 E0 ; reset extrusion distance
G1 X120 E10 F600 ; prime nozzle
G1 X250 F5000 ; quick wipe
G92 E0
G1 E-3.6000 F1800
G1 Z0.600 F1002
; process Basis
; layer 1, Z = 0.200
T0
; tool H0.200 W0.380
; skirt
G1 X115.780 Y116.956 F4800
G1 Z0.200 F1002
G1 E0.0000 F540
G92 E0
G1 X115.790 Y116.947 E0.0004 F2000
G1 X118.911 Y113.995 E0.1239
G1 X118.921 Y113.986 E0.1243
G1 X119.076 Y113.853 E0.1302
G1 X119.086 Y113.844 E0.1306
G1 X122.474 Y111.203 E0.2541
G1 X122.485 Y111.195 E0.2545
G1 X122.652 Y111.077 E0.2603
G1 X122.663 Y111.069 E0.2607
G1 X126.287 Y108.762 E0.3843
G1 X126.299 Y108.755 E0.3846
G1 X126.476 Y108.654 E0.3905
G1 X126.488 Y108.647 E0.3909
G1 X130.314 Y106.695 E0.5144
G1 X130.326 Y106.689 E0.5148
G1 X130.512 Y106.605 E0.5207
G1 X130.525 Y106.599 E0.5211
G1 X134.520 Y105.019 E0.6446
G1 X134.532 Y105.015 E0.6450
G1 X134.726 Y104.949 E0.6509
G1 X134.738 Y104.945 E0.6512
G1 X138.866 Y103.752 E0.7748
G1 X138.879 Y103.748 E0.7752
G1 X139.077 Y103.701 E0.7810
G1 X139.090 Y103.698 E0.7814
G1 X143.312 Y102.903 E0.9049
G1 X143.326 Y102.900 E0.9053
G1 X143.528 Y102.872 E0.9112
G1 X143.541 Y102.871 E0.9116
G1 X147.819 Y102.480 E1.0351
G1 X147.833 Y102.479 E1.0355
G1 X148.037 Y102.470 E1.0414
G1 X148.050 Y102.470 E1.0418
G1 X152.346 Y102.488 E1.1653
G1 X152.360 Y102.488 E1.1657
G1 X152.564 Y102.499 E1.1715
G1 X152.577 Y102.500 E1.1719
G1 X156.852 Y102.926 E1.2955
G1 X156.865 Y102.928 E1.2959
G1 X157.067 Y102.958 E1.3017
G1 X157.081 Y102.960 E1.3021
G1 X161.296 Y103.791 E1.4256
G1 X161.309 Y103.794 E1.4260
G1 X161.507 Y103.843 E1.4319
G1 X161.520 Y103.846 E1.4323
G1 X165.637 Y105.074 E1.5558
G1 X165.650 Y105.078 E1.5562
G1 X165.842 Y105.145 E1.5621
G1 X165.855 Y105.150 E1.5625
G1 X169.837 Y106.763 E1.6860
G1 X169.849 Y106.769 E1.6864
G1 X170.034 Y106.854 E1.6922
G1 X170.046 Y106.860 E1.6926
G1 X173.857 Y108.845 E1.8162
G1 X173.869 Y108.851 E1.8165
G1 X174.045 Y108.954 E1.8224
G1 X174.056 Y108.961 E1.8228
G1 X177.661 Y111.299 E1.9463
G1 X177.672 Y111.307 E1.9467
G1 X177.838 Y111.426 E1.9526
G1 X177.848 Y111.434 E1.9530
G1 X181.214 Y114.103 E2.0765
G1 X181.225 Y114.112 E2.0769
G1 X181.378 Y114.246 E2.0827
G1 X181.388 Y114.256 E2.0831
G1 X184.485 Y117.233 E2.2067
G1 X184.495 Y117.243 E2.2071
G1 X184.635 Y117.391 E2.2129
G1 X184.644 Y117.401 E2.2133
G1 X187.444 Y120.659 E2.3368
G1 X187.452 Y120.670 E2.3372
G1 X187.578 Y120.831 E2.3431
G1 X187.586 Y120.842 E2.3435
G1 X190.063 Y124.352 E2.4670
G1 X190.071 Y124.363 E2.4674
G1 X190.180 Y124.535 E2.4733
G1 X190.187 Y124.547 E2.4737
G1 X192.320 Y128.276 E2.5972
G1 X192.326 Y128.288 E2.5976
G1 X192.419 Y128.470 E2.6034
G1 X192.425 Y128.482 E2.6038
G1 X194.193 Y132.397 E2.7274
G1 X194.198 Y132.410 E2.7277
G1 X194.273 Y132.599 E2.7336
G1 X194.278 Y132.612 E2.7340
G1 X195.666 Y136.678 E2.8575
G1 X195.670 Y136.691 E2.8579
G1 X195.727 Y136.886 E2.8638
G1 X195.730 Y136.900 E2.8642
G1 X196.726 Y141.079 E2.9877
G1 X196.729 Y141.092 E2.9881
G1 X196.766 Y141.292 E2.9940
G1 X196.769 Y141.306 E2.9943
G1 X197.362 Y145.561 E3.1179
G1 X197.364 Y145.574 E3.1183
G1 X197.382 Y145.777 E3.1241
G1 X197.383 Y145.791 E3.1245
G1 X197.570 Y150.083 E3.2480
G1 X197.570 Y150.096 E3.2484
G1 X197.569 Y150.300 E3.2543
G1 X197.569 Y150.314 E3.2547
G1 X197.346 Y154.604 E3.3782
G1 X197.345 Y154.618 E3.3786
G1 X197.325 Y154.821 E3.3845
G1 X197.324 Y154.834 E3.3849
G1 X196.694 Y159.084 E3.5084
G1 X196.692 Y159.097 E3.5088
G1 X196.653 Y159.298 E3.5146
G1 X196.650 Y159.311 E3.5150
G1 X195.619 Y163.481 E3.6386
G1 X195.616 Y163.495 E3.6389
G1 X195.558 Y163.690 E3.6448
G1 X195.553 Y163.703 E3.6452
G1 X194.131 Y167.757 E3.7687
G1 X194.127 Y167.769 E3.7691
G1 X194.050 Y167.959 E3.7750
G1 X194.045 Y167.971 E3.7754
G1 X192.244 Y171.871 E3.8989
G1 X192.238 Y171.884 E3.8993
G1 X192.143 Y172.064 E3.9052
G1 X192.137 Y172.076 E3.9055
G1 X189.973 Y175.788 E4.0291
G1 X189.966 Y175.799 E4.0295
G1 X189.855 Y175.971 E4.0353
G1 X189.848 Y175.982 E4.0357
G1 X187.341 Y179.471 E4.1592
G1 X187.333 Y179.482 E4.1596
G1 X187.206 Y179.641 E4.1655
G1 X187.197 Y179.652 E4.1659
G1 X184.371 Y182.887 E4.2894
G1 X184.361 Y182.897 E4.2898
G1 X184.220 Y183.044 E4.2957
G1 X184.210 Y183.053 E4.2961
G1 X181.089 Y186.005 E4.4196
G1 X181.079 Y186.014 E4.4200
G1 X180.924 Y186.147 E4.4258
G1 X180.914 Y186.156 E4.4262
G1 X177.526 Y188.797 E4.5498
G1 X177.515 Y188.805 E4.5501
G1 X177.348 Y188.923 E4.5560
G1 X177.337 Y188.931 E4.5564
G1 X173.713 Y191.238 E4.6799
G1 X173.701 Y191.245 E4.6803
G1 X173.524 Y191.346 E4.6862
G1 X173.512 Y191.353 E4.6866
G1 X169.686 Y193.305 E4.8101
G1 X169.674 Y193.311 E4.8105
G1 X169.488 Y193.395 E4.8164
G1 X169.475 Y193.401 E4.8167
G1 X165.480 Y194.981 E4.9403
G1 X165.467 Y194.985 E4.9407
G1 X165.274 Y195.051 E4.9465
G1 X165.261 Y195.055 E4.9469
G1 X161.134 Y196.248 E5.0704
G1 X161.121 Y196.252 E5.0708
G1 X160.923 Y196.299 E5.0767
G1 X160.910 Y196.302 E5.0771
G1 X156.688 Y197.097 E5.2006
G1 X156.674 Y197.100 E5.2010
G1 X156.472 Y197.128 E5.2069
G1 X156.459 Y197.129 E5.2073
G1 X152.181 Y197.520 E5.3308
G1 X152.167 Y197.521 E5.3312
G1 X151.963 Y197.530 E5.3370
G1 X151.950 Y197.530 E5.3374
G1 X147.654 Y197.512 E5.4610
G1 X147.640 Y197.512 E5.4614
G1 X147.436 Y197.501 E5.4672
G1 X147.423 Y197.500 E5.4676
G1 X143.148 Y197.074 E5.5911
G1 X143.135 Y197.072 E5.5915
G1 X142.933 Y197.042 E5.5974
G1 X142.919 Y197.040 E5.5978
G1 X138.704 Y196.209 E5.7213
G1 X138.691 Y196.206 E5.7217
G1 X138.493 Y196.157 E5.7276
G1 X138.480 Y196.154 E5.7280
G1 X134.363 Y194.926 E5.8515
G1 X134.350 Y194.922 E5.8519
G1 X134.158 Y194.855 E5.8577
G1 X134.145 Y194.850 E5.8581
G1 X130.163 Y193.237 E5.9816
G1 X130.151 Y193.231 E5.9820
G1 X129.966 Y193.146 E5.9879
G1 X129.954 Y193.140 E5.9883
G1 X126.143 Y191.155 E6.1118
G1 X126.131 Y191.149 E6.1122
G1 X125.955 Y191.046 E6.1181
G1 X125.944 Y191.039 E6.1185
G1 X122.339 Y188.701 E6.2420
G1 X122.328 Y188.693 E6.2424
G1 X122.162 Y188.574 E6.2482
G1 X122.152 Y188.566 E6.2486
G1 X118.786 Y185.897 E6.3722
G1 X118.775 Y185.888 E6.3726
G1 X118.622 Y185.754 E6.3784
G1 X118.612 Y185.744 E6.3788
G1 X115.515 Y182.767 E6.5023
G1 X115.505 Y182.757 E6.5027
G1 X115.365 Y182.609 E6.5086
G1 X115.356 Y182.599 E6.5090
G1 X112.556 Y179.341 E6.6325
G1 X112.548 Y179.330 E6.6329
G1 X112.422 Y179.169 E6.6388
G1 X112.414 Y179.158 E6.6392
G1 X109.937 Y175.648 E6.7627
G1 X109.929 Y175.637 E6.7631
G1 X109.820 Y175.465 E6.7689
G1 X109.813 Y175.453 E6.7693
G1 X107.680 Y171.724 E6.8929
G1 X107.674 Y171.712 E6.8932
G1 X107.581 Y171.530 E6.8991
G1 X107.575 Y171.518 E6.8995
G1 X105.807 Y167.603 E7.0230
G1 X105.802 Y167.590 E7.0234
G1 X105.727 Y167.401 E7.0293
G1 X105.722 Y167.388 E7.0297
G1 X104.334 Y163.322 E7.1532
G1 X104.330 Y163.309 E7.1536
G1 X104.273 Y163.113 E7.1595
G1 X104.270 Y163.100 E7.1598
G1 X103.274 Y158.921 E7.2834
G1 X103.271 Y158.908 E7.2838
G1 X103.234 Y158.708 E7.2896
G1 X103.231 Y158.694 E7.2900
G1 X102.638 Y154.439 E7.4135
G1 X102.636 Y154.426 E7.4139
G1 X102.618 Y154.223 E7.4198
G1 X102.617 Y154.209 E7.4202
G1 X102.430 Y149.917 E7.5437
G1 X102.430 Y149.904 E7.5441
G1 X102.431 Y149.700 E7.5500
G1 X102.431 Y149.686 E7.5504
G1 X102.654 Y145.396 E7.6739
G1 X102.655 Y145.382 E7.6743
G1 X102.675 Y145.179 E7.6801
G1 X102.676 Y145.166 E7.6805
G1 X103.306 Y140.916 E7.8041
G1 X103.308 Y140.903 E7.8044
G1 X103.347 Y140.702 E7.8103
G1 X103.350 Y140.689 E7.8107
G1 X104.381 Y136.519 E7.9342
G1 X104.384 Y136.505 E7.9346
G1 X104.442 Y136.310 E7.9405
G1 X104.447 Y136.297 E7.9409
G1 X105.869 Y132.243 E8.0644
G1 X105.873 Y132.230 E8.0648
G1 X105.950 Y132.041 E8.0707
G1 X105.955 Y132.029 E8.0710
G1 X107.756 Y128.129 E8.1946
G1 X107.762 Y128.116 E8.1950
G1 X107.857 Y127.935 E8.2008
G1 X107.863 Y127.924 E8.2012
G1 X110.027 Y124.212 E8.3247
G1 X110.034 Y124.201 E8.3251
G1 X110.145 Y124.029 E8.3310
G1 X110.152 Y124.018 E8.3314
G1 X112.659 Y120.529 E8.4549
G1 X112.667 Y120.518 E8.4553
G1 X112.794 Y120.359 E8.4612
G1 X112.803 Y120.348 E8.4616
G1 X115.629 Y117.113 E8.5851
G1 X115.639 Y117.103 E8.5855
G1 X115.780 Y116.956 E8.5913
G1 X116.051 Y117.223 F4800
G92 E0
G1 X116.054 Y117.220 E0.0001 F2000
G1 X119.169 Y114.274 E0.1234
G1 X119.172 Y114.271 E0.1235
G1 X119.320 Y114.144 E0.1291
G1 X119.324 Y114.141 E0.1293
G1 X122.704 Y111.505 E0.2525
G1 X122.708 Y111.503 E0.2527
G1 X122.867 Y111.390 E0.2583
G1 X122.871 Y111.388 E0.2584
G1 X126.487 Y109.085 E0.3817
G1 X126.491 Y109.083 E0.3818
G1 X126.660 Y108.986 E0.3874
G1 X126.664 Y108.984 E0.3875
G1 X130.483 Y107.035 E0.5108
G1 X130.487 Y107.033 E0.5109
G1 X130.665 Y106.953 E0.5165
G1 X130.669 Y106.951 E0.5167
G1 X134.655 Y105.374 E0.6399
G1 X134.660 Y105.373 E0.6401
G1 X134.844 Y105.310 E0.6457
G1 X134.848 Y105.309 E0.6458
G1 X138.967 Y104.118 E0.7691
G1 X138.971 Y104.117 E0.7692
G1 X139.161 Y104.072 E0.7748
G1 X139.165 Y104.071 E0.7749
G1 X143.378 Y103.277 E0.8982
G1 X143.383 Y103.276 E0.8983
G1 X143.576 Y103.249 E0.9039
G1 X143.580 Y103.249 E0.9041
G1 X147.849 Y102.859 E1.0273
G1 X147.854 Y102.859 E1.0274
G1 X148.049 Y102.850 E1.0331
G1 X148.053 Y102.850 E1.0332
G1 X152.340 Y102.868 E1.1564
G1 X152.345 Y102.868 E1.1566
G1 X152.539 Y102.878 E1.1622
G1 X152.544 Y102.879 E1.1623
G1 X156.810 Y103.304 E1.2856
G1 X156.814 Y103.304 E1.2857
G1 X157.007 Y103.333 E1.2913
G1 X157.012 Y103.334 E1.2914
G1 X161.218 Y104.163 E1.4147
G1 X161.222 Y104.164 E1.4148
G1 X161.411 Y104.210 E1.4204
G1 X161.416 Y104.212 E1.4206
G1 X165.524 Y105.437 E1.5438
G1 X165.528 Y105.438 E1.5440
G1 X165.712 Y105.502 E1.5496
G1 X165.716 Y105.504 E1.5497
G1 X169.690 Y107.114 E1.6730
G1 X169.694 Y107.116 E1.6731
G1 X169.871 Y107.197 E1.6787
G1 X169.875 Y107.199 E1.6788
G1 X173.677 Y109.180 E1.8021
G1 X173.681 Y109.182 E1.8022
G1 X173.850 Y109.280 E1.8078
G1 X173.853 Y109.283 E1.8080
G1 X177.450 Y111.615 E1.9312
G1 X177.454 Y111.618 E1.9314
G1 X177.612 Y111.732 E1.9370
G1 X177.616 Y111.734 E1.9371
G1 X180.974 Y114.398 E2.0604
G1 X180.978 Y114.401 E2.0605
G1 X181.125 Y114.530 E2.0661
G1 X181.128 Y114.533 E2.0662
G1 X184.218 Y117.504 E2.1895
G1 X184.222 Y117.507 E2.1896
G1 X184.356 Y117.649 E2.1952
G1 X184.359 Y117.652 E2.1954
