; G-Code generated by Simplify3D(R) Version 4.0.0
; Aug 3, 2019 at 7:05:25 AM
; Settings Summary
;   processName,Basis
;   applyToModels,Litzenabdeckung_V1
;   profileName,Litzenabdeckung
;   profileVersion,2019-06-21 11:44:07
;   baseProfile,Tierkoepfe
;   printMaterial,
;   printQuality,
;   printExtruders,
;   extruderName,Primary Extruder
;   extruderToolheadNumber,0
;   extruderDiameter,0.4
;   extruderAutoWidth,0
;   extruderWidth,0.38
;   extrusionMultiplier,0.91
;   extruderUseRetract,1
;   extruderRetractionDistance,6
;   extruderExtraRestartDistance,0
;   extruderRetractionZLift,1.6
;   extruderRetractionSpeed,1800
;   extruderUseCoasting,0
;   extruderCoastingDistance,0.2
;   extruderUseWipe,0
;   extruderWipeDistance,5
;   primaryExtruder,0
;   layerHeight,0.1
;   topSolidLayers,5
;   bottomSolidLayers,5
;   perimeterOutlines,5
;   printPerimetersInsideOut,1
;   startPointOption,2
;   startPointOriginX,0
;   startPointOriginY,0
;   sequentialIslands,0
;   spiralVaseMode,0
;   firstLayerHeightPercentage,100
;   firstLayerWidthPercentage,100
;   firstLayerUnderspeed,0.5
;   useRaft,0
;   raftExtruder,0
;   raftTopLayers,3
;   raftBaseLayers,2
;   raftOffset,3
;   raftSeparationDistance,0.16
;   raftTopInfill,100
;   aboveRaftSpeedMultiplier,0.3
;   useSkirt,1
;   skirtExtruder,0
;   skirtLayers,1
;   skirtOutlines,2
;   skirtOffset,4
;   usePrimePillar,0
;   primePillarExtruder,999
;   primePillarWidth,12
;   primePillarLocation,7
;   primePillarSpeedMultiplier,1
;   useOozeShield,0
;   oozeShieldExtruder,999
;   oozeShieldOffset,2
;   oozeShieldOutlines,1
;   oozeShieldSidewallShape,1
;   oozeShieldSidewallAngle,30
;   oozeShieldSpeedMultiplier,1
;   infillExtruder,0
;   internalInfillPattern,Rectilinear
;   externalInfillPattern,Rectilinear
;   infillPercentage,50
;   outlineOverlapPercentage,20
;   infillExtrusionWidthPercentage,95
;   minInfillLength,0.6
;   infillLayerInterval,1
;   internalInfillAngles,0,90
;   overlapInternalInfillAngles,0
;   externalInfillAngles,0,90
;   generateSupport,1
;   supportExtruder,0
;   supportInfillPercentage,20
;   supportExtraInflation,0
;   supportBaseLayers,0
;   denseSupportExtruder,0
;   denseSupportLayers,0
;   denseSupportInfillPercentage,50
;   supportLayerInterval,1
;   supportHorizontalPartOffset,0.3
;   supportUpperSeparationLayers,1
;   supportLowerSeparationLayers,1
;   supportType,0
;   supportGridSpacing,1
;   maxOverhangAngle,50
;   supportAngles,0
;   temperatureName,Primary Extruder,Heated Bed
;   temperatureNumber,0,0
;   temperatureSetpointCount,1,1
;   temperatureSetpointLayers,1,1
;   temperatureSetpointTemperatures,195,50
;   temperatureStabilizeAtStartup,1,1
;   temperatureHeatedBed,0,1
;   temperatureRelayBetweenLayers,0,0
;   temperatureRelayBetweenLoops,0,0
;   fanLayers,1,2
;   fanSpeeds,70,60
;   blipFanToFullPower,0
;   adjustSpeedForCooling,1
;   minSpeedLayerTime,15
;   minCoolingSpeedSlowdown,20
;   increaseFanForCooling,0
;   minFanLayerTime,45
;   maxCoolingFanSpeed,100
;   increaseFanForBridging,0
;   bridgingFanSpeed,100
;   use5D,1
;   relativeEdistances,0
;   allowEaxisZeroing,1
;   independentExtruderAxes,0
;   includeM10123,0
;   stickySupport,1
;   applyToolheadOffsets,0
;   gcodeXoffset,0
;   gcodeYoffset,0
;   gcodeZoffset,0
;   overrideMachineDefinition,1
;   machineTypeOverride,0
;   strokeXoverride,300
;   strokeYoverride,300
;   strokeZoverride,400
;   originOffsetXoverride,0
;   originOffsetYoverride,0
;   originOffsetZoverride,0
;   homeXdirOverride,-1
;   homeYdirOverride,-1
;   homeZdirOverride,-1
;   flipXoverride,1
;   flipYoverride,-1
;   flipZoverride,1
;   toolheadOffsets,0,0|0,0|0,0|0,0|0,0|0,0
;   overrideFirmwareConfiguration,1
;   firmwareTypeOverride,RepRap (Marlin/Repetier/Sprinter)
;   GPXconfigOverride,r2
;   baudRateOverride,115200
;   overridePrinterModels,0
;   printerModelsOverride
;   startingGcode,M104 S[extruder0_temperature] T0,M190 S[bed0_temperature] T0,M109 S[extruder0_temperature] T0,G28 ; home all axes,G1 Z5 F3000 ; lift,G1 X2 Y20 F1500 ; avoid binder clips,G1 Z0.2 F3000 ; get ready to prime,G92 E0 ; reset extrusion distance,G1 X120 E10 F600 ; prime nozzle,G1 X250 F5000 ; quick wipe
;   layerChangeGcode,
;   retractionGcode,
;   toolChangeGcode,
;   endingGcode,G28 X0 ; home x axis,M106 S0 ; turn off cooling fan,M104 S0 ; turn off extruder,M140 S0 ; turn off bed,G28 X0 ; home x axis,G1 Y200  ; move to park position,M84 ; disable motors
;   exportFileFormat,gcode
;   celebration,0
;   celebrationSong,Funky Town
;   postProcessing,
;   defaultSpeed,4000
;   outlineUnderspeed,0.7
;   solidInfillUnderspeed,0.8
;   supportUnderspeed,0.8
;   rapidXYspeed,4800
;   rapidZspeed,1002
;   minBridgingArea,5
;   bridgingExtraInflation,0
;   bridgingExtrusionMultiplier,1
;   bridgingSpeedMultiplier,0.75
;   useFixedBridgingAngle,0
;   fixedBridgingAngle,0
;   applyBridgingToPerimeters,0
;   filamentDiameters,1.75|1.75|1.75|1.75|1.75|1.75
;   filamentPricesPerKg,30|46|46|46|46|46
;   filamentDensities,1.25|1.25|1.25|1.25|1.25|1.25
;   useMinPrintHeight,0
;   minPrintHeight,0
;   useMaxPrintHeight,0
;   maxPrintHeight,0.4
;   useDiaphragm,1
;   diaphragmLayerInterval,25
;   robustSlicing,1
;   mergeAllIntoSolid,0
;   onlyRetractWhenCrossingOutline,1
;   retractBetweenLayers,1
;   useRetractionMinTravel,0
;   retractionMinTravel,3
;   retractWhileWiping,0
;   onlyWipeOutlines,1
;   avoidCrossingOutline,0
;   maxMovementDetourFactor,3
;   toolChangeRetractionDistance,12
;   toolChangeExtraRestartDistance,-0.5
;   toolChangeRetractionSpeed,600
;   externalThinWallType,0
;   internalThinWallType,2
;   thinWallAllowedOverlapPercentage,25
;   singleExtrusionMinLength,1
;   singleExtrusionMinPrintingWidthPercentage,50
;   singleExtrusionMaxPrintingWidthPercentage,200
;   singleExtrusionEndpointExtension,0.2
;   horizontalSizeCompensation,0
G90
M82
M106 S178
M104 S195 T0
M190 S50 T0
M109 S195 T0
G28 ; home all axes
G1 Z5 F3000 ; lift
G1 X2 Y20 F1500 ; avoid binder clips
G1 Z0.2 F3000 ; get ready to prime
G92 E0 ; reset extrusion distance
G1 X120 E10 F600 ; prime nozzle
G1 X250 F5000 ; quick wipe
G92 E0
G1 E-6.0000 F1800
G1 Z1.700 F1002
; process Basis
; layer 1, Z = 0.100
T0
; tool H0.100 W0.380
; skirt
G1 X123.020 Y135.517 F4800
G1 Z0.100 F1002
G1 E0.0000 F540
G92 E0
G1 X123.230 Y135.430 E0.0033 F2000
G1 X144.667 Y135.430 E0.3115
G1 X144.800 Y135.297 E0.3142
G1 X145.010 Y135.210 E0.3174
G1 X154.990 Y135.210 E0.4609
G1 X155.200 Y135.297 E0.4642
G1 X155.333 Y135.430 E0.4669
G1 X176.770 Y135.430 E0.7751
G1 X176.980 Y135.517 E0.7783
G1 X179.483 Y138.020 E0.8292
G1 X179.570 Y138.230 E0.8325
G1 X179.570 Y161.770 E1.1709
G1 X179.483 Y161.980 E1.1742
G1 X176.980 Y164.483 E1.2251
G1 X176.770 Y164.570 E1.2284
G1 X155.333 Y164.570 E1.5365
G1 X155.200 Y164.703 E1.5393
G1 X154.990 Y164.790 E1.5425
G1 X145.010 Y164.790 E1.6860
G1 X144.800 Y164.703 E1.6893
G1 X144.667 Y164.570 E1.6920
G1 X123.230 Y164.570 E2.0002
G1 X123.020 Y164.483 E2.0034
G1 X120.517 Y161.980 E2.0543
G1 X120.430 Y161.770 E2.0576
G1 X120.430 Y138.230 E2.3960
G1 X120.517 Y138.020 E2.3993
G1 X123.020 Y135.517 E2.4502
G1 X123.236 Y135.839 F4800
G92 E0
G1 X123.305 Y135.810 E0.0011 F2000
G1 X144.824 Y135.810 E0.3105
G1 X145.016 Y135.619 E0.3143
G1 X145.085 Y135.590 E0.3154
G1 X154.915 Y135.590 E0.4567
G1 X154.984 Y135.619 E0.4578
G1 X155.176 Y135.810 E0.4617
G1 X176.695 Y135.810 E0.7711
G1 X176.764 Y135.839 E0.7722
G1 X179.161 Y138.236 E0.8209
G1 X179.190 Y138.305 E0.8220
G1 X179.190 Y161.695 E1.1583
G1 X179.161 Y161.764 E1.1593
G1 X176.764 Y164.161 E1.2081
G1 X176.695 Y164.190 E1.2092
G1 X155.176 Y164.190 E1.5185
G1 X154.984 Y164.381 E1.5224
G1 X154.915 Y164.410 E1.5235
G1 X145.085 Y164.410 E1.6648
G1 X145.016 Y164.381 E1.6659
G1 X144.824 Y164.190 E1.6698
G1 X123.305 Y164.190 E1.9792
G1 X123.236 Y164.161 E1.9802
G1 X120.839 Y161.764 E2.0290
G1 X120.810 Y161.695 E2.0301
G1 X120.810 Y138.305 E2.3663
G1 X120.839 Y138.236 E2.3674
G1 X123.236 Y135.839 E2.4161
G92 E0
G1 E-6.0000 F1800
G1 Z1.700 F1002
; inner perimeter
G1 X126.710 Y141.710 F4800
G1 Z0.100 F1002
G1 E0.0000 F1800
G92 E0
G1 X143.840 Y141.710 E0.2463 F1700
G1 X143.840 Y158.290 E0.4846
G1 X126.710 Y158.290 E0.7309
G1 X126.710 Y141.710 E0.9693
G1 X126.330 Y141.330 F4800
G92 E0
G1 X144.220 Y141.330 E0.2572 F1700
G1 X144.220 Y158.670 E0.5065
G1 X126.330 Y158.670 E0.7637
G1 X126.330 Y141.330 E1.0130
G1 X125.950 Y140.950 F4800
G92 E0
G1 X144.600 Y140.950 E0.2681 F1700
G1 X144.600 Y159.050 E0.5283
G1 X125.950 Y159.050 E0.7965
G1 X125.950 Y140.950 E1.0567
G1 X125.570 Y140.570 F4800
G92 E0
G1 X144.980 Y140.570 E0.2791 F1700
G1 X144.980 Y159.430 E0.5502
G1 X125.570 Y159.430 E0.8292
G1 X125.570 Y140.570 E1.1004
; outer perimeter
G1 X125.190 Y140.190 F4800
G92 E0
G1 X145.360 Y140.190 E0.2900 F1400
G1 X145.360 Y159.810 E0.5720
G1 X125.190 Y159.810 E0.8620
G1 X125.190 Y140.190 E1.1441
; solid layer
G1 X127.014 Y142.020 F4800
G92 E0
G1 X143.536 Y142.020 E0.2375 F1600
G1 X143.536 Y142.400 E0.2430
G1 X127.014 Y142.400 E0.4805
G1 X127.014 Y142.780 E0.4860
G1 X143.536 Y142.780 E0.7235
G1 X143.536 Y143.160 E0.7290
G1 X127.014 Y143.160 E0.9665
G1 X127.014 Y143.540 E0.9720
G1 X143.536 Y143.540 E1.2095
G1 X143.536 Y143.920 E1.2150
G1 X127.014 Y143.920 E1.4525
G1 X127.014 Y144.300 E1.4580
G1 X143.536 Y144.300 E1.6955
G1 X143.536 Y144.680 E1.7010
G1 X127.014 Y144.680 E1.9385
G1 X127.014 Y145.060 E1.9440
G1 X143.536 Y145.060 E2.1815
G1 X143.536 Y145.440 E2.1870
G1 X127.014 Y145.440 E2.4245
G1 X127.014 Y145.820 E2.4299
G1 X143.536 Y145.820 E2.6675
G1 X143.536 Y146.200 E2.6729
G1 X127.014 Y146.200 E2.9105
G1 X127.014 Y146.580 E2.9159
G1 X143.536 Y146.580 E3.1535
G1 X143.536 Y146.960 E3.1589
G1 X127.014 Y146.960 E3.3965
G1 X127.014 Y147.340 E3.4019
G1 X143.536 Y147.340 E3.6395
G1 X143.536 Y147.720 E3.6449
G1 X127.014 Y147.720 E3.8825
G1 X127.014 Y148.100 E3.8879
G1 X143.536 Y148.100 E4.1254
G1 X143.536 Y148.480 E4.1309
G1 X127.014 Y148.480 E4.3684
G1 X127.014 Y148.860 E4.3739
G1 X143.536 Y148.860 E4.6114
G1 X143.536 Y149.240 E4.6169
G1 X127.014 Y149.240 E4.8544
G1 X127.014 Y149.620 E4.8599
G1 X143.536 Y149.620 E5.0974
G1 X143.536 Y150.000 E5.1029
G1 X127.014 Y150.000 E5.3404
G1 X127.014 Y150.380 E5.3459
G1 X143.536 Y150.380 E5.5834
G1 X143.536 Y150.760 E5.5889
G1 X127.014 Y150.760 E5.8264
G1 X127.014 Y151.140 E5.8319
G1 X143.536 Y151.140 E6.0694
G1 X143.536 Y151.520 E6.0749
G1 X127.014 Y151.520 E6.3124
G1 X127.014 Y151.900 E6.3179
G1 X143.536 Y151.900 E6.5554
G1 X143.536 Y152.280 E6.5609
G1 X127.014 Y152.280 E6.7984
G1 X127.014 Y152.660 E6.8039
G1 X143.536 Y152.660 E7.0414
G1 X143.536 Y153.040 E7.0469
G1 X127.014 Y153.040 E7.2844
G1 X127.014 Y153.420 E7.2898
G1 X143.536 Y153.420 E7.5274
G1 X143.536 Y153.800 E7.5328
G1 X127.014 Y153.800 E7.7704
G1 X127.014 Y154.180 E7.7758
G1 X143.536 Y154.180 E8.0134
G1 X143.536 Y154.560 E8.0188
G1 X127.014 Y154.560 E8.2564
G1 X127.014 Y154.940 E8.2618
G1 X143.536 Y154.940 E8.4994
G1 X143.536 Y155.320 E8.5048
G1 X127.014 Y155.320 E8.7424
G1 X127.014 Y155.700 E8.7478
G1 X143.536 Y155.700 E8.9853
G1 X143.536 Y156.080 E8.9908
G1 X127.014 Y156.080 E9.2283
G1 X127.014 Y156.460 E9.2338
G1 X143.536 Y156.460 E9.4713
G1 X143.536 Y156.840 E9.4768
G1 X127.014 Y156.840 E9.7143
G1 X127.014 Y157.220 E9.7198
G1 X143.536 Y157.220 E9.9573
G1 X143.536 Y157.600 E9.9628
G1 X127.014 Y157.600 E10.2003
G1 X127.014 Y157.980 E10.2058
G1 X143.536 Y157.980 E10.4433
G92 E0
G1 E-6.0000 F1800
G1 Z1.700 F1002
; inner perimeter
G1 X156.160 Y158.290 F4800
G1 Z0.100 F1002
G1 E0.0000 F1800
G92 E0
G1 X156.160 Y141.710 E0.2384 F1700
G1 X173.290 Y141.710 E0.4846
G1 X173.290 Y158.290 E0.7230
G1 X156.160 Y158.290 E0.9693
G1 X155.780 Y158.670 F4800
G92 E0
G1 X155.780 Y141.330 E0.2493 F1700
G1 X173.670 Y141.330 E0.5065
G1 X173.670 Y158.670 E0.7558
G1 X155.780 Y158.670 E1.0130
G1 X155.400 Y159.050 F4800
G92 E0
G1 X155.400 Y140.950 E0.2602 F1700
G1 X174.050 Y140.950 E0.5283
G1 X174.050 Y159.050 E0.7886
G1 X155.400 Y159.050 E1.0567
G1 X155.020 Y159.430 F4800
G92 E0
G1 X155.020 Y140.570 E0.2711 F1700
G1 X174.430 Y140.570 E0.5502
G1 X174.430 Y159.430 E0.8213
G1 X155.020 Y159.430 E1.1004
; outer perimeter
G1 X154.640 Y159.810 F4800
G92 E0
G1 X154.640 Y140.190 E0.2821 F1400
G1 X174.810 Y140.190 E0.5720
G1 X174.810 Y159.810 E0.8541
G1 X154.640 Y159.810 E1.1441
; solid layer
G1 X156.464 Y142.020 F4800
G92 E0
G1 X172.986 Y142.020 E0.2375 F1600
G1 X172.986 Y142.400 E0.2430
G1 X156.464 Y142.400 E0.4805
G1 X156.464 Y142.780 E0.4860
G1 X172.986 Y142.780 E0.7235
G1 X172.986 Y143.160 E0.7290
G1 X156.464 Y143.160 E0.9665
G1 X156.464 Y143.540 E0.9720
G1 X172.986 Y143.540 E1.2095
G1 X172.986 Y143.920 E1.2150
G1 X156.464 Y143.920 E1.4525
G1 X156.464 Y144.300 E1.4580
G1 X172.986 Y144.300 E1.6955
G1 X172.986 Y144.680 E1.7010
G1 X156.464 Y144.680 E1.9385
G1 X156.464 Y145.060 E1.9440
G1 X172.986 Y145.060 E2.1815
G1 X172.986 Y145.440 E2.1870
G1 X156.464 Y145.440 E2.4245
G1 X156.464 Y145.820 E2.4300
G1 X172.986 Y145.820 E2.6675
G1 X172.986 Y146.200 E2.6729
G1 X156.464 Y146.200 E2.9105
G1 X156.464 Y146.580 E2.9159
G1 X172.986 Y146.580 E3.1535
G1 X172.986 Y146.960 E3.1589
G1 X156.464 Y146.960 E3.3965
G1 X156.464 Y147.340 E3.4019
G1 X172.986 Y147.340 E3.6395
G1 X172.986 Y147.720 E3.6449
G1 X156.464 Y147.720 E3.8825
G1 X156.464 Y148.100 E3.8879
G1 X172.986 Y148.100 E4.1255
G1 X172.986 Y148.480 E4.1309
G1 X156.464 Y148.480 E4.3684
G1 X156.464 Y148.860 E4.3739
G1 X172.986 Y148.860 E4.6114
G1 X172.986 Y149.240 E4.6169
G1 X156.464 Y149.240 E4.8544
G1 X156.464 Y149.620 E4.8599
G1 X172.986 Y149.620 E5.0974
G1 X172.986 Y150.000 E5.1029
G1 X156.464 Y150.000 E5.3404
G1 X156.464 Y150.380 E5.3459
G1 X172.986 Y150.380 E5.5834
G1 X172.986 Y150.760 E5.5889
G1 X156.464 Y150.760 E5.8264
G1 X156.464 Y151.140 E5.8319
G1 X172.986 Y151.140 E6.0694
G1 X172.986 Y151.520 E6.0749
G1 X156.464 Y151.520 E6.3124
G1 X156.464 Y151.900 E6.3179
G1 X172.986 Y151.900 E6.5554
G1 X172.986 Y152.280 E6.5609
G1 X156.464 Y152.280 E6.7984
G1 X156.464 Y152.660 E6.8039
G1 X172.986 Y152.660 E7.0414
G1 X172.986 Y153.040 E7.0469
G1 X156.464 Y153.040 E7.2844
G1 X156.464 Y153.420 E7.2899
G1 X172.986 Y153.420 E7.5274
G1 X172.986 Y153.800 E7.5328
G1 X156.464 Y153.800 E7.7704
G1 X156.464 Y154.180 E7.7758
G1 X172.986 Y154.180 E8.0134
G1 X172.986 Y154.560 E8.0188
G1 X156.464 Y154.560 E8.2564
G1 X156.464 Y154.940 E8.2618
G1 X172.986 Y154.940 E8.4994
G1 X172.986 Y155.320 E8.5048
G1 X156.464 Y155.320 E8.7424
G1 X156.464 Y155.700 E8.7478
G1 X172.986 Y155.700 E8.9854
G1 X172.986 Y156.080 E8.9908
G1 X156.464 Y156.080 E9.2283
G1 X156.464 Y156.460 E9.2338
G1 X172.986 Y156.460 E9.4713
G1 X172.986 Y156.840 E9.4768
G1 X156.464 Y156.840 E9.7143
G1 X156.464 Y157.220 E9.7198
G1 X172.986 Y157.220 E9.9573
G1 X172.986 Y157.600 E9.9628
G1 X156.464 Y157.600 E10.2003
G1 X156.464 Y157.980 E10.2058
G1 X172.986 Y157.980 E10.4433
G92 E0
G1 E-6.0000 F1800
G1 Z1.700 F1002
; support
G1 X153.030 Y159.500 F4800
G1 Z0.100 F1002
G1 E0.0000 F1800
G92 E0
G1 X146.970 Y159.500 E0.0871 F1600
G1 X146.970 Y157.600 E0.1144
G1 X153.030 Y157.600 E0.2016
G1 X153.030 Y155.700 E0.2289
G1 X146.970 Y155.700 E0.3160
G1 X146.970 Y153.800 E0.3433
G1 X153.030 Y153.800 E0.4304
G1 X153.030 Y151.900 E0.4578
G1 X146.970 Y151.900 E0.5449
G1 X146.970 Y150.000 E0.5722
G1 X153.030 Y150.000 E0.6593
G1 X153.030 Y148.100 E0.6866
G1 X146.970 Y148.100 E0.7738
G1 X146.970 Y146.200 E0.8011
G1 X153.030 Y146.200 E0.8882
G1 X153.030 Y144.300 E0.9155
G1 X146.970 Y144.300 E1.0026
G1 X146.970 Y142.400 E1.0299
G1 X153.030 Y142.400 E1.1171
G1 X153.030 Y140.500 E1.1444
G1 X146.970 Y140.500 E1.2315
G92 E0
G1 E-6.0000 F1800
G1 Z1.800 F1002
; layer 2, Z = 0.200
M106 S153
; inner perimeter
G1 X143.940 Y141.710 F4800
G1 Z0.200 F1002
G1 E0.0000 F1800
G92 E0
G1 X143.940 Y158.290 E0.2384 F3400
G1 X126.717 Y158.290 E0.4860
G1 X126.717 Y141.710 E0.7243
G1 X143.940 Y141.710 E0.9720
G1 X144.320 Y141.330 F4800
G92 E0
G1 X144.320 Y158.670 E0.2493 F3400
G1 X126.337 Y158.670 E0.5078
G1 X126.337 Y141.330 E0.7571
G1 X144.320 Y141.330 E1.0157
G1 X144.700 Y140.950 F4800
G92 E0
