; G-Code generated by Simplify3D(R) Version 4.0.0
; Aug 3, 2019 at 7:37:06 AM
; Settings Summary
;   processName,Basis
;   applyToModels,Litzenabdeckung_V2
;   profileName,Litzenabdeckung
;   profileVersion,2019-08-03 07:04:50
;   baseProfile,Tierkoepfe
;   printMaterial,
;   printQuality,
;   printExtruders,
;   extruderName,Primary Extruder
;   extruderToolheadNumber,0
;   extruderDiameter,0.4
;   extruderAutoWidth,0
;   extruderWidth,0.38
;   extrusionMultiplier,0.91
;   extruderUseRetract,1
;   extruderRetractionDistance,6
;   extruderExtraRestartDistance,0
;   extruderRetractionZLift,1.6
;   extruderRetractionSpeed,1800
;   extruderUseCoasting,0
;   extruderCoastingDistance,0.2
;   extruderUseWipe,0
;   extruderWipeDistance,5
;   primaryExtruder,0
;   layerHeight,0.1
;   topSolidLayers,5
;   bottomSolidLayers,5
;   perimeterOutlines,5
;   printPerimetersInsideOut,1
;   startPointOption,2
;   startPointOriginX,0
;   startPointOriginY,0
;   sequentialIslands,0
;   spiralVaseMode,0
;   firstLayerHeightPercentage,100
;   firstLayerWidthPercentage,100
;   firstLayerUnderspeed,0.5
;   useRaft,0
;   raftExtruder,0
;   raftTopLayers,3
;   raftBaseLayers,2
;   raftOffset,3
;   raftSeparationDistance,0.16
;   raftTopInfill,100
;   aboveRaftSpeedMultiplier,0.3
;   useSkirt,1
;   skirtExtruder,0
;   skirtLayers,1
;   skirtOutlines,2
;   skirtOffset,4
;   usePrimePillar,0
;   primePillarExtruder,999
;   primePillarWidth,12
;   primePillarLocation,7
;   primePillarSpeedMultiplier,1
;   useOozeShield,0
;   oozeShieldExtruder,999
;   oozeShieldOffset,2
;   oozeShieldOutlines,1
;   oozeShieldSidewallShape,1
;   oozeShieldSidewallAngle,30
;   oozeShieldSpeedMultiplier,1
;   infillExtruder,0
;   internalInfillPattern,Rectilinear
;   externalInfillPattern,Rectilinear
;   infillPercentage,50
;   outlineOverlapPercentage,20
;   infillExtrusionWidthPercentage,95
;   minInfillLength,0.6
;   infillLayerInterval,1
;   internalInfillAngles,0,90
;   overlapInternalInfillAngles,0
;   externalInfillAngles,0,90
;   generateSupport,1
;   supportExtruder,0
;   supportInfillPercentage,20
;   supportExtraInflation,0
;   supportBaseLayers,0
;   denseSupportExtruder,0
;   denseSupportLayers,0
;   denseSupportInfillPercentage,50
;   supportLayerInterval,1
;   supportHorizontalPartOffset,0.3
;   supportUpperSeparationLayers,1
;   supportLowerSeparationLayers,1
;   supportType,0
;   supportGridSpacing,1
;   maxOverhangAngle,50
;   supportAngles,0
;   temperatureName,Primary Extruder,Heated Bed
;   temperatureNumber,0,0
;   temperatureSetpointCount,1,1
;   temperatureSetpointLayers,1,1
;   temperatureSetpointTemperatures,195,50
;   temperatureStabilizeAtStartup,1,1
;   temperatureHeatedBed,0,1
;   temperatureRelayBetweenLayers,0,0
;   temperatureRelayBetweenLoops,0,0
;   fanLayers,1,2
;   fanSpeeds,70,60
;   blipFanToFullPower,0
;   adjustSpeedForCooling,1
;   minSpeedLayerTime,15
;   minCoolingSpeedSlowdown,20
;   increaseFanForCooling,0
;   minFanLayerTime,45
;   maxCoolingFanSpeed,100
;   increaseFanForBridging,0
;   bridgingFanSpeed,100
;   use5D,1
;   relativeEdistances,0
;   allowEaxisZeroing,1
;   independentExtruderAxes,0
;   includeM10123,0
;   stickySupport,1
;   applyToolheadOffsets,0
;   gcodeXoffset,0
;   gcodeYoffset,0
;   gcodeZoffset,0
;   overrideMachineDefinition,1
;   machineTypeOverride,0
;   strokeXoverride,300
;   strokeYoverride,300
;   strokeZoverride,400
;   originOffsetXoverride,0
;   originOffsetYoverride,0
;   originOffsetZoverride,0
;   homeXdirOverride,-1
;   homeYdirOverride,-1
;   homeZdirOverride,-1
;   flipXoverride,1
;   flipYoverride,-1
;   flipZoverride,1
;   toolheadOffsets,0,0|0,0|0,0|0,0|0,0|0,0
;   overrideFirmwareConfiguration,1
;   firmwareTypeOverride,RepRap (Marlin/Repetier/Sprinter)
;   GPXconfigOverride,r2
;   baudRateOverride,115200
;   overridePrinterModels,0
;   printerModelsOverride
;   startingGcode,M104 S[extruder0_temperature] T0,M190 S[bed0_temperature] T0,M109 S[extruder0_temperature] T0,G28 ; home all axes,G1 Z5 F3000 ; lift,G1 X2 Y20 F1500 ; avoid binder clips,G1 Z0.2 F3000 ; get ready to prime,G92 E0 ; reset extrusion distance,G1 X120 E10 F600 ; prime nozzle,G1 X250 F5000 ; quick wipe
;   layerChangeGcode,
;   retractionGcode,
;   toolChangeGcode,
;   endingGcode,G28 X0 ; home x axis,M106 S0 ; turn off cooling fan,M104 S0 ; turn off extruder,M140 S0 ; turn off bed,G28 X0 ; home x axis,G1 Y200  ; move to park position,M84 ; disable motors
;   exportFileFormat,gcode
;   celebration,0
;   celebrationSong,Funky Town
;   postProcessing,
;   defaultSpeed,4000
;   outlineUnderspeed,0.7
;   solidInfillUnderspeed,0.8
;   supportUnderspeed,0.8
;   rapidXYspeed,4800
;   rapidZspeed,1002
;   minBridgingArea,5
;   bridgingExtraInflation,0
;   bridgingExtrusionMultiplier,1
;   bridgingSpeedMultiplier,0.75
;   useFixedBridgingAngle,0
;   fixedBridgingAngle,0
;   applyBridgingToPerimeters,0
;   filamentDiameters,1.75|1.75|1.75|1.75|1.75|1.75
;   filamentPricesPerKg,30|46|46|46|46|46
;   filamentDensities,1.25|1.25|1.25|1.25|1.25|1.25
;   useMinPrintHeight,0
;   minPrintHeight,0
;   useMaxPrintHeight,0
;   maxPrintHeight,0.4
;   useDiaphragm,1
;   diaphragmLayerInterval,25
;   robustSlicing,1
;   mergeAllIntoSolid,0
;   onlyRetractWhenCrossingOutline,1
;   retractBetweenLayers,1
;   useRetractionMinTravel,0
;   retractionMinTravel,3
;   retractWhileWiping,0
;   onlyWipeOutlines,1
;   avoidCrossingOutline,0
;   maxMovementDetourFactor,3
;   toolChangeRetractionDistance,12
;   toolChangeExtraRestartDistance,-0.5
;   toolChangeRetractionSpeed,600
;   externalThinWallType,0
;   internalThinWallType,2
;   thinWallAllowedOverlapPercentage,25
;   singleExtrusionMinLength,1
;   singleExtrusionMinPrintingWidthPercentage,50
;   singleExtrusionMaxPrintingWidthPercentage,200
;   singleExtrusionEndpointExtension,0.2
;   horizontalSizeCompensation,0
G90
M82
M106 S178
M104 S195 T0
M190 S50 T0
M109 S195 T0
G28 ; home all axes
G1 Z5 F3000 ; lift
G1 X2 Y20 F1500 ; avoid binder clips
G1 Z0.2 F3000 ; get ready to prime
G92 E0 ; reset extrusion distance
G1 X120 E10 F600 ; prime nozzle
G1 X250 F5000 ; quick wipe
G92 E0
G1 E-6.0000 F1800
G1 Z1.700 F1002
; process Basis
; layer 1, Z = 0.100
T0
; tool H0.100 W0.380
; skirt
G1 X13.230 Y115.430 F4800
G1 Z0.100 F1002
G1 E0.0000 F540
G92 E0
G1 X286.770 Y115.430 E3.9326 F2000
G1 X286.980 Y115.517 E3.9359
G1 X289.483 Y118.020 E3.9868
G1 X289.570 Y118.230 E3.9900
G1 X289.570 Y144.667 E4.3701
G1 X289.703 Y144.800 E4.3728
G1 X289.790 Y145.010 E4.3761
G1 X289.790 Y154.990 E4.5196
G1 X289.703 Y155.200 E4.5228
G1 X289.570 Y155.333 E4.5255
G1 X289.570 Y181.770 E4.9056
G1 X289.483 Y181.980 E4.9089
G1 X286.980 Y184.483 E4.9598
G1 X286.770 Y184.570 E4.9630
G1 X13.230 Y184.570 E8.8956
G1 X13.020 Y184.483 E8.8989
G1 X10.517 Y181.980 E8.9498
G1 X10.430 Y181.770 E8.9531
G1 X10.430 Y155.333 E9.3331
G1 X10.297 Y155.200 E9.3359
G1 X10.210 Y154.990 E9.3391
G1 X10.210 Y145.010 E9.4826
G1 X10.297 Y144.800 E9.4859
G1 X10.430 Y144.667 E9.4886
G1 X10.430 Y118.230 E9.8686
G1 X10.517 Y118.020 E9.8719
G1 X13.020 Y115.517 E9.9228
G1 X13.230 Y115.430 E9.9261
G1 X13.305 Y115.810 F4800
G92 E0
G1 X286.695 Y115.810 E3.9304 F2000
G1 X286.764 Y115.839 E3.9315
G1 X289.161 Y118.236 E3.9802
G1 X289.190 Y118.305 E3.9813
G1 X289.190 Y144.824 E4.3626
G1 X289.381 Y145.016 E4.3665
G1 X289.410 Y145.085 E4.3676
G1 X289.410 Y154.915 E4.5089
G1 X289.381 Y154.984 E4.5100
G1 X289.190 Y155.176 E4.5138
G1 X289.190 Y181.695 E4.8951
G1 X289.161 Y181.764 E4.8962
G1 X286.764 Y184.161 E4.9449
G1 X286.695 Y184.190 E4.9460
G1 X13.305 Y184.190 E8.8764
G1 X13.236 Y184.161 E8.8775
G1 X10.839 Y181.764 E8.9263
G1 X10.810 Y181.695 E8.9273
G1 X10.810 Y155.176 E9.3086
G1 X10.619 Y154.984 E9.3125
G1 X10.590 Y154.915 E9.3136
G1 X10.590 Y145.085 E9.4549
G1 X10.619 Y145.016 E9.4560
G1 X10.810 Y144.824 E9.4599
G1 X10.810 Y118.305 E9.8411
G1 X10.839 Y118.236 E9.8422
G1 X13.236 Y115.839 E9.8909
G1 X13.305 Y115.810 E9.8920
G92 E0
G1 E-6.0000 F1800
G1 Z1.700 F1002
; inner perimeter
G1 X16.710 Y121.710 F4800
G1 Z0.100 F1002
G1 E0.0000 F1800
G92 E0
G1 X283.290 Y121.710 E3.8325 F1700
G1 X283.290 Y143.840 E4.1507
G1 X16.710 Y143.840 E7.9832
G1 X16.710 Y121.710 E8.3014
G1 X16.330 Y121.330 F4800
G92 E0
G1 X283.670 Y121.330 E3.8435 F1700
G1 X283.670 Y144.220 E4.1725
G1 X16.330 Y144.220 E8.0160
G1 X16.330 Y121.330 E8.3451
G1 X15.950 Y120.950 F4800
G92 E0
G1 X284.050 Y120.950 E3.8544 F1700
G1 X284.050 Y144.600 E4.1944
G1 X15.950 Y144.600 E8.0488
G1 X15.950 Y120.950 E8.3888
G1 X15.570 Y120.570 F4800
G92 E0
G1 X284.430 Y120.570 E3.8653 F1700
G1 X284.430 Y144.980 E4.2163
G1 X15.570 Y144.980 E8.0816
G1 X15.570 Y120.570 E8.4325
; outer perimeter
G1 X15.190 Y120.190 F4800
G92 E0
G1 X284.810 Y120.190 E3.8762 F1400
G1 X284.810 Y145.360 E4.2381
G1 X15.190 Y145.360 E8.1143
G1 X15.190 Y120.190 E8.4762
; solid layer
G1 X17.014 Y122.260 F4800
G92 E0
G1 X282.986 Y122.260 E3.8238 F1600
G1 X282.986 Y122.640 E3.8293
G1 X17.014 Y122.640 E7.6531
G1 X17.014 Y123.020 E7.6585
G1 X282.986 Y123.020 E11.4823
G1 X282.986 Y123.400 E11.4878
G1 X17.014 Y123.400 E15.3116
G1 X17.014 Y123.780 E15.3170
G1 X282.986 Y123.780 E19.1408
G1 X282.986 Y124.160 E19.1463
G1 X17.014 Y124.160 E22.9701
G1 X17.014 Y124.540 E22.9756
G1 X282.986 Y124.540 E26.7994
G1 X282.986 Y124.920 E26.8048
G1 X17.014 Y124.920 E30.6286
G1 X17.014 Y125.300 E30.6341
G1 X282.986 Y125.300 E34.4579
G1 X282.986 Y125.680 E34.4633
G1 X17.014 Y125.680 E38.2871
G1 X17.014 Y126.060 E38.2926
G1 X282.986 Y126.060 E42.1164
G1 X282.986 Y126.440 E42.1219
G1 X17.014 Y126.440 E45.9457
G1 X17.014 Y126.820 E45.9511
G1 X282.986 Y126.820 E49.7749
G1 X282.986 Y127.200 E49.7804
G1 X17.014 Y127.200 E53.6042
G1 X17.014 Y127.580 E53.6097
G1 X282.986 Y127.580 E57.4335
G1 X282.986 Y127.960 E57.4389
G1 X17.014 Y127.960 E61.2627
G1 X17.014 Y128.340 E61.2682
G1 X282.986 Y128.340 E65.0920
G1 X282.986 Y128.720 E65.0974
G1 X17.014 Y128.720 E68.9212
G1 X17.014 Y129.100 E68.9267
G1 X282.986 Y129.100 E72.7505
G1 X282.986 Y129.480 E72.7560
G1 X17.014 Y129.480 E76.5798
G1 X17.014 Y129.860 E76.5852
G1 X282.986 Y129.860 E80.4090
G1 X282.986 Y130.240 E80.4145
G1 X17.014 Y130.240 E84.2383
G1 X17.014 Y130.620 E84.2437
G1 X282.986 Y130.620 E88.0675
G1 X282.986 Y131.000 E88.0730
G1 X17.014 Y131.000 E91.8968
G1 X17.014 Y131.380 E91.9023
G1 X282.986 Y131.380 E95.7261
G1 X282.986 Y131.760 E95.7315
G1 X17.014 Y131.760 E99.5553
G1 X17.014 Y132.140 E99.5608
G1 X282.986 Y132.140 E103.3846
G1 X282.986 Y132.520 E103.3900
G1 X17.014 Y132.520 E107.2138
G1 X17.014 Y132.900 E107.2193
G1 X282.986 Y132.900 E111.0431
G1 X282.986 Y133.280 E111.0486
G1 X17.014 Y133.280 E114.8724
G1 X17.014 Y133.660 E114.8778
G1 X282.986 Y133.660 E118.7016
G1 X282.986 Y134.040 E118.7071
G1 X17.014 Y134.040 E122.5309
G1 X17.014 Y134.420 E122.5364
G1 X282.986 Y134.420 E126.3602
G1 X282.986 Y134.800 E126.3656
G1 X17.014 Y134.800 E130.1894
G1 X17.014 Y135.180 E130.1949
G1 X282.986 Y135.180 E134.0187
G1 X282.986 Y135.560 E134.0241
G1 X17.014 Y135.560 E137.8479
G1 X17.014 Y135.940 E137.8534
G1 X282.986 Y135.940 E141.6772
G1 X282.986 Y136.320 E141.6827
G1 X17.014 Y136.320 E145.5065
G1 X17.014 Y136.700 E145.5119
G1 X282.986 Y136.700 E149.3357
G1 X282.986 Y137.080 E149.3412
G1 X17.014 Y137.080 E153.1650
G1 X17.014 Y137.460 E153.1704
G1 X282.986 Y137.460 E156.9942
G1 X282.986 Y137.840 E156.9997
G1 X17.014 Y137.840 E160.8235
G1 X17.014 Y138.220 E160.8290
G1 X282.986 Y138.220 E164.6528
G1 X282.986 Y138.600 E164.6582
G1 X17.014 Y138.600 E168.4820
G1 X17.014 Y138.980 E168.4875
G1 X282.986 Y138.980 E172.3113
G1 X282.986 Y139.360 E172.3167
G1 X17.014 Y139.360 E176.1405
G1 X17.014 Y139.740 E176.1460
G1 X282.986 Y139.740 E179.9698
G1 X282.986 Y140.120 E179.9753
G1 X17.014 Y140.120 E183.7991
G1 X17.014 Y140.500 E183.8045
G1 X282.986 Y140.500 E187.6283
G1 X282.986 Y140.880 E187.6338
G1 X17.014 Y140.880 E191.4576
G1 X17.014 Y141.260 E191.4631
G1 X282.986 Y141.260 E195.2868
G1 X282.986 Y141.640 E195.2923
G1 X17.014 Y141.640 E199.1161
G1 X17.014 Y142.020 E199.1216
G1 X282.986 Y142.020 E202.9454
G1 X282.986 Y142.400 E202.9508
G1 X17.014 Y142.400 E206.7746
G1 X17.014 Y142.780 E206.7801
G1 X282.986 Y142.780 E210.6039
G1 X282.986 Y143.160 E210.6094
G1 X17.014 Y143.160 E214.4332
G92 E0
G1 E-6.0000 F1800
G1 Z1.700 F1002
; inner perimeter
G1 X16.710 Y156.160 F4800
G1 Z0.100 F1002
G1 E0.0000 F1800
G92 E0
G1 X283.290 Y156.160 E3.8325 F1700
G1 X283.290 Y178.290 E4.1507
G1 X16.710 Y178.290 E7.9832
G1 X16.710 Y156.160 E8.3014
G1 X16.330 Y155.780 F4800
G92 E0
G1 X283.670 Y155.780 E3.8435 F1700
G1 X283.670 Y178.670 E4.1725
G1 X16.330 Y178.670 E8.0160
G1 X16.330 Y155.780 E8.3451
G1 X15.950 Y155.400 F4800
G92 E0
G1 X284.050 Y155.400 E3.8544 F1700
G1 X284.050 Y179.050 E4.1944
G1 X15.950 Y179.050 E8.0488
G1 X15.950 Y155.400 E8.3888
G1 X15.570 Y155.020 F4800
G92 E0
G1 X284.430 Y155.020 E3.8653 F1700
G1 X284.430 Y179.430 E4.2163
G1 X15.570 Y179.430 E8.0816
G1 X15.570 Y155.020 E8.4325
; outer perimeter
G1 X15.190 Y154.640 F4800
G92 E0
G1 X284.810 Y154.640 E3.8762 F1400
G1 X284.810 Y179.810 E4.2381
G1 X15.190 Y179.810 E8.1143
G1 X15.190 Y154.640 E8.4762
; solid layer
G1 X17.014 Y156.840 F4800
G92 E0
G1 X282.986 Y156.840 E3.8238 F1600
G1 X282.986 Y157.220 E3.8293
G1 X17.014 Y157.220 E7.6531
G1 X17.014 Y157.600 E7.6585
G1 X282.986 Y157.600 E11.4823
G1 X282.986 Y157.980 E11.4878
G1 X17.014 Y157.980 E15.3116
G1 X17.014 Y158.360 E15.3170
G1 X282.986 Y158.360 E19.1408
G1 X282.986 Y158.740 E19.1463
G1 X17.014 Y158.740 E22.9701
G1 X17.014 Y159.120 E22.9756
G1 X282.986 Y159.120 E26.7994
G1 X282.986 Y159.500 E26.8048
G1 X17.014 Y159.500 E30.6286
G1 X17.014 Y159.880 E30.6341
G1 X282.986 Y159.880 E34.4579
G1 X282.986 Y160.260 E34.4633
G1 X17.014 Y160.260 E38.2871
G1 X17.014 Y160.640 E38.2926
G1 X282.986 Y160.640 E42.1164
G1 X282.986 Y161.020 E42.1219
G1 X17.014 Y161.020 E45.9457
G1 X17.014 Y161.400 E45.9511
G1 X282.986 Y161.400 E49.7749
G1 X282.986 Y161.780 E49.7804
G1 X17.014 Y161.780 E53.6042
G1 X17.014 Y162.160 E53.6097
G1 X282.986 Y162.160 E57.4335
G1 X282.986 Y162.540 E57.4389
G1 X17.014 Y162.540 E61.2627
G1 X17.014 Y162.920 E61.2682
G1 X282.986 Y162.920 E65.0920
G1 X282.986 Y163.300 E65.0974
G1 X17.014 Y163.300 E68.9212
G1 X17.014 Y163.680 E68.9267
G1 X282.986 Y163.680 E72.7505
G1 X282.986 Y164.060 E72.7560
G1 X17.014 Y164.060 E76.5798
G1 X17.014 Y164.440 E76.5852
G1 X282.986 Y164.440 E80.4090
G1 X282.986 Y164.820 E80.4145
G1 X17.014 Y164.820 E84.2383
G1 X17.014 Y165.200 E84.2437
G1 X282.986 Y165.200 E88.0675
G1 X282.986 Y165.580 E88.0730
G1 X17.014 Y165.580 E91.8968
G1 X17.014 Y165.960 E91.9023
G1 X282.986 Y165.960 E95.7261
G1 X282.986 Y166.340 E95.7315
G1 X17.014 Y166.340 E99.5553
G1 X17.014 Y166.720 E99.5608
G1 X282.986 Y166.720 E103.3846
G1 X282.986 Y167.100 E103.3900
G1 X17.014 Y167.100 E107.2138
G1 X17.014 Y167.480 E107.2193
G1 X282.986 Y167.480 E111.0431
G1 X282.986 Y167.860 E111.0486
G1 X17.014 Y167.860 E114.8724
G1 X17.014 Y168.240 E114.8778
G1 X282.986 Y168.240 E118.7016
G1 X282.986 Y168.620 E118.7071
G1 X17.014 Y168.620 E122.5309
G1 X17.014 Y169.000 E122.5364
G1 X282.986 Y169.000 E126.3602
G1 X282.986 Y169.380 E126.3656
G1 X17.014 Y169.380 E130.1894
G1 X17.014 Y169.760 E130.1949
G1 X282.986 Y169.760 E134.0187
G1 X282.986 Y170.140 E134.0241
G1 X17.014 Y170.140 E137.8479
G1 X17.014 Y170.520 E137.8534
G1 X282.986 Y170.520 E141.6772
G1 X282.986 Y170.900 E141.6827
G1 X17.014 Y170.900 E145.5065
G1 X17.014 Y171.280 E145.5119
G1 X282.986 Y171.280 E149.3357
G1 X282.986 Y171.660 E149.3412
G1 X17.014 Y171.660 E153.1650
G1 X17.014 Y172.040 E153.1704
G1 X282.986 Y172.040 E156.9942
G1 X282.986 Y172.420 E156.9997
G1 X17.014 Y172.420 E160.8235
G1 X17.014 Y172.800 E160.8290
G1 X282.986 Y172.800 E164.6528
G1 X282.986 Y173.180 E164.6582
G1 X17.014 Y173.180 E168.4820
G1 X17.014 Y173.560 E168.4875
G1 X282.986 Y173.560 E172.3113
G1 X282.986 Y173.940 E172.3167
G1 X17.014 Y173.940 E176.1405
G1 X17.014 Y174.320 E176.1460
G1 X282.986 Y174.320 E179.9698
G1 X282.986 Y174.700 E179.9753
G1 X17.014 Y174.700 E183.7991
G1 X17.014 Y175.080 E183.8045
