; G-Code generated by Simplify3D(R) Version 4.0.0
; Jun 20, 2019 at 12:05:52 PM
; Settings Summary
;   processName,Basis
;   applyToModels,SRCtrl_V3
;   profileName,SRCtrl
;   profileVersion,2019-06-16 18:21:35
;   baseProfile,Tierkoepfe
;   printMaterial,
;   printQuality,
;   printExtruders,
;   extruderName,Primary Extruder
;   extruderToolheadNumber,0
;   extruderDiameter,0.4
;   extruderAutoWidth,0
;   extruderWidth,0.38
;   extrusionMultiplier,0.91
;   extruderUseRetract,1
;   extruderRetractionDistance,4.5
;   extruderExtraRestartDistance,0
;   extruderRetractionZLift,0.4
;   extruderRetractionSpeed,1800
;   extruderUseCoasting,0
;   extruderCoastingDistance,0.2
;   extruderUseWipe,0
;   extruderWipeDistance,5
;   primaryExtruder,0
;   layerHeight,0.1
;   topSolidLayers,4
;   bottomSolidLayers,4
;   perimeterOutlines,2
;   printPerimetersInsideOut,1
;   startPointOption,2
;   startPointOriginX,0
;   startPointOriginY,0
;   sequentialIslands,0
;   spiralVaseMode,0
;   firstLayerHeightPercentage,100
;   firstLayerWidthPercentage,100
;   firstLayerUnderspeed,0.5
;   useRaft,0
;   raftExtruder,0
;   raftTopLayers,3
;   raftBaseLayers,2
;   raftOffset,3
;   raftSeparationDistance,0.16
;   raftTopInfill,100
;   aboveRaftSpeedMultiplier,0.3
;   useSkirt,1
;   skirtExtruder,0
;   skirtLayers,1
;   skirtOutlines,2
;   skirtOffset,4
;   usePrimePillar,0
;   primePillarExtruder,999
;   primePillarWidth,12
;   primePillarLocation,7
;   primePillarSpeedMultiplier,1
;   useOozeShield,0
;   oozeShieldExtruder,999
;   oozeShieldOffset,2
;   oozeShieldOutlines,1
;   oozeShieldSidewallShape,1
;   oozeShieldSidewallAngle,30
;   oozeShieldSpeedMultiplier,1
;   infillExtruder,0
;   internalInfillPattern,Rectilinear
;   externalInfillPattern,Rectilinear
;   infillPercentage,50
;   outlineOverlapPercentage,20
;   infillExtrusionWidthPercentage,95
;   minInfillLength,0.6
;   infillLayerInterval,1
;   internalInfillAngles,0,90
;   overlapInternalInfillAngles,0
;   externalInfillAngles,0,90
;   generateSupport,0
;   supportExtruder,0
;   supportInfillPercentage,20
;   supportExtraInflation,0
;   supportBaseLayers,0
;   denseSupportExtruder,0
;   denseSupportLayers,0
;   denseSupportInfillPercentage,50
;   supportLayerInterval,1
;   supportHorizontalPartOffset,0.3
;   supportUpperSeparationLayers,1
;   supportLowerSeparationLayers,1
;   supportType,0
;   supportGridSpacing,1
;   maxOverhangAngle,50
;   supportAngles,0
;   temperatureName,Primary Extruder,Heated Bed
;   temperatureNumber,0,0
;   temperatureSetpointCount,1,1
;   temperatureSetpointLayers,1,1
;   temperatureSetpointTemperatures,200,50
;   temperatureStabilizeAtStartup,1,1
;   temperatureHeatedBed,0,1
;   temperatureRelayBetweenLayers,0,0
;   temperatureRelayBetweenLoops,0,0
;   fanLayers,1,2
;   fanSpeeds,70,60
;   blipFanToFullPower,0
;   adjustSpeedForCooling,1
;   minSpeedLayerTime,15
;   minCoolingSpeedSlowdown,20
;   increaseFanForCooling,0
;   minFanLayerTime,45
;   maxCoolingFanSpeed,100
;   increaseFanForBridging,0
;   bridgingFanSpeed,100
;   use5D,1
;   relativeEdistances,0
;   allowEaxisZeroing,1
;   independentExtruderAxes,0
;   includeM10123,0
;   stickySupport,1
;   applyToolheadOffsets,0
;   gcodeXoffset,0
;   gcodeYoffset,0
;   gcodeZoffset,0
;   overrideMachineDefinition,1
;   machineTypeOverride,0
;   strokeXoverride,300
;   strokeYoverride,300
;   strokeZoverride,400
;   originOffsetXoverride,0
;   originOffsetYoverride,0
;   originOffsetZoverride,0
;   homeXdirOverride,-1
;   homeYdirOverride,-1
;   homeZdirOverride,-1
;   flipXoverride,1
;   flipYoverride,-1
;   flipZoverride,1
;   toolheadOffsets,0,0|0,0|0,0|0,0|0,0|0,0
;   overrideFirmwareConfiguration,1
;   firmwareTypeOverride,RepRap (Marlin/Repetier/Sprinter)
;   GPXconfigOverride,r2
;   baudRateOverride,115200
;   overridePrinterModels,0
;   printerModelsOverride
;   startingGcode,M104 S[extruder0_temperature] T0,M190 S[bed0_temperature] T0,M109 S[extruder0_temperature] T0,G28 ; home all axes,G1 Z5 F3000 ; lift,G1 X2 Y20 F1500 ; avoid binder clips,G1 Z0.2 F3000 ; get ready to prime,G92 E0 ; reset extrusion distance,G1 X120 E10 F600 ; prime nozzle,G1 X250 F5000 ; quick wipe
;   layerChangeGcode,
;   retractionGcode,
;   toolChangeGcode,
;   endingGcode,G28 X0 ; home x axis,M106 S0 ; turn off cooling fan,M104 S0 ; turn off extruder,M140 S0 ; turn off bed,G28 X0 ; home x axis,G1 Y200  ; move to park position,M84 ; disable motors
;   exportFileFormat,gcode
;   celebration,0
;   celebrationSong,Funky Town
;   postProcessing,
;   defaultSpeed,4000
;   outlineUnderspeed,0.7
;   solidInfillUnderspeed,0.8
;   supportUnderspeed,0.8
;   rapidXYspeed,4800
;   rapidZspeed,1002
;   minBridgingArea,5
;   bridgingExtraInflation,0
;   bridgingExtrusionMultiplier,1
;   bridgingSpeedMultiplier,0.75
;   useFixedBridgingAngle,0
;   fixedBridgingAngle,0
;   applyBridgingToPerimeters,0
;   filamentDiameters,1.75|1.75|1.75|1.75|1.75|1.75
;   filamentPricesPerKg,30|46|46|46|46|46
;   filamentDensities,1.25|1.25|1.25|1.25|1.25|1.25
;   useMinPrintHeight,0
;   minPrintHeight,0
;   useMaxPrintHeight,0
;   maxPrintHeight,0.4
;   useDiaphragm,1
;   diaphragmLayerInterval,25
;   robustSlicing,1
;   mergeAllIntoSolid,0
;   onlyRetractWhenCrossingOutline,1
;   retractBetweenLayers,1
;   useRetractionMinTravel,0
;   retractionMinTravel,3
;   retractWhileWiping,0
;   onlyWipeOutlines,1
;   avoidCrossingOutline,0
;   maxMovementDetourFactor,3
;   toolChangeRetractionDistance,12
;   toolChangeExtraRestartDistance,-0.5
;   toolChangeRetractionSpeed,600
;   externalThinWallType,0
;   internalThinWallType,2
;   thinWallAllowedOverlapPercentage,25
;   singleExtrusionMinLength,1
;   singleExtrusionMinPrintingWidthPercentage,50
;   singleExtrusionMaxPrintingWidthPercentage,200
;   singleExtrusionEndpointExtension,0.2
;   horizontalSizeCompensation,0
G90
M82
M106 S178
M104 S200 T0
M190 S50 T0
M109 S200 T0
G28 ; home all axes
G1 Z5 F3000 ; lift
G1 X2 Y20 F1500 ; avoid binder clips
G1 Z0.2 F3000 ; get ready to prime
G92 E0 ; reset extrusion distance
G1 X120 E10 F600 ; prime nozzle
G1 X250 F5000 ; quick wipe
G92 E0
G1 E-4.5000 F1800
G1 Z0.500 F1002
; process Basis
; layer 1, Z = 0.100
T0
; tool H0.100 W0.380
; skirt
G1 X103.195 Y128.567 F4800
G1 Z0.100 F1002
G1 E0.0000 F540
G92 E0
G1 X103.405 Y128.480 E0.0033 F2000
G1 X197.029 Y128.480 E1.3493
G1 X197.239 Y128.567 E1.3525
G1 X199.742 Y131.070 E1.4034
G1 X199.829 Y131.280 E1.4067
G1 X199.829 Y168.720 E1.9450
G1 X199.742 Y168.930 E1.9482
G1 X197.239 Y171.433 E1.9991
G1 X197.029 Y171.520 E2.0024
G1 X103.405 Y171.520 E3.3484
G1 X103.195 Y171.433 E3.3517
G1 X100.692 Y168.930 E3.4026
G1 X100.605 Y168.720 E3.4058
G1 X100.605 Y131.280 E3.9441
G1 X100.692 Y131.070 E3.9473
G1 X103.195 Y128.567 E3.9982
G1 X103.411 Y128.889 F4800
G92 E0
G1 X103.480 Y128.860 E0.0011 F2000
G1 X196.954 Y128.860 E1.3449
G1 X197.024 Y128.889 E1.3460
G1 X199.420 Y131.286 E1.3947
G1 X199.449 Y131.355 E1.3958
G1 X199.449 Y168.645 E1.9319
G1 X199.420 Y168.714 E1.9330
G1 X197.024 Y171.111 E1.9817
G1 X196.954 Y171.140 E1.9828
G1 X103.480 Y171.140 E3.3267
G1 X103.411 Y171.111 E3.3277
G1 X101.014 Y168.714 E3.3765
G1 X100.985 Y168.645 E3.3776
G1 X100.985 Y131.355 E3.9137
G1 X101.014 Y131.286 E3.9147
G1 X103.411 Y128.889 E3.9635
G92 E0
G1 E-4.5000 F1800
G1 Z0.500 F1002
; inner perimeter
G1 X105.745 Y133.620 F4800
G1 Z0.100 F1002
G1 E0.0000 F1800
G92 E0
G1 X194.689 Y133.620 E1.2787 F1700
G1 X194.689 Y166.380 E1.7497
G1 X105.745 Y166.380 E3.0284
G1 X105.745 Y133.620 E3.4994
; outer perimeter
G1 X105.365 Y133.240 F4800
G92 E0
G1 X195.069 Y133.240 E1.2896 F1400
G1 X195.069 Y166.760 E1.7716
G1 X105.365 Y166.760 E3.0612
G1 X105.365 Y133.240 E3.5431
; solid layer
G1 X106.049 Y134.040 F4800
G92 E0
G1 X194.385 Y134.040 E1.2700 F1600
G1 X194.385 Y134.420 E1.2754
G1 X106.049 Y134.420 E2.5454
G1 X106.049 Y134.800 E2.5509
G1 X194.385 Y134.800 E3.8209
G1 X194.385 Y135.180 E3.8263
G1 X106.049 Y135.180 E5.0963
G1 X106.049 Y135.560 E5.1018
G1 X194.385 Y135.560 E6.3718
G1 X194.385 Y135.940 E6.3772
G1 X106.049 Y135.940 E7.6472
G1 X106.049 Y136.320 E7.6527
G1 X194.385 Y136.320 E8.9226
G1 X194.385 Y136.700 E8.9281
G1 X106.049 Y136.700 E10.1981
G1 X106.049 Y137.080 E10.2035
G1 X194.385 Y137.080 E11.4735
G1 X194.385 Y137.460 E11.4790
G1 X106.049 Y137.460 E12.7490
G1 X106.049 Y137.840 E12.7544
G1 X194.385 Y137.840 E14.0244
G1 X194.385 Y138.220 E14.0299
G1 X106.049 Y138.220 E15.2999
G1 X106.049 Y138.600 E15.3053
G1 X194.385 Y138.600 E16.5753
G1 X194.385 Y138.980 E16.5808
G1 X106.049 Y138.980 E17.8507
G1 X106.049 Y139.360 E17.8562
G1 X194.385 Y139.360 E19.1262
G1 X194.385 Y139.740 E19.1316
G1 X106.049 Y139.740 E20.4016
G1 X106.049 Y140.120 E20.4071
G1 X194.385 Y140.120 E21.6771
G1 X194.385 Y140.500 E21.6825
G1 X106.049 Y140.500 E22.9525
G1 X106.049 Y140.880 E22.9580
G1 X194.385 Y140.880 E24.2280
G1 X194.385 Y141.260 E24.2334
G1 X106.049 Y141.260 E25.5034
G1 X106.049 Y141.640 E25.5089
G1 X194.385 Y141.640 E26.7788
G1 X194.385 Y142.020 E26.7843
G1 X106.049 Y142.020 E28.0543
G1 X106.049 Y142.400 E28.0597
G1 X194.385 Y142.400 E29.3297
G1 X194.385 Y142.780 E29.3352
G1 X106.049 Y142.780 E30.6052
G1 X106.049 Y143.160 E30.6106
G1 X194.385 Y143.160 E31.8806
G1 X194.385 Y143.540 E31.8861
G1 X106.049 Y143.540 E33.1561
G1 X106.049 Y143.920 E33.1615
G1 X194.385 Y143.920 E34.4315
G1 X194.385 Y144.300 E34.4370
G1 X106.049 Y144.300 E35.7069
G1 X106.049 Y144.680 E35.7124
G1 X194.385 Y144.680 E36.9824
G1 X194.385 Y145.060 E36.9878
G1 X106.049 Y145.060 E38.2578
G1 X106.049 Y145.440 E38.2633
G1 X194.385 Y145.440 E39.5333
G1 X194.385 Y145.820 E39.5387
G1 X106.049 Y145.820 E40.8087
G1 X106.049 Y146.200 E40.8142
G1 X194.385 Y146.200 E42.0842
G1 X194.385 Y146.580 E42.0896
G1 X106.049 Y146.580 E43.3596
G1 X106.049 Y146.960 E43.3651
G1 X194.385 Y146.960 E44.6350
G1 X194.385 Y147.340 E44.6405
G1 X106.049 Y147.340 E45.9105
G1 X106.049 Y147.720 E45.9159
G1 X194.385 Y147.720 E47.1859
G1 X194.385 Y148.100 E47.1914
G1 X106.049 Y148.100 E48.4614
G1 X106.049 Y148.480 E48.4668
G1 X194.385 Y148.480 E49.7368
G1 X194.385 Y148.860 E49.7423
G1 X106.049 Y148.860 E51.0123
G1 X106.049 Y149.240 E51.0177
G1 X194.385 Y149.240 E52.2877
G1 X194.385 Y149.620 E52.2932
G1 X106.049 Y149.620 E53.5631
G1 X106.049 Y150.000 E53.5686
G1 X194.385 Y150.000 E54.8386
G1 X194.385 Y150.380 E54.8440
G1 X106.049 Y150.380 E56.1140
G1 X106.049 Y150.760 E56.1195
G1 X194.385 Y150.760 E57.3895
G1 X194.385 Y151.140 E57.3949
G1 X106.049 Y151.140 E58.6649
G1 X106.049 Y151.520 E58.6704
G1 X194.385 Y151.520 E59.9404
G1 X194.385 Y151.900 E59.9458
G1 X106.049 Y151.900 E61.2158
G1 X106.049 Y152.280 E61.2213
G1 X194.385 Y152.280 E62.4912
G1 X194.385 Y152.660 E62.4967
G1 X106.049 Y152.660 E63.7667
G1 X106.049 Y153.040 E63.7721
G1 X194.385 Y153.040 E65.0421
G1 X194.385 Y153.420 E65.0476
G1 X106.049 Y153.420 E66.3176
G1 X106.049 Y153.800 E66.3230
G1 X194.385 Y153.800 E67.5930
G1 X194.385 Y154.180 E67.5985
G1 X106.049 Y154.180 E68.8685
G1 X106.049 Y154.560 E68.8739
G1 X194.385 Y154.560 E70.1439
G1 X194.385 Y154.940 E70.1494
G1 X106.049 Y154.940 E71.4193
G1 X106.049 Y155.320 E71.4248
G1 X194.385 Y155.320 E72.6948
G1 X194.385 Y155.700 E72.7002
G1 X106.049 Y155.700 E73.9702
G1 X106.049 Y156.080 E73.9757
G1 X194.385 Y156.080 E75.2457
G1 X194.385 Y156.460 E75.2511
G1 X106.049 Y156.460 E76.5211
G1 X106.049 Y156.840 E76.5266
G1 X194.385 Y156.840 E77.7966
G1 X194.385 Y157.220 E77.8020
G1 X106.049 Y157.220 E79.0720
G1 X106.049 Y157.600 E79.0775
G1 X194.385 Y157.600 E80.3474
G1 X194.385 Y157.980 E80.3529
G1 X106.049 Y157.980 E81.6229
G1 X106.049 Y158.360 E81.6283
G1 X194.385 Y158.360 E82.8983
G1 X194.385 Y158.740 E82.9038
G1 X106.049 Y158.740 E84.1738
G1 X106.049 Y159.120 E84.1792
G1 X194.385 Y159.120 E85.4492
G1 X194.385 Y159.500 E85.4547
G1 X106.049 Y159.500 E86.7247
G1 X106.049 Y159.880 E86.7301
G1 X194.385 Y159.880 E88.0001
G1 X194.385 Y160.260 E88.0056
G1 X106.049 Y160.260 E89.2755
G1 X106.049 Y160.640 E89.2810
G1 X194.385 Y160.640 E90.5510
G1 X194.385 Y161.020 E90.5564
G1 X106.049 Y161.020 E91.8264
G1 X106.049 Y161.400 E91.8319
G1 X194.385 Y161.400 E93.1019
G1 X194.385 Y161.780 E93.1073
G1 X106.049 Y161.780 E94.3773
G1 X106.049 Y162.160 E94.3828
G1 X194.385 Y162.160 E95.6528
G1 X194.385 Y162.540 E95.6582
G1 X106.049 Y162.540 E96.9282
G1 X106.049 Y162.920 E96.9337
G1 X194.385 Y162.920 E98.2036
G1 X194.385 Y163.300 E98.2091
G1 X106.049 Y163.300 E99.4791
G1 X106.049 Y163.680 E99.4845
G1 X194.385 Y163.680 E100.7545
G1 X194.385 Y164.060 E100.7600
G1 X106.049 Y164.060 E102.0300
G1 X106.049 Y164.440 E102.0354
G1 X194.385 Y164.440 E103.3054
G1 X194.385 Y164.820 E103.3109
G1 X106.049 Y164.820 E104.5809
G1 X106.049 Y165.200 E104.5863
G1 X194.385 Y165.200 E105.8563
G1 X194.385 Y165.580 E105.8618
G1 X106.049 Y165.580 E107.1317
G1 X106.049 Y165.960 E107.1372
G1 X194.385 Y165.960 E108.4072
G92 E0
G1 E-4.5000 F1800
G1 Z0.600 F1002
; layer 2, Z = 0.200
M106 S153
; inner perimeter
G1 X194.832 Y166.480 F4800
G1 Z0.200 F1002
G1 E0.0000 F1800
G92 E0
G1 X105.602 Y166.480 E1.2828 F3400
G1 X105.602 Y133.520 E1.7567
G1 X194.832 Y133.520 E3.0395
G1 X194.832 Y166.480 E3.5134
; outer perimeter
G1 X195.212 Y166.860 F4800
G92 E0
G1 X105.222 Y166.860 E1.2938 F2800
G1 X105.222 Y133.140 E1.7785
G1 X195.212 Y133.140 E3.0723
G1 X195.212 Y166.860 E3.5571
; solid layer
G1 X194.460 Y133.824 F4800
G92 E0
G1 X194.460 Y166.176 E0.4651 F3200
G1 X194.080 Y166.176 E0.4706
G1 X194.080 Y133.824 E0.9357
G1 X193.700 Y133.824 E0.9412
G1 X193.700 Y166.176 E1.4063
G1 X193.320 Y166.176 E1.4117
G1 X193.320 Y133.824 E1.8768
G1 X192.940 Y133.824 E1.8823
G1 X192.940 Y166.176 E2.3474
G1 X192.560 Y166.176 E2.3529
G1 X192.560 Y133.824 E2.8180
G1 X192.180 Y133.824 E2.8235
G1 X192.180 Y166.176 E3.2886
G1 X191.800 Y166.176 E3.2940
G1 X191.800 Y133.824 E3.7592
G1 X191.420 Y133.824 E3.7646
G1 X191.420 Y166.176 E4.2297
G1 X191.040 Y166.176 E4.2352
G1 X191.040 Y133.824 E4.7003
G1 X190.660 Y133.824 E4.7058
G1 X190.660 Y166.176 E5.1709
G1 X190.280 Y166.176 E5.1764
G1 X190.280 Y133.824 E5.6415
G1 X189.900 Y133.824 E5.6469
G1 X189.900 Y166.176 E6.1120
G1 X189.520 Y166.176 E6.1175
G1 X189.520 Y133.824 E6.5826
G1 X189.140 Y133.824 E6.5881
G1 X189.140 Y166.176 E7.0532
G1 X188.760 Y166.176 E7.0587
G1 X188.760 Y133.824 E7.5238
G1 X188.380 Y133.824 E7.5292
G1 X188.380 Y166.176 E7.9944
G1 X188.000 Y166.176 E7.9998
G1 X188.000 Y133.824 E8.4649
G1 X187.620 Y133.824 E8.4704
G1 X187.620 Y166.176 E8.9355
G1 X187.240 Y166.176 E8.9410
G1 X187.240 Y133.824 E9.4061
G1 X186.860 Y133.824 E9.4116
G1 X186.860 Y166.176 E9.8767
G1 X186.480 Y166.176 E9.8821
G1 X186.480 Y133.824 E10.3473
G1 X186.100 Y133.824 E10.3527
G1 X186.100 Y166.176 E10.8178
G1 X185.720 Y166.176 E10.8233
G1 X185.720 Y133.824 E11.2884
G1 X185.340 Y133.824 E11.2939
G1 X185.340 Y166.176 E11.7590
G1 X184.960 Y166.176 E11.7644
G1 X184.960 Y133.824 E12.2296
G1 X184.580 Y133.824 E12.2350
G1 X184.580 Y166.176 E12.7001
G1 X184.200 Y166.176 E12.7056
G1 X184.200 Y133.824 E13.1707
G1 X183.820 Y133.824 E13.1762
G1 X183.820 Y166.176 E13.6413
G1 X183.440 Y166.176 E13.6468
G1 X183.440 Y133.824 E14.1119
G1 X183.060 Y133.824 E14.1173
G1 X183.060 Y166.176 E14.5825
G1 X182.680 Y166.176 E14.5879
G1 X182.680 Y133.824 E15.0530
G1 X182.300 Y133.824 E15.0585
G1 X182.300 Y166.176 E15.5236
G1 X181.920 Y166.176 E15.5291
G1 X181.920 Y133.824 E15.9942
G1 X181.540 Y133.824 E15.9996
G1 X181.540 Y166.176 E16.4648
G1 X181.160 Y166.176 E16.4702
G1 X181.160 Y133.824 E16.9353
G1 X180.780 Y133.824 E16.9408
G1 X180.780 Y166.176 E17.4059
G1 X180.400 Y166.176 E17.4114
G1 X180.400 Y133.824 E17.8765
G1 X180.020 Y133.824 E17.8820
G1 X180.020 Y166.176 E18.3471
G1 X179.640 Y166.176 E18.3525
G1 X179.640 Y133.824 E18.8177
G1 X179.260 Y133.824 E18.8231
G1 X179.260 Y166.176 E19.2882
G1 X178.880 Y166.176 E19.2937
G1 X178.880 Y133.824 E19.7588
G1 X178.500 Y133.824 E19.7643
G1 X178.500 Y166.176 E20.2294
G1 X178.120 Y166.176 E20.2349
G1 X178.120 Y133.824 E20.7000
G1 X177.740 Y133.824 E20.7054
G1 X177.740 Y166.176 E21.1705
G1 X177.360 Y166.176 E21.1760
G1 X177.360 Y133.824 E21.6411
