; G-Code generated by Simplify3D(R) Version 4.0.0
; Jul 9, 2019 at 4:52:43 PM
; Settings Summary
;   processName,Basis
;   applyToModels,SRCtrl_V5 AP_3a
;   profileName,SRCtrl_V5 AP (modified)
;   profileVersion,2019-06-21 11:44:07
;   baseProfile,Tierkoepfe
;   printMaterial,
;   printQuality,
;   printExtruders,
;   extruderName,Primary Extruder
;   extruderToolheadNumber,0
;   extruderDiameter,0.4
;   extruderAutoWidth,0
;   extruderWidth,0.38
;   extrusionMultiplier,0.91
;   extruderUseRetract,1
;   extruderRetractionDistance,6
;   extruderExtraRestartDistance,0
;   extruderRetractionZLift,1.6
;   extruderRetractionSpeed,1800
;   extruderUseCoasting,0
;   extruderCoastingDistance,0.2
;   extruderUseWipe,0
;   extruderWipeDistance,5
;   primaryExtruder,0
;   layerHeight,0.1
;   topSolidLayers,4
;   bottomSolidLayers,4
;   perimeterOutlines,2
;   printPerimetersInsideOut,1
;   startPointOption,2
;   startPointOriginX,0
;   startPointOriginY,0
;   sequentialIslands,0
;   spiralVaseMode,0
;   firstLayerHeightPercentage,100
;   firstLayerWidthPercentage,100
;   firstLayerUnderspeed,0.5
;   useRaft,0
;   raftExtruder,0
;   raftTopLayers,3
;   raftBaseLayers,2
;   raftOffset,3
;   raftSeparationDistance,0.16
;   raftTopInfill,100
;   aboveRaftSpeedMultiplier,0.3
;   useSkirt,1
;   skirtExtruder,0
;   skirtLayers,1
;   skirtOutlines,2
;   skirtOffset,4
;   usePrimePillar,0
;   primePillarExtruder,999
;   primePillarWidth,12
;   primePillarLocation,7
;   primePillarSpeedMultiplier,1
;   useOozeShield,0
;   oozeShieldExtruder,999
;   oozeShieldOffset,2
;   oozeShieldOutlines,1
;   oozeShieldSidewallShape,1
;   oozeShieldSidewallAngle,30
;   oozeShieldSpeedMultiplier,1
;   infillExtruder,0
;   internalInfillPattern,Rectilinear
;   externalInfillPattern,Rectilinear
;   infillPercentage,50
;   outlineOverlapPercentage,20
;   infillExtrusionWidthPercentage,95
;   minInfillLength,0.6
;   infillLayerInterval,1
;   internalInfillAngles,0,90
;   overlapInternalInfillAngles,0
;   externalInfillAngles,0,90
;   generateSupport,1
;   supportExtruder,0
;   supportInfillPercentage,20
;   supportExtraInflation,0
;   supportBaseLayers,0
;   denseSupportExtruder,0
;   denseSupportLayers,0
;   denseSupportInfillPercentage,50
;   supportLayerInterval,1
;   supportHorizontalPartOffset,0.3
;   supportUpperSeparationLayers,1
;   supportLowerSeparationLayers,1
;   supportType,0
;   supportGridSpacing,1
;   maxOverhangAngle,50
;   supportAngles,0
;   temperatureName,Primary Extruder,Heated Bed
;   temperatureNumber,0,0
;   temperatureSetpointCount,1,1
;   temperatureSetpointLayers,1,1
;   temperatureSetpointTemperatures,195,50
;   temperatureStabilizeAtStartup,1,1
;   temperatureHeatedBed,0,1
;   temperatureRelayBetweenLayers,0,0
;   temperatureRelayBetweenLoops,0,0
;   fanLayers,1,2
;   fanSpeeds,70,60
;   blipFanToFullPower,0
;   adjustSpeedForCooling,1
;   minSpeedLayerTime,15
;   minCoolingSpeedSlowdown,20
;   increaseFanForCooling,0
;   minFanLayerTime,45
;   maxCoolingFanSpeed,100
;   increaseFanForBridging,0
;   bridgingFanSpeed,100
;   use5D,1
;   relativeEdistances,0
;   allowEaxisZeroing,1
;   independentExtruderAxes,0
;   includeM10123,0
;   stickySupport,1
;   applyToolheadOffsets,0
;   gcodeXoffset,0
;   gcodeYoffset,0
;   gcodeZoffset,0
;   overrideMachineDefinition,1
;   machineTypeOverride,0
;   strokeXoverride,300
;   strokeYoverride,300
;   strokeZoverride,400
;   originOffsetXoverride,0
;   originOffsetYoverride,0
;   originOffsetZoverride,0
;   homeXdirOverride,-1
;   homeYdirOverride,-1
;   homeZdirOverride,-1
;   flipXoverride,1
;   flipYoverride,-1
;   flipZoverride,1
;   toolheadOffsets,0,0|0,0|0,0|0,0|0,0|0,0
;   overrideFirmwareConfiguration,1
;   firmwareTypeOverride,RepRap (Marlin/Repetier/Sprinter)
;   GPXconfigOverride,r2
;   baudRateOverride,115200
;   overridePrinterModels,0
;   printerModelsOverride
;   startingGcode,M104 S[extruder0_temperature] T0,M190 S[bed0_temperature] T0,M109 S[extruder0_temperature] T0,G28 ; home all axes,G1 Z5 F3000 ; lift,G1 X2 Y20 F1500 ; avoid binder clips,G1 Z0.2 F3000 ; get ready to prime,G92 E0 ; reset extrusion distance,G1 X120 E10 F600 ; prime nozzle,G1 X250 F5000 ; quick wipe
;   layerChangeGcode,
;   retractionGcode,
;   toolChangeGcode,
;   endingGcode,G28 X0 ; home x axis,M106 S0 ; turn off cooling fan,M104 S0 ; turn off extruder,M140 S0 ; turn off bed,G28 X0 ; home x axis,G1 Y200  ; move to park position,M84 ; disable motors
;   exportFileFormat,gcode
;   celebration,0
;   celebrationSong,Funky Town
;   postProcessing,
;   defaultSpeed,4000
;   outlineUnderspeed,0.7
;   solidInfillUnderspeed,0.8
;   supportUnderspeed,0.8
;   rapidXYspeed,4800
;   rapidZspeed,1002
;   minBridgingArea,5
;   bridgingExtraInflation,0
;   bridgingExtrusionMultiplier,1
;   bridgingSpeedMultiplier,0.75
;   useFixedBridgingAngle,0
;   fixedBridgingAngle,0
;   applyBridgingToPerimeters,0
;   filamentDiameters,1.75|1.75|1.75|1.75|1.75|1.75
;   filamentPricesPerKg,30|46|46|46|46|46
;   filamentDensities,1.25|1.25|1.25|1.25|1.25|1.25
;   useMinPrintHeight,0
;   minPrintHeight,0
;   useMaxPrintHeight,0
;   maxPrintHeight,0.4
;   useDiaphragm,1
;   diaphragmLayerInterval,25
;   robustSlicing,1
;   mergeAllIntoSolid,0
;   onlyRetractWhenCrossingOutline,1
;   retractBetweenLayers,1
;   useRetractionMinTravel,0
;   retractionMinTravel,3
;   retractWhileWiping,0
;   onlyWipeOutlines,1
;   avoidCrossingOutline,0
;   maxMovementDetourFactor,3
;   toolChangeRetractionDistance,12
;   toolChangeExtraRestartDistance,-0.5
;   toolChangeRetractionSpeed,600
;   externalThinWallType,0
;   internalThinWallType,2
;   thinWallAllowedOverlapPercentage,25
;   singleExtrusionMinLength,1
;   singleExtrusionMinPrintingWidthPercentage,50
;   singleExtrusionMaxPrintingWidthPercentage,200
;   singleExtrusionEndpointExtension,0.2
;   horizontalSizeCompensation,0
G90
M82
M106 S178
M104 S195 T0
M190 S50 T0
M109 S195 T0
G28 ; home all axes
G1 Z5 F3000 ; lift
G1 X2 Y20 F1500 ; avoid binder clips
G1 Z0.2 F3000 ; get ready to prime
G92 E0 ; reset extrusion distance
G1 X120 E10 F600 ; prime nozzle
G1 X250 F5000 ; quick wipe
G92 E0
G1 E-6.0000 F1800
G1 Z1.700 F1002
; process Basis
; layer 1, Z = 0.100
T0
; tool H0.100 W0.380
; skirt
G1 X101.300 Y127.797 F4800
G1 Z0.100 F1002
G1 E0.0000 F540
G92 E0
G1 X101.510 Y127.710 E0.0033 F2000
G1 X106.490 Y127.710 E0.0749
G1 X106.700 Y127.797 E0.0781
G1 X107.383 Y128.480 E0.0920
G1 X192.617 Y128.480 E1.3174
G1 X193.300 Y127.797 E1.3313
G1 X193.510 Y127.710 E1.3345
G1 X198.490 Y127.710 E1.4062
G1 X198.700 Y127.797 E1.4094
G1 X201.203 Y130.300 E1.4603
G1 X201.290 Y130.510 E1.4636
G1 X201.290 Y169.490 E2.0240
G1 X201.203 Y169.700 E2.0272
G1 X198.700 Y172.203 E2.0781
G1 X198.490 Y172.290 E2.0814
G1 X193.510 Y172.290 E2.1530
G1 X193.300 Y172.203 E2.1563
G1 X192.617 Y171.520 E2.1702
G1 X107.383 Y171.520 E3.3955
G1 X106.700 Y172.203 E3.4094
G1 X106.490 Y172.290 E3.4127
G1 X101.510 Y172.290 E3.4843
G1 X101.300 Y172.203 E3.4876
G1 X98.797 Y169.700 E3.5385
G1 X98.710 Y169.490 E3.5417
G1 X98.710 Y166.620 E3.5830
G1 X93.425 Y166.620 E3.6590
G1 X93.292 Y166.588 E3.6609
G1 X91.440 Y165.629 E3.6909
G1 X91.337 Y165.539 E3.6929
G1 X90.302 Y164.075 E3.7187
G1 X90.263 Y163.996 E3.7199
G1 X89.861 Y162.730 E3.7390
G1 X89.847 Y162.643 E3.7403
G1 X89.847 Y142.356 E4.0319
G1 X89.861 Y142.270 E4.0332
G1 X90.263 Y141.004 E4.0523
G1 X90.302 Y140.925 E4.0536
G1 X91.337 Y139.461 E4.0793
G1 X91.440 Y139.371 E4.0813
G1 X93.292 Y138.412 E4.1113
G1 X93.425 Y138.380 E4.1133
G1 X98.710 Y138.380 E4.1892
G1 X98.710 Y130.510 E4.3024
G1 X98.797 Y130.300 E4.3056
G1 X101.300 Y127.797 E4.3565
G1 X101.516 Y128.119 F4800
G92 E0
G1 X101.585 Y128.090 E0.0011 F2000
G1 X106.415 Y128.090 E0.0705
G1 X106.484 Y128.119 E0.0716
G1 X107.226 Y128.860 E0.0867
G1 X192.774 Y128.860 E1.3166
G1 X193.516 Y128.119 E1.3316
G1 X193.585 Y128.090 E1.3327
G1 X198.415 Y128.090 E1.4022
G1 X198.484 Y128.119 E1.4033
G1 X200.881 Y130.516 E1.4520
G1 X200.910 Y130.585 E1.4531
G1 X200.910 Y169.415 E2.0113
G1 X200.881 Y169.484 E2.0124
G1 X198.484 Y171.881 E2.0611
G1 X198.415 Y171.910 E2.0622
G1 X193.585 Y171.910 E2.1316
G1 X193.516 Y171.881 E2.1327
G1 X192.774 Y171.140 E2.1478
G1 X107.226 Y171.140 E3.3777
G1 X106.484 Y171.881 E3.3928
G1 X106.415 Y171.910 E3.3938
G1 X101.585 Y171.910 E3.4633
G1 X101.516 Y171.881 E3.4644
G1 X99.119 Y169.484 E3.5131
G1 X99.090 Y169.415 E3.5142
G1 X99.090 Y166.240 E3.5598
G1 X93.470 Y166.240 E3.6406
G1 X93.426 Y166.229 E3.6413
G1 X91.655 Y165.313 E3.6699
G1 X91.621 Y165.283 E3.6706
G1 X90.629 Y163.879 E3.6953
G1 X90.616 Y163.853 E3.6957
G1 X90.232 Y162.643 E3.7140
G1 X90.227 Y162.614 E3.7144
G1 X90.227 Y142.386 E4.0052
G1 X90.232 Y142.357 E4.0056
G1 X90.616 Y141.147 E4.0239
G1 X90.629 Y141.120 E4.0243
G1 X91.621 Y139.717 E4.0490
G1 X91.656 Y139.687 E4.0497
G1 X93.426 Y138.771 E4.0783
G1 X93.470 Y138.760 E4.0790
G1 X99.090 Y138.760 E4.1598
G1 X99.090 Y130.585 E4.2773
G1 X99.119 Y130.516 E4.2784
G1 X101.516 Y128.119 E4.3271
G92 E0
G1 E-6.0000 F1800
G1 Z1.700 F1002
; inner perimeter
G1 X105.745 Y133.620 F4800
G1 Z0.100 F1002
G1 E0.0000 F1800
G92 E0
G1 X194.689 Y133.620 E1.2787 F1700
G1 X194.689 Y166.380 E1.7497
G1 X105.745 Y166.380 E3.0284
G1 X105.745 Y161.480 E3.0989
G1 X94.987 Y161.480 E3.2535
G1 X94.987 Y143.520 E3.5117
G1 X105.745 Y143.520 E3.6664
G1 X105.745 Y133.620 E3.8087
; outer perimeter
G1 X105.365 Y133.240 F4800
G92 E0
G1 X195.069 Y133.240 E1.2896 F1400
G1 X195.069 Y166.760 E1.7716
G1 X105.365 Y166.760 E3.0612
G1 X105.365 Y161.860 E3.1316
G1 X94.607 Y161.860 E3.2863
G1 X94.607 Y143.140 E3.5554
G1 X105.365 Y143.140 E3.7101
G1 X105.365 Y133.240 E3.8524
; solid layer
G1 X106.049 Y134.040 F4800
G92 E0
G1 X194.385 Y134.040 E1.2700 F1600
G1 X194.385 Y134.420 E1.2754
G1 X106.049 Y134.420 E2.5454
G1 X106.049 Y134.800 E2.5509
G1 X194.385 Y134.800 E3.8209
G1 X194.385 Y135.180 E3.8263
G1 X106.049 Y135.180 E5.0963
G1 X106.049 Y135.560 E5.1018
G1 X194.385 Y135.560 E6.3718
G1 X194.385 Y135.940 E6.3772
G1 X106.049 Y135.940 E7.6472
G1 X106.049 Y136.320 E7.6527
G1 X194.385 Y136.320 E8.9226
G1 X194.385 Y136.700 E8.9281
G1 X106.049 Y136.700 E10.1981
G1 X106.049 Y137.080 E10.2035
G1 X194.385 Y137.080 E11.4735
G1 X194.385 Y137.460 E11.4790
G1 X106.049 Y137.460 E12.7490
G1 X106.049 Y137.840 E12.7544
G1 X194.385 Y137.840 E14.0244
G1 X194.385 Y138.220 E14.0299
G1 X106.049 Y138.220 E15.2999
G1 X106.049 Y138.600 E15.3053
G1 X194.385 Y138.600 E16.5753
G1 X194.385 Y138.980 E16.5808
G1 X106.049 Y138.980 E17.8507
G1 X106.049 Y139.360 E17.8562
G1 X194.385 Y139.360 E19.1262
G1 X194.385 Y139.740 E19.1316
G1 X106.049 Y139.740 E20.4016
G1 X106.049 Y140.120 E20.4071
G1 X194.385 Y140.120 E21.6771
G1 X194.385 Y140.500 E21.6825
G1 X106.049 Y140.500 E22.9525
G1 X106.049 Y140.880 E22.9580
G1 X194.385 Y140.880 E24.2280
G1 X194.385 Y141.260 E24.2334
G1 X106.049 Y141.260 E25.5034
G1 X106.049 Y141.640 E25.5089
G1 X194.385 Y141.640 E26.7788
G1 X194.385 Y142.020 E26.7843
G1 X106.049 Y142.020 E28.0543
G1 X106.049 Y142.400 E28.0597
G1 X194.385 Y142.400 E29.3297
G1 X194.385 Y142.780 E29.3352
G1 X106.049 Y142.780 E30.6052
G1 X106.049 Y143.160 E30.6106
G1 X194.385 Y143.160 E31.8806
G1 X194.385 Y143.540 E31.8861
G1 X106.049 Y143.540 E33.1561
G1 X106.049 Y143.824 E33.1601
G1 X95.291 Y143.824 E33.3148
G1 X95.291 Y143.920 E33.3162
G1 X194.385 Y143.920 E34.7408
G1 X194.385 Y144.300 E34.7463
G1 X95.291 Y144.300 E36.1709
G1 X95.291 Y144.680 E36.1764
G1 X194.385 Y144.680 E37.6010
G1 X194.385 Y145.060 E37.6065
G1 X95.291 Y145.060 E39.0311
G1 X95.291 Y145.440 E39.0366
G1 X194.385 Y145.440 E40.4613
G1 X194.385 Y145.820 E40.4667
G1 X95.291 Y145.820 E41.8914
G1 X95.291 Y146.200 E41.8968
G1 X194.385 Y146.200 E43.3215
G1 X194.385 Y146.580 E43.3269
G1 X95.291 Y146.580 E44.7516
G1 X95.291 Y146.960 E44.7570
G1 X194.385 Y146.960 E46.1817
G1 X194.385 Y147.340 E46.1871
G1 X95.291 Y147.340 E47.6118
G1 X95.291 Y147.720 E47.6173
G1 X194.385 Y147.720 E49.0419
G1 X194.385 Y148.100 E49.0474
G1 X95.291 Y148.100 E50.4720
G1 X95.291 Y148.480 E50.4775
G1 X194.385 Y148.480 E51.9021
G1 X194.385 Y148.860 E51.9076
G1 X95.291 Y148.860 E53.3322
G1 X95.291 Y149.240 E53.3377
G1 X194.385 Y149.240 E54.7623
G1 X194.385 Y149.620 E54.7678
G1 X95.291 Y149.620 E56.1924
G1 X95.291 Y150.000 E56.1979
G1 X194.385 Y150.000 E57.6225
G1 X194.385 Y150.380 E57.6280
G1 X95.291 Y150.380 E59.0526
G1 X95.291 Y150.760 E59.0581
G1 X194.385 Y150.760 E60.4828
G1 X194.385 Y151.140 E60.4882
G1 X95.291 Y151.140 E61.9129
G1 X95.291 Y151.520 E61.9183
G1 X194.385 Y151.520 E63.3430
G1 X194.385 Y151.900 E63.3484
G1 X95.291 Y151.900 E64.7731
G1 X95.291 Y152.280 E64.7785
G1 X194.385 Y152.280 E66.2032
G1 X194.385 Y152.660 E66.2086
G1 X95.291 Y152.660 E67.6333
G1 X95.291 Y153.040 E67.6388
G1 X194.385 Y153.040 E69.0634
G1 X194.385 Y153.420 E69.0689
G1 X95.291 Y153.420 E70.4935
G1 X95.291 Y153.800 E70.4990
G1 X194.385 Y153.800 E71.9236
G1 X194.385 Y154.180 E71.9291
G1 X95.291 Y154.180 E73.3537
G1 X95.291 Y154.560 E73.3592
G1 X194.385 Y154.560 E74.7838
G1 X194.385 Y154.940 E74.7893
G1 X95.291 Y154.940 E76.2139
G1 X95.291 Y155.320 E76.2194
G1 X194.385 Y155.320 E77.6440
G1 X194.385 Y155.700 E77.6495
G1 X95.291 Y155.700 E79.0742
G1 X95.291 Y156.080 E79.0796
G1 X194.385 Y156.080 E80.5043
G1 X194.385 Y156.460 E80.5097
G1 X95.291 Y156.460 E81.9344
G1 X95.291 Y156.840 E81.9398
G1 X194.385 Y156.840 E83.3645
G1 X194.385 Y157.220 E83.3699
G1 X95.291 Y157.220 E84.7946
G1 X95.291 Y157.600 E84.8000
G1 X194.385 Y157.600 E86.2247
G1 X194.385 Y157.980 E86.2302
G1 X95.291 Y157.980 E87.6548
G1 X95.291 Y158.360 E87.6603
G1 X194.385 Y158.360 E89.0849
G1 X194.385 Y158.740 E89.0904
G1 X95.291 Y158.740 E90.5150
G1 X95.291 Y159.120 E90.5205
G1 X194.385 Y159.120 E91.9451
G1 X194.385 Y159.500 E91.9506
G1 X95.291 Y159.500 E93.3752
G1 X95.291 Y159.880 E93.3807
G1 X194.385 Y159.880 E94.8053
G1 X194.385 Y160.260 E94.8108
G1 X95.291 Y160.260 E96.2354
G1 X95.291 Y160.640 E96.2409
G1 X194.385 Y160.640 E97.6655
G1 X194.385 Y161.020 E97.6710
G1 X95.291 Y161.020 E99.0957
G1 X95.291 Y161.176 E99.0979
G1 X106.049 Y161.176 E99.2526
G1 X106.049 Y161.400 E99.2558
G1 X194.385 Y161.400 E100.5258
G1 X194.385 Y161.780 E100.5312
G1 X106.049 Y161.780 E101.8012
G1 X106.049 Y162.160 E101.8067
G1 X194.385 Y162.160 E103.0766
G1 X194.385 Y162.540 E103.0821
G1 X106.049 Y162.540 E104.3521
G1 X106.049 Y162.920 E104.3576
G1 X194.385 Y162.920 E105.6275
G1 X194.385 Y163.300 E105.6330
G1 X106.049 Y163.300 E106.9030
G1 X106.049 Y163.680 E106.9084
G1 X194.385 Y163.680 E108.1784
G1 X194.385 Y164.060 E108.1839
G1 X106.049 Y164.060 E109.4539
G1 X106.049 Y164.440 E109.4593
G1 X194.385 Y164.440 E110.7293
G1 X194.385 Y164.820 E110.7348
G1 X106.049 Y164.820 E112.0047
G1 X106.049 Y165.200 E112.0102
G1 X194.385 Y165.200 E113.2802
G1 X194.385 Y165.580 E113.2857
G1 X106.049 Y165.580 E114.5556
G1 X106.049 Y165.960 E114.5611
G1 X194.385 Y165.960 E115.8311
G92 E0
G1 E-6.0000 F1800
G1 Z1.700 F1002
; support
G1 X196.530 Y167.100 F4800
G1 Z0.100 F1002
G1 E0.0000 F1800
G92 E0
G1 X195.892 Y167.100 E0.0092 F1600
G1 X195.892 Y165.200 E0.0365
G1 X196.530 Y165.200 E0.0457
G1 X196.530 Y163.300 E0.0730
G1 X195.892 Y163.300 E0.0822
G1 X195.892 Y161.400 E0.1095
G1 X196.530 Y161.400 E0.1186
G1 X196.530 Y159.500 E0.1460
G1 X195.892 Y159.500 E0.1551
G1 X195.892 Y157.600 E0.1825
G1 X196.530 Y157.600 E0.1916
G1 X196.530 Y155.700 E0.2189
G1 X195.892 Y155.700 E0.2281
G1 X195.892 Y153.800 E0.2554
G1 X196.530 Y153.800 E0.2646
G1 X196.530 Y151.900 E0.2919
G1 X195.892 Y151.900 E0.3011
G1 X195.892 Y150.000 E0.3284
G1 X196.530 Y150.000 E0.3376
G1 X196.530 Y148.100 E0.3649
G1 X195.892 Y148.100 E0.3741
G1 X195.892 Y146.200 E0.4014
G1 X196.530 Y146.200 E0.4106
G1 X196.530 Y144.300 E0.4379
G1 X195.892 Y144.300 E0.4471
G1 X195.892 Y142.400 E0.4744
G1 X196.530 Y142.400 E0.4835
G1 X196.530 Y140.500 E0.5109
G1 X195.892 Y140.500 E0.5200
G1 X195.892 Y138.600 E0.5474
G1 X196.530 Y138.600 E0.5565
G1 X196.530 Y136.700 E0.5838
G1 X195.892 Y136.700 E0.5930
G1 X195.892 Y134.800 E0.6203
G1 X196.530 Y134.800 E0.6295
G1 X196.530 Y132.900 E0.6568
