; G-Code generated by Simplify3D(R) Version 4.0.0
; Jun 19, 2019 at 12:55:47 AM
; Settings Summary
;   processName,Basis
;   applyToModels,SRCtrl_V1
;   profileName,SRCtrl
;   profileVersion,2019-06-16 18:21:35
;   baseProfile,Tierkoepfe
;   printMaterial,
;   printQuality,
;   printExtruders,
;   extruderName,Primary Extruder
;   extruderToolheadNumber,0
;   extruderDiameter,0.4
;   extruderAutoWidth,0
;   extruderWidth,0.38
;   extrusionMultiplier,0.91
;   extruderUseRetract,1
;   extruderRetractionDistance,4
;   extruderExtraRestartDistance,0
;   extruderRetractionZLift,0.4
;   extruderRetractionSpeed,1800
;   extruderUseCoasting,0
;   extruderCoastingDistance,0.2
;   extruderUseWipe,0
;   extruderWipeDistance,5
;   primaryExtruder,0
;   layerHeight,0.1
;   topSolidLayers,4
;   bottomSolidLayers,4
;   perimeterOutlines,2
;   printPerimetersInsideOut,1
;   startPointOption,2
;   startPointOriginX,0
;   startPointOriginY,0
;   sequentialIslands,0
;   spiralVaseMode,0
;   firstLayerHeightPercentage,100
;   firstLayerWidthPercentage,100
;   firstLayerUnderspeed,0.5
;   useRaft,0
;   raftExtruder,0
;   raftTopLayers,3
;   raftBaseLayers,2
;   raftOffset,3
;   raftSeparationDistance,0.16
;   raftTopInfill,100
;   aboveRaftSpeedMultiplier,0.3
;   useSkirt,1
;   skirtExtruder,0
;   skirtLayers,1
;   skirtOutlines,2
;   skirtOffset,4
;   usePrimePillar,0
;   primePillarExtruder,999
;   primePillarWidth,12
;   primePillarLocation,7
;   primePillarSpeedMultiplier,1
;   useOozeShield,0
;   oozeShieldExtruder,999
;   oozeShieldOffset,2
;   oozeShieldOutlines,1
;   oozeShieldSidewallShape,1
;   oozeShieldSidewallAngle,30
;   oozeShieldSpeedMultiplier,1
;   infillExtruder,0
;   internalInfillPattern,Rectilinear
;   externalInfillPattern,Rectilinear
;   infillPercentage,50
;   outlineOverlapPercentage,20
;   infillExtrusionWidthPercentage,95
;   minInfillLength,0.6
;   infillLayerInterval,1
;   internalInfillAngles,0,90
;   overlapInternalInfillAngles,0
;   externalInfillAngles,0,90
;   generateSupport,1
;   supportExtruder,0
;   supportInfillPercentage,20
;   supportExtraInflation,0
;   supportBaseLayers,0
;   denseSupportExtruder,0
;   denseSupportLayers,0
;   denseSupportInfillPercentage,50
;   supportLayerInterval,1
;   supportHorizontalPartOffset,0.3
;   supportUpperSeparationLayers,1
;   supportLowerSeparationLayers,1
;   supportType,0
;   supportGridSpacing,1
;   maxOverhangAngle,50
;   supportAngles,0
;   temperatureName,Primary Extruder,Heated Bed
;   temperatureNumber,0,0
;   temperatureSetpointCount,1,1
;   temperatureSetpointLayers,1,1
;   temperatureSetpointTemperatures,200,50
;   temperatureStabilizeAtStartup,1,1
;   temperatureHeatedBed,0,1
;   temperatureRelayBetweenLayers,0,0
;   temperatureRelayBetweenLoops,0,0
;   fanLayers,1,2
;   fanSpeeds,70,60
;   blipFanToFullPower,0
;   adjustSpeedForCooling,1
;   minSpeedLayerTime,15
;   minCoolingSpeedSlowdown,20
;   increaseFanForCooling,0
;   minFanLayerTime,45
;   maxCoolingFanSpeed,100
;   increaseFanForBridging,0
;   bridgingFanSpeed,100
;   use5D,1
;   relativeEdistances,0
;   allowEaxisZeroing,1
;   independentExtruderAxes,0
;   includeM10123,0
;   stickySupport,1
;   applyToolheadOffsets,0
;   gcodeXoffset,0
;   gcodeYoffset,0
;   gcodeZoffset,0
;   overrideMachineDefinition,1
;   machineTypeOverride,0
;   strokeXoverride,300
;   strokeYoverride,300
;   strokeZoverride,400
;   originOffsetXoverride,0
;   originOffsetYoverride,0
;   originOffsetZoverride,0
;   homeXdirOverride,-1
;   homeYdirOverride,-1
;   homeZdirOverride,-1
;   flipXoverride,1
;   flipYoverride,-1
;   flipZoverride,1
;   toolheadOffsets,0,0|0,0|0,0|0,0|0,0|0,0
;   overrideFirmwareConfiguration,1
;   firmwareTypeOverride,RepRap (Marlin/Repetier/Sprinter)
;   GPXconfigOverride,r2
;   baudRateOverride,115200
;   overridePrinterModels,0
;   printerModelsOverride
;   startingGcode,M104 S[extruder0_temperature] T0,M190 S[bed0_temperature] T0,M109 S[extruder0_temperature] T0,G28 ; home all axes,G1 Z5 F3000 ; lift,G1 X2 Y20 F1500 ; avoid binder clips,G1 Z0.2 F3000 ; get ready to prime,G92 E0 ; reset extrusion distance,G1 X120 E10 F600 ; prime nozzle,G1 X250 F5000 ; quick wipe
;   layerChangeGcode,
;   retractionGcode,
;   toolChangeGcode,
;   endingGcode,G28 X0 ; home x axis,M106 S0 ; turn off cooling fan,M104 S0 ; turn off extruder,M140 S0 ; turn off bed,G28 X0 ; home x axis,G1 Y200  ; move to park position,M84 ; disable motors
;   exportFileFormat,gcode
;   celebration,0
;   celebrationSong,Funky Town
;   postProcessing,
;   defaultSpeed,4000
;   outlineUnderspeed,0.7
;   solidInfillUnderspeed,0.8
;   supportUnderspeed,0.8
;   rapidXYspeed,4800
;   rapidZspeed,1002
;   minBridgingArea,5
;   bridgingExtraInflation,0
;   bridgingExtrusionMultiplier,1
;   bridgingSpeedMultiplier,0.75
;   useFixedBridgingAngle,0
;   fixedBridgingAngle,0
;   applyBridgingToPerimeters,0
;   filamentDiameters,1.75|1.75|1.75|1.75|1.75|1.75
;   filamentPricesPerKg,30|46|46|46|46|46
;   filamentDensities,1.25|1.25|1.25|1.25|1.25|1.25
;   useMinPrintHeight,0
;   minPrintHeight,0
;   useMaxPrintHeight,0
;   maxPrintHeight,0.4
;   useDiaphragm,1
;   diaphragmLayerInterval,25
;   robustSlicing,1
;   mergeAllIntoSolid,0
;   onlyRetractWhenCrossingOutline,1
;   retractBetweenLayers,1
;   useRetractionMinTravel,0
;   retractionMinTravel,3
;   retractWhileWiping,0
;   onlyWipeOutlines,1
;   avoidCrossingOutline,0
;   maxMovementDetourFactor,3
;   toolChangeRetractionDistance,12
;   toolChangeExtraRestartDistance,-0.5
;   toolChangeRetractionSpeed,600
;   externalThinWallType,0
;   internalThinWallType,2
;   thinWallAllowedOverlapPercentage,25
;   singleExtrusionMinLength,1
;   singleExtrusionMinPrintingWidthPercentage,50
;   singleExtrusionMaxPrintingWidthPercentage,200
;   singleExtrusionEndpointExtension,0.2
;   horizontalSizeCompensation,0
G90
M82
M106 S178
M104 S200 T0
M190 S50 T0
M109 S200 T0
G28 ; home all axes
G1 Z5 F3000 ; lift
G1 X2 Y20 F1500 ; avoid binder clips
G1 Z0.2 F3000 ; get ready to prime
G92 E0 ; reset extrusion distance
G1 X120 E10 F600 ; prime nozzle
G1 X250 F5000 ; quick wipe
G92 E0
G1 E-4.0000 F1800
G1 Z0.500 F1002
; process Basis
; layer 1, Z = 0.100
T0
; tool H0.100 W0.380
; skirt
G1 X108.060 Y128.933 F4800
G1 Z0.100 F1002
G1 E0.0000 F540
G92 E0
G1 X108.821 Y128.376 E0.0136 F2000
G1 X108.855 Y128.355 E0.0141
G1 X109.392 Y128.068 E0.0229
G1 X109.429 Y128.051 E0.0235
G1 X110.162 Y127.785 E0.0347
G1 X110.210 Y127.773 E0.0354
G1 X110.947 Y127.643 E0.0462
G1 X110.996 Y127.639 E0.0469
G1 X195.397 Y127.639 E1.2603
G1 X195.451 Y127.644 E1.2610
G1 X196.252 Y127.798 E1.2728
G1 X196.304 Y127.813 E1.2736
G1 X197.516 Y128.297 E1.2923
G1 X197.603 Y128.351 E1.2938
G1 X198.747 Y129.389 E1.3160
G1 X198.810 Y129.470 E1.3175
G1 X199.475 Y130.758 E1.3383
G1 X199.499 Y130.821 E1.3393
G1 X199.741 Y131.819 E1.3541
G1 X199.750 Y131.887 E1.3550
G1 X199.750 Y167.996 E1.8742
G1 X199.745 Y168.049 E1.8749
G1 X199.599 Y168.828 E1.8863
G1 X199.585 Y168.879 E1.8871
G1 X199.097 Y170.140 E1.9065
G1 X199.040 Y170.232 E1.9081
G1 X197.919 Y171.438 E1.9317
G1 X197.831 Y171.502 E1.9333
G1 X196.514 Y172.125 E1.9543
G1 X196.455 Y172.146 E1.9552
G1 X195.527 Y172.354 E1.9688
G1 X195.464 Y172.361 E1.9697
G1 X110.887 Y172.361 E3.1857
G1 X110.823 Y172.354 E3.1866
G1 X109.880 Y172.139 E3.2005
G1 X109.820 Y172.117 E3.2014
G1 X108.539 Y171.499 E3.2219
G1 X108.455 Y171.438 E3.2234
G1 X107.377 Y170.303 E3.2459
G1 X107.320 Y170.217 E3.2474
G1 X106.799 Y168.977 E3.2667
G1 X106.783 Y168.923 E3.2675
G1 X106.613 Y168.084 E3.2798
G1 X106.608 Y168.028 E3.2806
G1 X106.608 Y131.972 E3.7990
G1 X106.613 Y131.916 E3.7998
G1 X106.783 Y131.077 E3.8121
G1 X106.799 Y131.023 E3.8129
G1 X107.243 Y129.968 E3.8294
G1 X107.282 Y129.901 E3.8305
G1 X108.004 Y128.987 E3.8472
G1 X108.060 Y128.933 E3.8483
G1 X108.305 Y129.225 F4800
G92 E0
G1 X109.035 Y128.691 E0.0130 F2000
G1 X109.046 Y128.683 E0.0132
G1 X109.559 Y128.410 E0.0216
G1 X109.572 Y128.404 E0.0218
G1 X110.276 Y128.148 E0.0325
G1 X110.292 Y128.144 E0.0328
G1 X110.996 Y128.020 E0.0430
G1 X111.013 Y128.019 E0.0433
G1 X195.379 Y128.019 E1.2562
G1 X195.397 Y128.020 E1.2564
G1 X196.163 Y128.168 E1.2677
G1 X196.180 Y128.173 E1.2679
G1 X197.344 Y128.637 E1.2859
G1 X197.373 Y128.655 E1.2864
G1 X198.467 Y129.648 E1.3077
G1 X198.488 Y129.675 E1.3082
G1 X199.127 Y130.912 E1.3282
G1 X199.135 Y130.933 E1.3285
G1 X199.367 Y131.887 E1.3426
G1 X199.370 Y131.909 E1.3429
G1 X199.370 Y167.979 E1.8615
G1 X199.368 Y167.996 E1.8617
G1 X199.229 Y168.741 E1.8726
G1 X199.224 Y168.758 E1.8729
G1 X198.756 Y169.969 E1.8916
G1 X198.737 Y170.000 E1.8921
G1 X197.665 Y171.152 E1.9147
G1 X197.636 Y171.174 E1.9152
G1 X196.371 Y171.773 E1.9353
G1 X196.351 Y171.780 E1.9357
G1 X195.464 Y171.979 E1.9487
G1 X195.443 Y171.981 E1.9490
G1 X110.908 Y171.981 E3.1644
G1 X110.887 Y171.979 E3.1647
G1 X109.986 Y171.773 E3.1780
G1 X109.965 Y171.766 E3.1783
G1 X108.735 Y171.172 E3.1979
G1 X108.707 Y171.152 E3.1984
G1 X107.676 Y170.066 E3.2199
G1 X107.657 Y170.038 E3.2204
G1 X107.157 Y168.847 E3.2390
G1 X107.151 Y168.829 E3.2393
G1 X106.990 Y168.028 E3.2510
G1 X106.988 Y168.009 E3.2513
G1 X106.988 Y131.991 E3.7691
G1 X106.990 Y131.972 E3.7694
G1 X107.151 Y131.171 E3.7811
G1 X107.157 Y131.153 E3.7814
G1 X107.583 Y130.139 E3.7972
G1 X107.596 Y130.117 E3.7976
G1 X108.287 Y129.243 E3.8136
G1 X108.305 Y129.225 E3.8140
G92 E0
G1 E-4.0000 F1800
G1 Z0.500 F1002
; inner perimeter
G1 X111.748 Y132.779 F4800
G1 Z0.100 F1002
G1 E0.0000 F1800
G92 E0
G1 X194.610 Y132.779 E1.1913 F1700
G1 X194.610 Y167.221 E1.6865
G1 X111.748 Y167.221 E2.8777
G1 X111.748 Y132.779 E3.3729
; outer perimeter
G1 X111.368 Y132.435 F4800
G92 E0
G1 X111.380 Y132.407 E0.0004 F1400
G1 X111.404 Y132.399 E0.0008
G1 X194.952 Y132.399 E1.2020
G1 X194.980 Y132.410 E1.2024
G1 X194.990 Y132.435 E1.2028
G1 X194.990 Y167.565 E1.7078
G1 X194.982 Y167.584 E1.7081
G1 X194.946 Y167.601 E1.7087
G1 X111.404 Y167.601 E2.9098
G1 X111.381 Y167.593 E2.9101
G1 X111.368 Y167.562 E2.9106
G1 X111.368 Y132.435 E3.4156
; solid layer
G1 X112.052 Y133.280 F4800
G92 E0
G1 X194.306 Y133.280 E1.1825 F1600
G1 X194.306 Y133.660 E1.1880
G1 X112.052 Y133.660 E2.3705
G1 X112.052 Y134.040 E2.3760
G1 X194.306 Y134.040 E3.5585
G1 X194.306 Y134.420 E3.5640
G1 X112.052 Y134.420 E4.7465
G1 X112.052 Y134.800 E4.7520
G1 X194.306 Y134.800 E5.9345
G1 X194.306 Y135.180 E5.9400
G1 X112.052 Y135.180 E7.1225
G1 X112.052 Y135.560 E7.1280
G1 X194.306 Y135.560 E8.3105
G1 X194.306 Y135.940 E8.3160
G1 X112.052 Y135.940 E9.4985
G1 X112.052 Y136.320 E9.5040
G1 X194.306 Y136.320 E10.6865
G1 X194.306 Y136.700 E10.6920
G1 X112.052 Y136.700 E11.8745
G1 X112.052 Y137.080 E11.8800
G1 X194.306 Y137.080 E13.0626
G1 X194.306 Y137.460 E13.0680
G1 X112.052 Y137.460 E14.2506
G1 X112.052 Y137.840 E14.2560
G1 X194.306 Y137.840 E15.4386
G1 X194.306 Y138.220 E15.4440
G1 X112.052 Y138.220 E16.6266
G1 X112.052 Y138.600 E16.6320
G1 X194.306 Y138.600 E17.8146
G1 X194.306 Y138.980 E17.8200
G1 X112.052 Y138.980 E19.0026
G1 X112.052 Y139.360 E19.0080
G1 X194.306 Y139.360 E20.1906
G1 X194.306 Y139.740 E20.1960
G1 X112.052 Y139.740 E21.3786
G1 X112.052 Y140.120 E21.3840
G1 X194.306 Y140.120 E22.5666
G1 X194.306 Y140.500 E22.5720
G1 X112.052 Y140.500 E23.7546
G1 X112.052 Y140.880 E23.7600
G1 X194.306 Y140.880 E24.9426
G1 X194.306 Y141.260 E24.9480
G1 X112.052 Y141.260 E26.1306
G1 X112.052 Y141.640 E26.1360
G1 X194.306 Y141.640 E27.3186
G1 X194.306 Y142.020 E27.3240
G1 X112.052 Y142.020 E28.5066
G1 X112.052 Y142.400 E28.5120
G1 X194.306 Y142.400 E29.6946
G1 X194.306 Y142.780 E29.7000
G1 X112.052 Y142.780 E30.8826
G1 X112.052 Y143.160 E30.8880
G1 X194.306 Y143.160 E32.0706
G1 X194.306 Y143.540 E32.0760
G1 X112.052 Y143.540 E33.2586
G1 X112.052 Y143.920 E33.2640
G1 X194.306 Y143.920 E34.4466
G1 X194.306 Y144.300 E34.4520
G1 X112.052 Y144.300 E35.6346
G1 X112.052 Y144.680 E35.6400
G1 X194.306 Y144.680 E36.8226
G1 X194.306 Y145.060 E36.8280
G1 X112.052 Y145.060 E38.0106
G1 X112.052 Y145.440 E38.0160
G1 X194.306 Y145.440 E39.1986
G1 X194.306 Y145.820 E39.2040
G1 X112.052 Y145.820 E40.3866
G1 X112.052 Y146.200 E40.3920
G1 X194.306 Y146.200 E41.5746
G1 X194.306 Y146.580 E41.5800
G1 X112.052 Y146.580 E42.7626
G1 X112.052 Y146.960 E42.7680
G1 X194.306 Y146.960 E43.9506
G1 X194.306 Y147.340 E43.9560
G1 X112.052 Y147.340 E45.1386
G1 X112.052 Y147.720 E45.1440
G1 X194.306 Y147.720 E46.3266
G1 X194.306 Y148.100 E46.3320
G1 X112.052 Y148.100 E47.5146
G1 X112.052 Y148.480 E47.5200
G1 X194.306 Y148.480 E48.7026
G1 X194.306 Y148.860 E48.7081
G1 X112.052 Y148.860 E49.8906
G1 X112.052 Y149.240 E49.8961
G1 X194.306 Y149.240 E51.0786
G1 X194.306 Y149.620 E51.0841
G1 X112.052 Y149.620 E52.2666
G1 X112.052 Y150.000 E52.2721
G1 X194.306 Y150.000 E53.4546
G1 X194.306 Y150.380 E53.4601
G1 X112.052 Y150.380 E54.6426
G1 X112.052 Y150.760 E54.6481
G1 X194.306 Y150.760 E55.8306
G1 X194.306 Y151.140 E55.8361
G1 X112.052 Y151.140 E57.0186
G1 X112.052 Y151.520 E57.0241
G1 X194.306 Y151.520 E58.2066
G1 X194.306 Y151.900 E58.2121
G1 X112.052 Y151.900 E59.3946
G1 X112.052 Y152.280 E59.4001
G1 X194.306 Y152.280 E60.5826
G1 X194.306 Y152.660 E60.5881
G1 X112.052 Y152.660 E61.7706
G1 X112.052 Y153.040 E61.7761
G1 X194.306 Y153.040 E62.9586
G1 X194.306 Y153.420 E62.9641
G1 X112.052 Y153.420 E64.1466
G1 X112.052 Y153.800 E64.1521
G1 X194.306 Y153.800 E65.3346
G1 X194.306 Y154.180 E65.3401
G1 X112.052 Y154.180 E66.5226
G1 X112.052 Y154.560 E66.5281
G1 X194.306 Y154.560 E67.7106
G1 X194.306 Y154.940 E67.7161
G1 X112.052 Y154.940 E68.8986
G1 X112.052 Y155.320 E68.9041
G1 X194.306 Y155.320 E70.0866
G1 X194.306 Y155.700 E70.0921
G1 X112.052 Y155.700 E71.2746
G1 X112.052 Y156.080 E71.2801
G1 X194.306 Y156.080 E72.4626
G1 X194.306 Y156.460 E72.4681
G1 X112.052 Y156.460 E73.6506
G1 X112.052 Y156.840 E73.6561
G1 X194.306 Y156.840 E74.8386
G1 X194.306 Y157.220 E74.8441
G1 X112.052 Y157.220 E76.0266
G1 X112.052 Y157.600 E76.0321
G1 X194.306 Y157.600 E77.2146
G1 X194.306 Y157.980 E77.2201
G1 X112.052 Y157.980 E78.4026
G1 X112.052 Y158.360 E78.4081
G1 X194.306 Y158.360 E79.5906
G1 X194.306 Y158.740 E79.5961
G1 X112.052 Y158.740 E80.7786
G1 X112.052 Y159.120 E80.7841
G1 X194.306 Y159.120 E81.9666
G1 X194.306 Y159.500 E81.9721
G1 X112.052 Y159.500 E83.1546
G1 X112.052 Y159.880 E83.1601
G1 X194.306 Y159.880 E84.3426
G1 X194.306 Y160.260 E84.3481
G1 X112.052 Y160.260 E85.5306
G1 X112.052 Y160.640 E85.5361
G1 X194.306 Y160.640 E86.7186
G1 X194.306 Y161.020 E86.7241
G1 X112.052 Y161.020 E87.9066
G1 X112.052 Y161.400 E87.9121
G1 X194.306 Y161.400 E89.0946
G1 X194.306 Y161.780 E89.1001
G1 X112.052 Y161.780 E90.2826
G1 X112.052 Y162.160 E90.2881
G1 X194.306 Y162.160 E91.4706
G1 X194.306 Y162.540 E91.4761
G1 X112.052 Y162.540 E92.6586
G1 X112.052 Y162.920 E92.6641
G1 X194.306 Y162.920 E93.8466
G1 X194.306 Y163.300 E93.8521
G1 X112.052 Y163.300 E95.0346
G1 X112.052 Y163.680 E95.0401
G1 X194.306 Y163.680 E96.2226
G1 X194.306 Y164.060 E96.2281
G1 X112.052 Y164.060 E97.4106
G1 X112.052 Y164.440 E97.4161
G1 X194.306 Y164.440 E98.5986
G1 X194.306 Y164.820 E98.6041
G1 X112.052 Y164.820 E99.7866
G1 X112.052 Y165.200 E99.7921
G1 X194.306 Y165.200 E100.9746
G1 X194.306 Y165.580 E100.9801
G1 X112.052 Y165.580 E102.1626
G1 X112.052 Y165.960 E102.1681
G1 X194.306 Y165.960 E103.3506
G1 X194.306 Y166.340 E103.3561
G1 X112.052 Y166.340 E104.5386
G1 X112.052 Y166.720 E104.5441
G1 X194.306 Y166.720 E105.7266
G92 E0
G1 E-4.0000 F1800
G1 Z0.600 F1002
; layer 2, Z = 0.200
M106 S153
; inner perimeter
G1 X194.729 Y167.338 F4800
G1 Z0.200 F1002
G1 E0.0000 F1800
G92 E0
G1 X111.631 Y167.338 E1.1947 F3400
G1 X111.631 Y132.662 E1.6932
G1 X194.729 Y132.662 E2.8879
G1 X194.729 Y167.338 E3.3864
; outer perimeter
G1 X195.109 Y167.576 F4800
G92 E0
G1 X195.093 Y167.641 E0.0010 F2800
G1 X195.054 Y167.695 E0.0019
G1 X195.011 Y167.713 E0.0026
G1 X194.975 Y167.718 E0.0031
G1 X111.388 Y167.718 E1.2048
G1 X111.342 Y167.709 E1.2055
G1 X111.282 Y167.672 E1.2065
G1 X111.266 Y167.648 E1.2069
G1 X111.251 Y167.580 E1.2079
G1 X111.251 Y132.417 E1.7134
