; G-Code generated by Simplify3D(R) Version 4.0.0
; Jun 20, 2019 at 7:38:21 AM
; Settings Summary
;   processName,Basis
;   applyToModels,SRCtrl_V2
;   profileName,SRCtrl
;   profileVersion,2019-06-16 18:21:35
;   baseProfile,Tierkoepfe
;   printMaterial,
;   printQuality,
;   printExtruders,
;   extruderName,Primary Extruder
;   extruderToolheadNumber,0
;   extruderDiameter,0.4
;   extruderAutoWidth,0
;   extruderWidth,0.38
;   extrusionMultiplier,0.91
;   extruderUseRetract,1
;   extruderRetractionDistance,4.5
;   extruderExtraRestartDistance,0
;   extruderRetractionZLift,0.4
;   extruderRetractionSpeed,1800
;   extruderUseCoasting,0
;   extruderCoastingDistance,0.2
;   extruderUseWipe,0
;   extruderWipeDistance,5
;   primaryExtruder,0
;   layerHeight,0.1
;   topSolidLayers,4
;   bottomSolidLayers,4
;   perimeterOutlines,2
;   printPerimetersInsideOut,1
;   startPointOption,2
;   startPointOriginX,0
;   startPointOriginY,0
;   sequentialIslands,0
;   spiralVaseMode,0
;   firstLayerHeightPercentage,100
;   firstLayerWidthPercentage,100
;   firstLayerUnderspeed,0.5
;   useRaft,0
;   raftExtruder,0
;   raftTopLayers,3
;   raftBaseLayers,2
;   raftOffset,3
;   raftSeparationDistance,0.16
;   raftTopInfill,100
;   aboveRaftSpeedMultiplier,0.3
;   useSkirt,1
;   skirtExtruder,0
;   skirtLayers,1
;   skirtOutlines,2
;   skirtOffset,4
;   usePrimePillar,0
;   primePillarExtruder,999
;   primePillarWidth,12
;   primePillarLocation,7
;   primePillarSpeedMultiplier,1
;   useOozeShield,0
;   oozeShieldExtruder,999
;   oozeShieldOffset,2
;   oozeShieldOutlines,1
;   oozeShieldSidewallShape,1
;   oozeShieldSidewallAngle,30
;   oozeShieldSpeedMultiplier,1
;   infillExtruder,0
;   internalInfillPattern,Rectilinear
;   externalInfillPattern,Rectilinear
;   infillPercentage,50
;   outlineOverlapPercentage,20
;   infillExtrusionWidthPercentage,95
;   minInfillLength,0.6
;   infillLayerInterval,1
;   internalInfillAngles,0,90
;   overlapInternalInfillAngles,0
;   externalInfillAngles,0,90
;   generateSupport,1
;   supportExtruder,0
;   supportInfillPercentage,20
;   supportExtraInflation,0
;   supportBaseLayers,0
;   denseSupportExtruder,0
;   denseSupportLayers,0
;   denseSupportInfillPercentage,50
;   supportLayerInterval,1
;   supportHorizontalPartOffset,0.3
;   supportUpperSeparationLayers,1
;   supportLowerSeparationLayers,1
;   supportType,0
;   supportGridSpacing,1
;   maxOverhangAngle,50
;   supportAngles,0
;   temperatureName,Primary Extruder,Heated Bed
;   temperatureNumber,0,0
;   temperatureSetpointCount,1,1
;   temperatureSetpointLayers,1,1
;   temperatureSetpointTemperatures,200,50
;   temperatureStabilizeAtStartup,1,1
;   temperatureHeatedBed,0,1
;   temperatureRelayBetweenLayers,0,0
;   temperatureRelayBetweenLoops,0,0
;   fanLayers,1,2
;   fanSpeeds,70,60
;   blipFanToFullPower,0
;   adjustSpeedForCooling,1
;   minSpeedLayerTime,15
;   minCoolingSpeedSlowdown,20
;   increaseFanForCooling,0
;   minFanLayerTime,45
;   maxCoolingFanSpeed,100
;   increaseFanForBridging,0
;   bridgingFanSpeed,100
;   use5D,1
;   relativeEdistances,0
;   allowEaxisZeroing,1
;   independentExtruderAxes,0
;   includeM10123,0
;   stickySupport,1
;   applyToolheadOffsets,0
;   gcodeXoffset,0
;   gcodeYoffset,0
;   gcodeZoffset,0
;   overrideMachineDefinition,1
;   machineTypeOverride,0
;   strokeXoverride,300
;   strokeYoverride,300
;   strokeZoverride,400
;   originOffsetXoverride,0
;   originOffsetYoverride,0
;   originOffsetZoverride,0
;   homeXdirOverride,-1
;   homeYdirOverride,-1
;   homeZdirOverride,-1
;   flipXoverride,1
;   flipYoverride,-1
;   flipZoverride,1
;   toolheadOffsets,0,0|0,0|0,0|0,0|0,0|0,0
;   overrideFirmwareConfiguration,1
;   firmwareTypeOverride,RepRap (Marlin/Repetier/Sprinter)
;   GPXconfigOverride,r2
;   baudRateOverride,115200
;   overridePrinterModels,0
;   printerModelsOverride
;   startingGcode,M104 S[extruder0_temperature] T0,M190 S[bed0_temperature] T0,M109 S[extruder0_temperature] T0,G28 ; home all axes,G1 Z5 F3000 ; lift,G1 X2 Y20 F1500 ; avoid binder clips,G1 Z0.2 F3000 ; get ready to prime,G92 E0 ; reset extrusion distance,G1 X120 E10 F600 ; prime nozzle,G1 X250 F5000 ; quick wipe
;   layerChangeGcode,
;   retractionGcode,
;   toolChangeGcode,
;   endingGcode,G28 X0 ; home x axis,M106 S0 ; turn off cooling fan,M104 S0 ; turn off extruder,M140 S0 ; turn off bed,G28 X0 ; home x axis,G1 Y200  ; move to park position,M84 ; disable motors
;   exportFileFormat,gcode
;   celebration,0
;   celebrationSong,Funky Town
;   postProcessing,
;   defaultSpeed,4000
;   outlineUnderspeed,0.7
;   solidInfillUnderspeed,0.8
;   supportUnderspeed,0.8
;   rapidXYspeed,4800
;   rapidZspeed,1002
;   minBridgingArea,5
;   bridgingExtraInflation,0
;   bridgingExtrusionMultiplier,1
;   bridgingSpeedMultiplier,0.75
;   useFixedBridgingAngle,0
;   fixedBridgingAngle,0
;   applyBridgingToPerimeters,0
;   filamentDiameters,1.75|1.75|1.75|1.75|1.75|1.75
;   filamentPricesPerKg,30|46|46|46|46|46
;   filamentDensities,1.25|1.25|1.25|1.25|1.25|1.25
;   useMinPrintHeight,0
;   minPrintHeight,0
;   useMaxPrintHeight,0
;   maxPrintHeight,0.4
;   useDiaphragm,1
;   diaphragmLayerInterval,25
;   robustSlicing,1
;   mergeAllIntoSolid,0
;   onlyRetractWhenCrossingOutline,1
;   retractBetweenLayers,1
;   useRetractionMinTravel,0
;   retractionMinTravel,3
;   retractWhileWiping,0
;   onlyWipeOutlines,1
;   avoidCrossingOutline,0
;   maxMovementDetourFactor,3
;   toolChangeRetractionDistance,12
;   toolChangeExtraRestartDistance,-0.5
;   toolChangeRetractionSpeed,600
;   externalThinWallType,0
;   internalThinWallType,2
;   thinWallAllowedOverlapPercentage,25
;   singleExtrusionMinLength,1
;   singleExtrusionMinPrintingWidthPercentage,50
;   singleExtrusionMaxPrintingWidthPercentage,200
;   singleExtrusionEndpointExtension,0.2
;   horizontalSizeCompensation,0
G90
M82
M106 S178
M104 S200 T0
M190 S50 T0
M109 S200 T0
G28 ; home all axes
G1 Z5 F3000 ; lift
G1 X2 Y20 F1500 ; avoid binder clips
G1 Z0.2 F3000 ; get ready to prime
G92 E0 ; reset extrusion distance
G1 X120 E10 F600 ; prime nozzle
G1 X250 F5000 ; quick wipe
G92 E0
G1 E-4.5000 F1800
G1 Z0.500 F1002
; process Basis
; layer 1, Z = 0.100
T0
; tool H0.100 W0.380
; skirt
G1 X102.300 Y128.297 F4800
G1 Z0.100 F1002
G1 E0.0000 F540
G92 E0
G1 X102.510 Y128.210 E0.0033 F2000
G1 X107.490 Y128.210 E0.0749
G1 X107.700 Y128.297 E0.0781
G1 X108.383 Y128.980 E0.0920
G1 X192.617 Y128.980 E1.3030
G1 X193.300 Y128.297 E1.3169
G1 X193.510 Y128.210 E1.3202
G1 X198.490 Y128.210 E1.3918
G1 X198.700 Y128.297 E1.3950
G1 X201.203 Y130.800 E1.4459
G1 X201.290 Y131.010 E1.4492
G1 X201.290 Y168.990 E1.9952
G1 X201.203 Y169.200 E1.9985
G1 X198.700 Y171.703 E2.0494
G1 X198.490 Y171.790 E2.0526
G1 X193.510 Y171.790 E2.1243
G1 X193.300 Y171.703 E2.1275
G1 X192.617 Y171.020 E2.1414
G1 X108.383 Y171.020 E3.3524
G1 X107.700 Y171.703 E3.3663
G1 X107.490 Y171.790 E3.3696
G1 X102.510 Y171.790 E3.4412
G1 X102.300 Y171.703 E3.4444
G1 X99.797 Y169.200 E3.4953
G1 X99.710 Y168.990 E3.4986
G1 X99.710 Y131.010 E4.0446
G1 X99.797 Y130.800 E4.0479
G1 X102.300 Y128.297 E4.0988
G1 X102.516 Y128.619 F4800
G92 E0
G1 X102.585 Y128.590 E0.0011 F2000
G1 X107.415 Y128.590 E0.0705
G1 X107.484 Y128.619 E0.0716
G1 X108.226 Y129.360 E0.0867
G1 X192.774 Y129.360 E1.3022
G1 X193.516 Y128.619 E1.3173
G1 X193.585 Y128.590 E1.3184
G1 X198.415 Y128.590 E1.3878
G1 X198.484 Y128.619 E1.3889
G1 X200.881 Y131.016 E1.4376
G1 X200.910 Y131.085 E1.4387
G1 X200.910 Y168.915 E1.9825
G1 X200.881 Y168.984 E1.9836
G1 X198.484 Y171.381 E2.0324
G1 X198.415 Y171.410 E2.0334
G1 X193.585 Y171.410 E2.1029
G1 X193.516 Y171.381 E2.1040
G1 X192.774 Y170.640 E2.1190
G1 X108.226 Y170.640 E3.3346
G1 X107.484 Y171.381 E3.3496
G1 X107.415 Y171.410 E3.3507
G1 X102.585 Y171.410 E3.4201
G1 X102.516 Y171.381 E3.4212
G1 X100.119 Y168.984 E3.4700
G1 X100.090 Y168.915 E3.4710
G1 X100.090 Y131.085 E4.0149
G1 X100.119 Y131.016 E4.0160
G1 X102.516 Y128.619 E4.0647
G92 E0
G1 E-4.5000 F1800
G1 Z0.500 F1002
; inner perimeter
G1 X106.462 Y134.120 F4800
G1 Z0.100 F1002
G1 E0.0000 F1800
G92 E0
G1 X194.406 Y134.120 E1.2643 F1700
G1 X194.406 Y165.880 E1.7209
G1 X106.462 Y165.880 E2.9853
G1 X106.462 Y134.120 E3.4419
; outer perimeter
G1 X106.082 Y133.740 F4800
G92 E0
G1 X194.786 Y133.740 E1.2753 F1400
G1 X194.786 Y166.260 E1.7428
G1 X106.082 Y166.260 E3.0181
G1 X106.082 Y133.740 E3.4856
; solid layer
G1 X106.766 Y134.800 F4800
G92 E0
G1 X194.102 Y134.800 E1.2556 F1600
G1 X194.102 Y135.180 E1.2611
G1 X106.766 Y135.180 E2.5167
G1 X106.766 Y135.560 E2.5221
G1 X194.102 Y135.560 E3.7777
G1 X194.102 Y135.940 E3.7832
G1 X106.766 Y135.940 E5.0388
G1 X106.766 Y136.320 E5.0443
G1 X194.102 Y136.320 E6.2999
G1 X194.102 Y136.700 E6.3053
G1 X106.766 Y136.700 E7.5609
G1 X106.766 Y137.080 E7.5664
G1 X194.102 Y137.080 E8.8220
G1 X194.102 Y137.460 E8.8275
G1 X106.766 Y137.460 E10.0831
G1 X106.766 Y137.840 E10.0885
G1 X194.102 Y137.840 E11.3441
G1 X194.102 Y138.220 E11.3496
G1 X106.766 Y138.220 E12.6052
G1 X106.766 Y138.600 E12.6107
G1 X194.102 Y138.600 E13.8663
G1 X194.102 Y138.980 E13.8717
G1 X106.766 Y138.980 E15.1273
G1 X106.766 Y139.360 E15.1328
G1 X194.102 Y139.360 E16.3884
G1 X194.102 Y139.740 E16.3939
G1 X106.766 Y139.740 E17.6495
G1 X106.766 Y140.120 E17.6549
G1 X194.102 Y140.120 E18.9105
G1 X194.102 Y140.500 E18.9160
G1 X106.766 Y140.500 E20.1716
G1 X106.766 Y140.880 E20.1771
G1 X194.102 Y140.880 E21.4327
G1 X194.102 Y141.260 E21.4381
G1 X106.766 Y141.260 E22.6937
G1 X106.766 Y141.640 E22.6992
G1 X194.102 Y141.640 E23.9548
G1 X194.102 Y142.020 E23.9603
G1 X106.766 Y142.020 E25.2159
G1 X106.766 Y142.400 E25.2213
G1 X194.102 Y142.400 E26.4769
G1 X194.102 Y142.780 E26.4824
G1 X106.766 Y142.780 E27.7380
G1 X106.766 Y143.160 E27.7435
G1 X194.102 Y143.160 E28.9991
G1 X194.102 Y143.540 E29.0045
G1 X106.766 Y143.540 E30.2601
G1 X106.766 Y143.920 E30.2656
G1 X194.102 Y143.920 E31.5212
G1 X194.102 Y144.300 E31.5267
G1 X106.766 Y144.300 E32.7823
G1 X106.766 Y144.680 E32.7877
G1 X194.102 Y144.680 E34.0433
G1 X194.102 Y145.060 E34.0488
G1 X106.766 Y145.060 E35.3044
G1 X106.766 Y145.440 E35.3099
G1 X194.102 Y145.440 E36.5655
G1 X194.102 Y145.820 E36.5709
G1 X106.766 Y145.820 E37.8265
G1 X106.766 Y146.200 E37.8320
G1 X194.102 Y146.200 E39.0876
G1 X194.102 Y146.580 E39.0931
G1 X106.766 Y146.580 E40.3487
G1 X106.766 Y146.960 E40.3541
G1 X194.102 Y146.960 E41.6097
G1 X194.102 Y147.340 E41.6152
G1 X106.766 Y147.340 E42.8708
G1 X106.766 Y147.720 E42.8763
G1 X194.102 Y147.720 E44.1319
G1 X194.102 Y148.100 E44.1373
G1 X106.766 Y148.100 E45.3929
G1 X106.766 Y148.480 E45.3984
G1 X194.102 Y148.480 E46.6540
G1 X194.102 Y148.860 E46.6595
G1 X106.766 Y148.860 E47.9151
G1 X106.766 Y149.240 E47.9205
G1 X194.102 Y149.240 E49.1761
G1 X194.102 Y149.620 E49.1816
G1 X106.766 Y149.620 E50.4372
G1 X106.766 Y150.000 E50.4427
G1 X194.102 Y150.000 E51.6983
G1 X194.102 Y150.380 E51.7037
G1 X106.766 Y150.380 E52.9593
G1 X106.766 Y150.760 E52.9648
G1 X194.102 Y150.760 E54.2204
G1 X194.102 Y151.140 E54.2259
G1 X106.766 Y151.140 E55.4815
G1 X106.766 Y151.520 E55.4869
G1 X194.102 Y151.520 E56.7425
G1 X194.102 Y151.900 E56.7480
G1 X106.766 Y151.900 E58.0036
G1 X106.766 Y152.280 E58.0091
G1 X194.102 Y152.280 E59.2647
G1 X194.102 Y152.660 E59.2701
G1 X106.766 Y152.660 E60.5257
G1 X106.766 Y153.040 E60.5312
G1 X194.102 Y153.040 E61.7868
G1 X194.102 Y153.420 E61.7922
G1 X106.766 Y153.420 E63.0479
G1 X106.766 Y153.800 E63.0533
G1 X194.102 Y153.800 E64.3089
G1 X194.102 Y154.180 E64.3144
G1 X106.766 Y154.180 E65.5700
G1 X106.766 Y154.560 E65.5754
G1 X194.102 Y154.560 E66.8311
G1 X194.102 Y154.940 E66.8365
G1 X106.766 Y154.940 E68.0921
G1 X106.766 Y155.320 E68.0976
G1 X194.102 Y155.320 E69.3532
G1 X194.102 Y155.700 E69.3586
G1 X106.766 Y155.700 E70.6143
G1 X106.766 Y156.080 E70.6197
G1 X194.102 Y156.080 E71.8753
G1 X194.102 Y156.460 E71.8808
G1 X106.766 Y156.460 E73.1364
G1 X106.766 Y156.840 E73.1418
G1 X194.102 Y156.840 E74.3974
G1 X194.102 Y157.220 E74.4029
G1 X106.766 Y157.220 E75.6585
G1 X106.766 Y157.600 E75.6640
G1 X194.102 Y157.600 E76.9196
G1 X194.102 Y157.980 E76.9250
G1 X106.766 Y157.980 E78.1806
G1 X106.766 Y158.360 E78.1861
G1 X194.102 Y158.360 E79.4417
G1 X194.102 Y158.740 E79.4472
G1 X106.766 Y158.740 E80.7028
G1 X106.766 Y159.120 E80.7082
G1 X194.102 Y159.120 E81.9638
G1 X194.102 Y159.500 E81.9693
G1 X106.766 Y159.500 E83.2249
G1 X106.766 Y159.880 E83.2304
G1 X194.102 Y159.880 E84.4860
G1 X194.102 Y160.260 E84.4914
G1 X106.766 Y160.260 E85.7470
G1 X106.766 Y160.640 E85.7525
G1 X194.102 Y160.640 E87.0081
G1 X194.102 Y161.020 E87.0136
G1 X106.766 Y161.020 E88.2692
G1 X106.766 Y161.400 E88.2746
G1 X194.102 Y161.400 E89.5302
G1 X194.102 Y161.780 E89.5357
G1 X106.766 Y161.780 E90.7913
G1 X106.766 Y162.160 E90.7968
G1 X194.102 Y162.160 E92.0524
G1 X194.102 Y162.540 E92.0578
G1 X106.766 Y162.540 E93.3134
G1 X106.766 Y162.920 E93.3189
G1 X194.102 Y162.920 E94.5745
G1 X194.102 Y163.300 E94.5800
G1 X106.766 Y163.300 E95.8356
G1 X106.766 Y163.680 E95.8410
G1 X194.102 Y163.680 E97.0966
G1 X194.102 Y164.060 E97.1021
G1 X106.766 Y164.060 E98.3577
G1 X106.766 Y164.440 E98.3632
G1 X194.102 Y164.440 E99.6188
G1 X194.102 Y164.820 E99.6242
G1 X106.766 Y164.820 E100.8798
G1 X106.766 Y165.200 E100.8853
G1 X194.102 Y165.200 E102.1409
G92 E0
G1 E-4.5000 F1800
G1 Z0.500 F1002
; support
G1 X195.609 Y165.200 F4800
G1 Z0.100 F1002
G1 E0.0000 F1800
G92 E0
G1 X196.530 Y165.200 E0.0132 F1600
G1 X196.530 Y163.300 E0.0406
G1 X195.609 Y163.300 E0.0538
G1 X195.609 Y161.400 E0.0811
G1 X196.530 Y161.400 E0.0944
G1 X196.530 Y159.500 E0.1217
G1 X195.609 Y159.500 E0.1349
G1 X195.609 Y157.600 E0.1622
G1 X196.530 Y157.600 E0.1755
G1 X196.530 Y155.700 E0.2028
G1 X195.609 Y155.700 E0.2160
G1 X195.609 Y153.800 E0.2433
G1 X196.530 Y153.800 E0.2566
G1 X196.530 Y151.900 E0.2839
G1 X195.609 Y151.900 E0.2972
G1 X195.609 Y150.000 E0.3245
G1 X196.530 Y150.000 E0.3377
G1 X196.530 Y148.100 E0.3650
G1 X195.609 Y148.100 E0.3783
G1 X195.609 Y146.200 E0.4056
G1 X196.530 Y146.200 E0.4188
G1 X196.530 Y144.300 E0.4461
G1 X195.609 Y144.300 E0.4594
G1 X195.609 Y142.400 E0.4867
G1 X196.530 Y142.400 E0.4999
G1 X196.530 Y140.500 E0.5273
G1 X195.609 Y140.500 E0.5405
G1 X195.609 Y138.600 E0.5678
G1 X196.530 Y138.600 E0.5811
G1 X196.530 Y136.700 E0.6084
G1 X195.609 Y136.700 E0.6216
G92 E0
G1 E-4.5000 F1800
G1 Z0.500 F1002
G1 X104.470 Y134.800 F4800
G1 Z0.100 F1002
G1 E0.0000 F1800
G92 E0
G1 X105.259 Y134.800 E0.0113 F1600
G1 X105.259 Y136.700 E0.0387
G1 X104.470 Y136.700 E0.0500
G1 X104.470 Y138.600 E0.0773
G1 X105.259 Y138.600 E0.0887
G1 X105.259 Y140.500 E0.1160
G1 X104.470 Y140.500 E0.1273
G1 X104.470 Y142.400 E0.1547
G1 X105.259 Y142.400 E0.1660
G1 X105.259 Y144.300 E0.1933
G1 X104.470 Y144.300 E0.2047
G1 X104.470 Y146.200 E0.2320
G1 X105.259 Y146.200 E0.2433
G1 X105.259 Y148.100 E0.2706
G1 X104.470 Y148.100 E0.2820
G1 X104.470 Y150.000 E0.3093
G1 X105.259 Y150.000 E0.3206
G1 X105.259 Y151.900 E0.3480
G1 X104.470 Y151.900 E0.3593
G1 X104.470 Y153.800 E0.3866
G1 X105.259 Y153.800 E0.3980
G1 X105.259 Y155.700 E0.4253
G1 X104.470 Y155.700 E0.4366
G1 X104.470 Y157.600 E0.4640
G1 X105.259 Y157.600 E0.4753
G1 X105.259 Y159.500 E0.5026
G1 X104.470 Y159.500 E0.5140
G1 X104.470 Y161.400 E0.5413
G1 X105.259 Y161.400 E0.5526
G1 X105.259 Y163.300 E0.5799
G1 X104.470 Y163.300 E0.5913
G1 X104.470 Y165.200 E0.6186
G1 X105.259 Y165.200 E0.6299
G92 E0
G1 E-4.5000 F1800
G1 Z0.600 F1002
; layer 2, Z = 0.200
M106 S153
; inner perimeter
G1 X106.319 Y165.980 F4800
G1 Z0.200 F1002
G1 E0.0000 F1800
G92 E0
G1 X106.319 Y134.020 E0.4595 F3400
G1 X194.549 Y134.020 E1.7279
G1 X194.549 Y165.980 E2.1874
G1 X106.319 Y165.980 E3.4559
; outer perimeter
G1 X105.939 Y166.360 F4800
G92 E0
G1 X105.939 Y133.640 E0.4704 F2800
G1 X194.929 Y133.640 E1.7498
G1 X194.929 Y166.360 E2.2202
G1 X105.939 Y166.360 E3.4996
; solid layer
G1 X106.680 Y165.676 F4800
G92 E0
G1 X106.680 Y134.324 E0.4507 F3200
G1 X107.060 Y134.324 E0.4562
G1 X107.060 Y165.676 E0.9069
G1 X107.440 Y165.676 E0.9124
G1 X107.440 Y134.324 E1.3631
